QPZ-918/AT_DOG_AMP/temp/gmr_data_csv/L0.25.csv
time_sec,root_pos_x,root_pos_y,root_pos_z,root_quat_w,root_quat_x,root_quat_y,root_quat_z,base_lin_vel_x,base_lin_vel_y,base_lin_vel_z,base_ang_vel_x,base_ang_vel_y,base_ang_vel_z,FR_hip_joint,FR_thigh_joint,FR_calf_joint,FL_hip_joint,FL_thigh_joint,FL_calf_joint,RR_hip_joint,RR_thigh_joint,RR_calf_joint,RL_hip_joint,RL_thigh_joint,RL_calf_joint,FR_hip_joint_vel,FR_thigh_joint_vel,FR_calf_joint_vel,FL_hip_joint_vel,FL_thigh_joint_vel,FL_calf_joint_vel,RR_hip_joint_vel,RR_thigh_joint_vel,RR_calf_joint_vel,RL_hip_joint_vel,RL_thigh_joint_vel,RL_calf_joint_vel
0.002000,0.017868,-1.364474,0.291319,0.999901,0.005558,-0.011125,0.006516,-0.003914,0.111492,0.014672,-0.320101,-0.144264,0.078243,-0.042370,-0.821660,-0.032470,-0.102732,0.999407,-0.239872,0.172543,-0.745589,0.106824,-0.050030,0.756747,-0.040675,-0.161816,0.274603,-0.661949,0.984411,4.912308,-8.834842,-0.159911,-3.901778,7.689919,-0.053689,0.222646,-0.317114
0.004000,0.017863,-1.364244,0.291355,0.999900,0.005307,-0.011301,0.006646,-0.002384,0.114840,0.018249,-0.250736,-0.174395,0.133710,-0.042916,-0.821171,-0.033887,-0.101245,1.010285,-0.261390,0.171713,-0.754986,0.127786,-0.050070,0.757161,-0.041254,-0.272944,0.244386,-0.708340,0.743378,5.439308,-10.758817,-0.415089,-4.698182,10.481066,-0.020117,0.207086,-0.289791
0.006000,0.017850,-1.363962,0.291433,0.999896,0.005493,-0.011491,0.006768,-0.006388,0.140725,0.039006,0.185564,-0.190269,0.120577,-0.044380,-0.820711,-0.035242,-0.100340,1.020564,-0.278971,0.172635,-0.763599,0.143773,-0.049121,0.757349,-0.041382,-0.731938,0.230037,-0.677431,0.452495,5.139473,-8.790739,0.460823,-4.306386,7.993634,0.474474,0.093861,-0.063552
0.008000,0.017839,-1.363653,0.291513,0.999890,0.005948,-0.011700,0.006943,-0.005475,0.154823,0.039738,0.456012,-0.210795,0.170789,-0.046476,-0.820430,-0.036458,-0.100503,1.031762,-0.300483,0.173639,-0.773577,0.164528,-0.047668,0.757438,-0.041349,-1.048214,0.140198,-0.608053,-0.081292,5.598754,-10.755758,0.502383,-4.989070,10.377299,0.726695,0.044916,0.016441
0.010000,0.017819,-1.363344,0.291622,0.999884,0.006383,-0.011892,0.007100,-0.010114,0.154632,0.054646,0.435862,-0.194873,0.152942,-0.048496,-0.820031,-0.037755,-0.099988,1.042469,-0.319401,0.174878,-0.782809,0.181319,-0.046205,0.757406,-0.041147,-1.009628,0.199600,-0.648599,0.257612,5.353514,-9.458879,0.619035,-4.615938,8.395582,0.731524,-0.016394,0.100859
0.012000,0.017795,-1.363092,0.291734,0.999881,0.006326,-0.012067,0.007273,-0.011885,0.125949,0.056103,-0.056313,-0.172985,0.174946,-0.049470,-0.819450,-0.039318,-0.097918,1.053477,-0.340410,0.174009,-0.792802,0.201262,-0.045827,0.757436,-0.041185,-0.486934,0.290476,-0.781371,1.034696,5.503856,-10.504854,-0.434073,-4.996819,9.971320,0.189029,0.015043,-0.018811
0.014000,0.017762,-1.362854,0.291870,0.999879,0.006145,-0.012224,0.007423,-0.016437,0.118922,0.067752,-0.180157,-0.155131,0.153305,-0.050132,-0.818729,-0.040989,-0.094747,1.063756,-0.358467,0.172917,-0.802139,0.218256,-0.045660,0.757410,-0.041169,-0.331467,0.360642,-0.835439,1.585601,5.139632,-9.028531,-0.545972,-4.668185,8.497169,0.083223,-0.012917,0.007745
0.016000,0.017725,-1.362622,0.292010,0.999877,0.005954,-0.012381,0.007588,-0.018479,0.115915,0.069992,-0.190751,-0.154594,0.168340,-0.050765,-0.818023,-0.042649,-0.091152,1.073731,-0.376603,0.171195,-0.812019,0.237724,-0.045539,0.757362,-0.041151,-0.316214,0.352972,-0.830463,1.797523,4.987395,-9.067644,-0.861252,-4.940012,9.734140,0.060802,-0.024205,0.009058
0.018000,0.017680,-1.362344,0.292165,0.999872,0.006172,-0.012537,0.007746,-0.022473,0.139230,0.077479,0.219331,-0.156079,0.156338,-0.052247,-0.817441,-0.044061,-0.088402,1.083207,-0.393693,0.170769,-0.821362,0.254943,-0.044498,0.757157,-0.040841,-0.741295,0.291109,-0.705941,1.375282,4.738100,-8.544962,-0.212749,-4.671708,8.609664,0.520562,-0.102404,0.154775
0.020000,0.017629,-1.362057,0.292326,0.999867,0.006505,-0.012687,0.007910,-0.025605,0.143303,0.080459,0.334086,-0.151580,0.161123,-0.053953,-0.816908,-0.045368,-0.085512,1.092053,-0.410138,0.170181,-0.830861,0.273391,-0.043218,0.756877,-0.040434,-0.852728,0.266299,-0.653086,1.444580,4.423078,-8.222806,-0.294038,-4.749357,9.223510,0.639708,-0.139787,0.203675
0.022000,0.017569,-1.361762,0.292497,0.999862,0.006894,-0.012818,0.008060,-0.029854,0.147450,0.085474,0.389619,-0.133790,0.145526,-0.055747,-0.816354,-0.046600,-0.082597,1.100495,-0.426514,0.169722,-0.839765,0.289947,-0.041776,0.756520,-0.039937,-0.897088,0.276882,-0.616038,1.457592,4.220925,-8.187776,-0.229438,-4.451966,8.278476,0.721167,-0.178348,0.248305
0.024000,0.017502,-1.361523,0.292677,0.999860,0.006809,-0.012921,0.008190,-0.033757,0.119384,0.090384,-0.084570,-0.101021,0.132009,-0.056482,-0.815559,-0.048088,-0.077560,1.107898,-0.440719,0.167396,-0.848412,0.306235,-0.041326,0.756212,-0.039634,-0.367463,0.397847,-0.744220,2.518592,3.701422,-7.102557,-1.163210,-4.323878,8.143584,0.225029,-0.154074,0.151761
0.026000,0.017430,-1.361281,0.292864,0.999858,0.006745,-0.013018,0.008312,-0.036045,0.121331,0.093199,-0.063148,-0.095924,0.122913,-0.057242,-0.814749,-0.049559,-0.072584,1.114978,-0.455127,0.164877,-0.856763,0.321901,-0.040802,0.755898,-0.039323,-0.379815,0.404854,-0.735569,2.487806,3.540237,-7.204238,-1.259426,-4.175105,7.833148,0.262107,-0.157025,0.155659
0.028000,0.017353,-1.361052,0.293062,0.999857,0.006598,-0.013111,0.008420,-0.038206,0.114069,0.099086,-0.146613,-0.090770,0.110640,-0.057776,-0.813865,-0.051111,-0.066575,1.120759,-0.465987,0.161634,-0.864918,0.337104,-0.040441,0.755589,-0.039018,-0.267330,0.442148,-0.775828,3.004852,2.890629,-5.429927,-1.621508,-4.077528,7.601541,0.180307,-0.154806,0.152441
0.030000,0.017276,-1.360777,0.293261,0.999853,0.006855,-0.013217,0.008533,-0.038917,0.137589,0.099754,0.257992,-0.107928,0.111108,-0.059172,-0.813156,-0.052429,-0.062159,1.126488,-0.478320,0.159280,-0.872965,0.352136,-0.039203,0.755220,-0.038537,-0.697910,0.354621,-0.659308,2.207963,2.864488,-6.166403,-1.177207,-4.023399,7.515749,0.619025,-0.184542,0.240360
0.032000,0.017193,-1.360515,0.293475,0.999849,0.007051,-0.013313,0.008625,-0.041343,0.131131,0.106785,0.196827,-0.097154,0.089930,-0.060376,-0.812367,-0.053802,-0.056580,1.130602,-0.485968,0.156378,-0.880548,0.365481,-0.038072,0.754824,-0.038012,-0.601978,0.394348,-0.686068,2.789609,2.056814,-3.823998,-1.451058,-3.791538,6.672861,0.565379,-0.197621,0.262589
0.034000,0.017108,-1.360239,0.293686,0.999845,0.007350,-0.013404,0.008717,-0.042688,0.138056,0.105310,0.298876,-0.092405,0.088461,-0.061794,-0.811632,-0.055067,-0.051766,1.134696,-0.495892,0.153382,-0.887955,0.378792,-0.036712,0.754406,-0.037455,-0.708779,0.367450,-0.632462,2.407013,2.047202,-4.961917,-1.497651,-3.703669,6.655140,0.680257,-0.209325,0.278439
0.036000,0.017015,-1.360018,0.293909,0.999845,0.007203,-0.013461,0.008773,-0.046066,0.110629,0.111821,-0.146875,-0.054941,0.058031,-0.062189,-0.810642,-0.056571,-0.044466,1.136949,-0.500818,0.148730,-0.894648,0.389558,-0.036265,0.754012,-0.037030,-0.197410,0.494936,-0.752374,3.649722,1.126124,-2.463172,-2.325927,-3.346453,5.383299,0.223450,-0.196970,0.212414
0.038000,0.016923,-1.359777,0.294124,0.999843,0.007219,-0.013521,0.008835,-0.046398,0.120320,0.107621,0.016737,-0.060657,0.062191,-0.062935,-0.809759,-0.057931,-0.038240,1.139260,-0.508567,0.144039,-0.901372,0.401410,-0.035471,0.753620,-0.036588,-0.373350,0.441706,-0.679906,3.113057,1.155791,-3.874274,-2.345504,-3.361961,5.925751,0.396662,-0.196025,0.220957
0.040000,0.016826,-1.359554,0.294352,0.999843,0.007155,-0.013573,0.008866,-0.048250,0.111748,0.113994,-0.064066,-0.050821,0.032116,-0.063435,-0.808786,-0.059352,-0.030512,1.139560,-0.510201,0.138839,-0.907448,0.410832,-0.034822,0.753224,-0.036121,-0.249798,0.486431,-0.710437,3.864168,0.149596,-0.817034,-2.600012,-3.038077,4.711396,0.324705,-0.197802,0.233585
0.042000,0.016731,-1.359286,0.294569,0.999839,0.007480,-0.013643,0.008908,-0.047483,0.133749,0.108321,0.324565,-0.072834,0.038371,-0.064771,-0.808031,-0.060504,-0.024694,1.140056,-0.515049,0.134321,-0.913607,0.421481,-0.033353,0.752817,-0.035553,-0.668227,0.377596,-0.576094,2.908996,0.248220,-2.424130,-2.259427,-3.079766,5.324490,0.734504,-0.203477,0.284270
0.044000,0.016632,-1.359043,0.294799,0.999837,0.007659,-0.013693,0.008913,-0.049695,0.121548,0.114748,0.178999,-0.051743,0.002931,-0.065715,-0.807152,-0.061727,-0.017136,1.138506,-0.513506,0.129228,-0.918907,0.428827,-0.032162,0.752385,-0.034954,-0.472086,0.439515,-0.611349,3.778974,-0.774854,0.771335,-2.546074,-2.649812,3.672974,0.595560,-0.215913,0.299016
0.046000,0.016533,-1.358786,0.295013,0.999834,0.007952,-0.013744,0.008925,-0.049481,0.128681,0.107394,0.292266,-0.052692,0.009040,-0.066911,-0.806377,-0.062799,-0.010753,1.137290,-0.515926,0.123957,-0.924223,0.437445,-0.030741,0.751965,-0.034377,-0.597876,0.387053,-0.535837,3.191205,-0.607925,-1.209872,-2.635772,-2.657847,4.308617,0.710483,-0.210225,0.288945
0.048000,0.016430,-1.358577,0.295239,0.999835,0.007868,-0.013766,0.008898,-0.051577,0.104424,0.112816,-0.083847,-0.021856,-0.026511,-0.067225,-0.805380,-0.064076,-0.002076,1.134196,-0.512516,0.117451,-0.928646,0.442619,-0.030088,0.751571,-0.033899,-0.157119,0.498791,-0.638507,4.338502,-1.546966,1.705106,-3.252829,-2.211660,2.587293,0.326541,-0.196861,0.238938
0.050000,0.016330,-1.358344,0.295448,0.999833,0.007992,-0.013806,0.008883,-0.049920,0.116137,0.104608,0.122890,-0.041012,-0.016430,-0.067995,-0.804536,-0.065193,0.005055,1.131555,-0.512972,0.111013,-0.933277,0.449814,-0.029017,0.751224,-0.033440,-0.384844,0.421951,-0.558701,3.565792,-1.320546,-0.228228,-3.219329,-2.315653,3.597292,0.535316,-0.173714,0.229355
0.052000,0.016230,-1.358126,0.295668,0.999832,0.008077,-0.013848,0.008834,-0.049965,0.109223,0.109763,0.083840,-0.042972,-0.049559,-0.068603,-0.803623,-0.066379,0.013411,1.127137,-0.506919,0.104431,-0.937196,0.454051,-0.028010,0.750903,-0.032959,-0.303859,0.456505,-0.592805,4.177681,-2.209116,3.026911,-3.290582,-1.959277,2.118652,0.503779,-0.160211,0.240724
0.054000,0.016134,-1.357875,0.295870,0.999829,0.008454,-0.013914,0.008798,-0.047684,0.125473,0.101260,0.375753,-0.069851,-0.040662,-0.069846,-0.802903,-0.067364,0.019942,1.123251,-0.504626,0.098297,-0.941312,0.460056,-0.026405,0.750628,-0.032463,-0.621518,0.360002,-0.492653,3.265663,-1.943307,1.146491,-3.067266,-2.058010,3.002388,0.802447,-0.137428,0.247590
0.056000,0.016039,-1.357647,0.296078,0.999826,0.008689,-0.013974,0.008730,-0.047742,0.113888,0.103743,0.234043,-0.062733,-0.070763,-0.070719,-0.802087,-0.068438,0.027712,1.118005,-0.497483,0.091803,-0.944722,0.463132,-0.025085,0.750393,-0.032009,-0.436408,0.408027,-0.537068,3.885156,-2.622774,3.571072,-3.247125,-1.704910,1.538173,0.660038,-0.117727,0.227368
0.058000,0.015947,-1.357413,0.296265,0.999824,0.008972,-0.014043,0.008670,-0.045891,0.116909,0.093800,0.281280,-0.072249,-0.063532,-0.071704,-0.801364,-0.069417,0.034447,1.113378,-0.494395,0.085094,-0.948266,0.467784,-0.023687,0.750232,-0.031657,-0.492852,0.361383,-0.489429,3.367247,-2.313304,1.544032,-3.354541,-1.771924,2.326162,0.698739,-0.080390,0.175743
0.060000,0.015857,-1.357212,0.296452,0.999823,0.009024,-0.014107,0.008580,-0.045048,0.100550,0.093164,0.050297,-0.065473,-0.089267,-0.072137,-0.800535,-0.070517,0.042541,1.107743,-0.487421,0.077778,-0.951289,0.470203,-0.022773,0.750159,-0.031437,-0.216224,0.414813,-0.550174,4.047028,-2.817854,3.486924,-3.657748,-1.511784,1.209056,0.456885,-0.036681,0.110070
0.062000,0.015773,-1.356997,0.296618,0.999821,0.009223,-0.014193,0.008497,-0.041988,0.107764,0.083157,0.197279,-0.088197,-0.085001,-0.072885,-0.799848,-0.071483,0.049544,1.102647,-0.483194,0.070667,-0.954542,0.474255,-0.021574,0.750177,-0.031292,-0.373896,0.343345,-0.482741,3.501561,-2.547967,2.113803,-3.555449,-1.626527,2.026234,0.599835,0.008974,0.072271
0.064000,0.015695,-1.356786,0.296775,0.999818,0.009456,-0.014295,0.008398,-0.039072,0.105484,0.078714,0.230203,-0.105004,-0.101456,-0.073655,-0.799211,-0.072412,0.056869,1.097062,-0.476320,0.063719,-0.957697,0.477666,-0.020317,0.750288,-0.031212,-0.385376,0.318409,-0.464492,3.662503,-2.792493,3.436944,-3.474090,-1.577419,1.705502,0.628506,0.055676,0.040077
0.066000,0.015623,-1.356561,0.296912,0.999813,0.009832,-0.014413,0.008301,-0.035801,0.112552,0.068486,0.374309,-0.121998,-0.101707,-0.074731,-0.798716,-0.073182,0.063258,1.092096,-0.471828,0.057189,-0.961014,0.481954,-0.018774,0.750474,-0.031190,-0.537654,0.247421,-0.385028,3.194504,-2.482881,2.246112,-3.265203,-1.658515,2.144017,0.771212,0.092990,0.011271
0.068000,0.015559,-1.356354,0.297029,0.999810,0.010089,-0.014535,0.008196,-0.032122,0.103521,0.058366,0.253891,-0.125647,-0.107444,-0.075529,-0.798251,-0.073933,0.070067,1.087410,-0.467640,0.050320,-0.964551,0.486724,-0.017512,0.750783,-0.031348,-0.399141,0.232765,-0.375823,3.404348,-2.343208,2.094058,-3.434077,-1.768674,2.384779,0.631284,0.154602,-0.079175
0.070000,0.015502,-1.356152,0.297126,0.999807,0.010320,-0.014661,0.008083,-0.028708,0.100963,0.048473,0.228746,-0.128192,-0.115155,-0.076260,-0.797848,-0.074601,0.076800,1.083291,-0.464621,0.043587,-0.968163,0.491423,-0.016315,0.751179,-0.031623,-0.365514,0.201564,-0.333849,3.366539,-2.059491,1.509132,-3.366942,-1.805903,2.349469,0.598528,0.197852,-0.137559
0.072000,0.015445,-1.355967,0.297225,0.999804,0.010471,-0.014770,0.007949,-0.028224,0.092573,0.049251,0.147634,-0.112437,-0.135004,-0.076771,-0.797386,-0.075284,0.084340,1.078617,-0.458008,0.036938,-0.971298,0.493422,-0.015294,0.751530,-0.031846,-0.255275,0.230641,-0.341467,3.770228,-2.336597,3.306579,-3.324224,-1.567463,0.999457,0.510406,0.175715,-0.111333
0.074000,0.015389,-1.355773,0.297317,0.999801,0.010749,-0.014874,0.007817,-0.028110,0.096944,0.046312,0.275542,-0.107458,-0.134709,-0.077544,-0.796988,-0.075844,0.091395,1.074039,-0.451523,0.030697,-0.974341,0.495338,-0.014030,0.751795,-0.031943,-0.386899,0.199235,-0.280135,3.527544,-2.289354,3.242457,-3.120307,-1.521252,0.958178,0.632114,0.132177,-0.048785
0.076000,0.015324,-1.355577,0.297428,0.999797,0.011134,-0.014949,0.007671,-0.032425,0.097954,0.055151,0.382250,-0.079360,-0.150445,-0.078500,-0.796530,-0.076350,0.098652,1.068359,-0.440765,0.025078,-0.976440,0.493790,-0.012549,0.751806,-0.031704,-0.477792,0.229027,-0.252642,3.628157,-2.839923,5.379094,-2.809843,-1.049580,-0.774052,0.740425,0.005785,0.119832
0.078000,0.015252,-1.355376,0.297534,0.999792,0.011599,-0.015003,0.007553,-0.036296,0.100462,0.053346,0.462793,-0.058838,-0.125109,-0.079656,-0.796093,-0.076765,0.104979,1.062871,-0.433263,0.019198,-0.978549,0.494368,-0.010958,0.751625,-0.031282,-0.578026,0.218450,-0.207673,3.163658,-2.743715,3.751279,-2.939754,-1.054723,0.288976,0.795503,-0.090593,0.210962
0.080000,0.015165,-1.355188,0.297666,0.999788,0.012013,-0.015019,0.007418,-0.043389,0.093846,0.065879,0.411822,-0.020799,-0.140620,-0.080660,-0.795483,-0.077262,0.111718,1.056079,-0.422016,0.013514,-0.979313,0.490738,-0.009475,0.751191,-0.030574,-0.501981,0.304977,-0.248313,3.369763,-3.396314,5.623102,-2.841985,-0.381837,-1.814673,0.741463,-0.217254,0.353806
0.082000,0.015071,-1.355008,0.297797,0.999784,0.012393,-0.015030,0.007307,-0.046956,0.090099,0.065762,0.377948,-0.015767,-0.116500,-0.081612,-0.794833,-0.077818,0.117739,1.049322,-0.413566,0.007188,-0.980047,0.489419,-0.008120,0.750678,-0.029825,-0.476263,0.324821,-0.278485,3.010162,-3.378499,4.225157,-3.163022,-0.367231,-0.659471,0.677677,-0.256338,0.374404
0.084000,0.014966,-1.354832,0.297961,0.999779,0.012811,-0.015037,0.007164,-0.052374,0.087808,0.081912,0.415678,-0.011221,-0.149385,-0.082568,-0.794027,-0.078515,0.123954,1.040954,-0.399034,0.001707,-0.979139,0.482366,-0.006656,0.750039,-0.028850,-0.477998,0.403143,-0.348187,3.107729,-4.183823,7.265788,-2.740856,0.454300,-3.526628,0.731670,-0.319714,0.487714
0.086000,0.014860,-1.354656,0.298121,0.999774,0.013263,-0.015074,0.007043,-0.053161,0.088122,0.079925,0.450163,-0.041764,-0.127004,-0.083613,-0.793243,-0.079298,0.128989,1.032802,-0.387519,-0.004192,-0.978416,0.478328,-0.005170,0.749480,-0.027966,-0.522084,0.392043,-0.391707,2.517297,-4.076005,5.757536,-2.949328,0.361465,-2.019038,0.743196,-0.279068,0.442125
0.088000,0.014747,-1.354477,0.298307,0.999767,0.013802,-0.015128,0.006888,-0.056495,0.089652,0.092687,0.536198,-0.059919,-0.162459,-0.084763,-0.792364,-0.080201,0.133715,1.023403,-0.371149,-0.008969,-0.976129,0.468850,-0.003462,0.748917,-0.026971,-0.575241,0.439440,-0.451212,2.362908,-4.699626,8.185206,-2.388503,1.143291,-4.739009,0.853743,-0.281484,0.497442
0.090000,0.014636,-1.354308,0.298477,0.999760,0.014253,-0.015221,0.006755,-0.055407,0.084212,0.085403,0.447758,-0.098252,-0.138367,-0.085745,-0.791512,-0.081227,0.137415,1.014576,-0.359182,-0.014555,-0.974248,0.463221,-0.001991,0.748564,-0.026258,-0.490761,0.426053,-0.513113,1.850111,-4.413353,5.983282,-2.793103,0.940673,-2.814608,0.735629,-0.176807,0.356477
0.092000,0.014521,-1.354146,0.298668,0.999753,0.014704,-0.015333,0.006577,-0.057658,0.080982,0.095387,0.447768,-0.117800,-0.183561,-0.086634,-0.790561,-0.082376,0.141151,1.004543,-0.341905,-0.019032,-0.970693,0.451512,-0.000468,0.748282,-0.025544,-0.444732,0.475647,-0.574472,1.868024,-5.016511,8.638775,-2.238284,1.777740,-5.854363,0.761597,-0.140790,0.357041
0.094000,0.014410,-1.354001,0.298839,0.999746,0.015036,-0.015486,0.006413,-0.055509,0.072773,0.085597,0.329068,-0.157592,-0.166645,-0.087270,-0.789662,-0.083605,0.144223,0.994978,-0.327916,-0.024277,-0.967567,0.443472,0.000758,0.748253,-0.025166,-0.317714,0.449212,-0.614786,1.536088,-4.782426,6.994532,-2.622474,1.562863,-4.020138,0.612986,-0.014671,0.188879
0.096000,0.014295,-1.353853,0.299025,0.999739,0.015467,-0.015655,0.006201,-0.057591,0.074136,0.092984,0.426595,-0.174927,-0.215172,-0.088012,-0.788741,-0.084817,0.147170,0.984232,-0.308402,-0.028008,-0.962767,0.429351,0.002242,0.748262,-0.024733,-0.371293,0.460562,-0.605933,1.473474,-5.373047,9.756880,-1.865577,2.399969,-7.060581,0.741812,0.004479,0.216745
0.098000,0.014183,-1.353716,0.299185,0.999731,0.015831,-0.015853,0.006011,-0.055688,0.068512,0.079705,0.359041,-0.203195,-0.193242,-0.088613,-0.787938,-0.085972,0.149352,0.974110,-0.292991,-0.032403,-0.958534,0.419470,0.003525,0.748462,-0.024582,-0.300480,0.401526,-0.577198,1.090809,-5.061151,7.705512,-2.197654,2.116236,-4.940332,0.641843,0.100067,0.075509
0.100000,0.014065,-1.353574,0.299353,0.999722,0.016311,-0.016045,0.005781,-0.058938,0.071037,0.084314,0.475946,-0.198848,-0.234075,-0.089378,-0.787145,-0.086992,0.151328,0.963026,-0.273296,-0.035302,-0.952697,0.403946,0.005093,0.748594,-0.024289,-0.382353,0.396621,-0.509905,0.988057,-5.542093,9.847493,-1.449276,2.918667,-7.761982,0.783908,0.065953,0.146540
0.102000,0.013950,-1.353449,0.299494,0.999713,0.016678,-0.016247,0.005575,-0.057784,0.062208,0.070363,0.362553,-0.207988,-0.208868,-0.089901,-0.786477,-0.087897,0.152863,0.952547,-0.257468,-0.039023,-0.947457,0.392565,0.006353,0.748842,-0.024225,-0.261444,0.333827,-0.452698,0.767547,-5.239397,7.913777,-1.860819,2.619966,-5.690350,0.629674,0.123805,0.031963
0.104000,0.013827,-1.353323,0.299643,0.999704,0.017143,-0.016436,0.005333,-0.061244,0.063068,0.074382,0.460061,-0.195094,-0.246369,-0.090558,-0.785800,-0.088676,0.154367,0.941136,-0.237119,-0.041373,-0.940729,0.375820,0.007844,0.748982,-0.023990,-0.328638,0.338733,-0.389302,0.752141,-5.705415,10.174975,-1.174638,3.364131,-8.372598,0.745945,0.070352,0.117331
0.106000,0.013707,-1.353215,0.299765,0.999695,0.017499,-0.016630,0.005114,-0.060053,0.054027,0.061075,0.351033,-0.199612,-0.220809,-0.091002,-0.785199,-0.089392,0.155574,0.930302,-0.219989,-0.044508,-0.934658,0.363014,0.009034,0.749209,-0.023948,-0.221881,0.300405,-0.358251,0.603402,-5.417223,8.564529,-1.567811,3.035301,-6.403261,0.594680,0.113242,0.021214
0.108000,0.013581,-1.353102,0.299892,0.999686,0.017964,-0.016807,0.004867,-0.063107,0.056437,0.063694,0.460002,-0.184223,-0.251584,-0.091631,-0.784589,-0.089989,0.156607,0.918834,-0.199430,-0.046320,-0.927297,0.345369,0.010475,0.749317,-0.023730,-0.314499,0.304717,-0.298299,0.516528,-5.733986,10.279596,-0.905933,3.680777,-8.822241,0.720689,0.053904,0.108592
0.110000,0.013458,-1.353004,0.299994,0.999677,0.018338,-0.016990,0.004645,-0.061479,0.049033,0.050603,0.369608,-0.188503,-0.224985,-0.092102,-0.784047,-0.090545,0.157302,0.908074,-0.182286,-0.048814,-0.920660,0.331519,0.011657,0.749505,-0.023692,-0.235463,0.271099,-0.277971,0.347655,-5.379726,8.572206,-1.246750,3.318595,-6.925191,0.590861,0.094024,0.018968
0.112000,0.013332,-1.352900,0.300096,0.999666,0.018821,-0.017168,0.004400,-0.062953,0.052097,0.051065,0.478447,-0.185211,-0.249511,-0.092767,-0.783519,-0.091004,0.157726,0.896972,-0.162587,-0.050128,-0.913093,0.314099,0.013085,0.749641,-0.023555,-0.332600,0.264336,-0.229610,0.211985,-5.551296,9.849271,-0.657129,3.783276,-8.710029,0.713906,0.068221,0.068941
0.114000,0.013211,-1.352812,0.300174,0.999656,0.019197,-0.017359,0.004174,-0.060550,0.043739,0.039302,0.371147,-0.196892,-0.228723,-0.093226,-0.783039,-0.091471,0.158010,0.886499,-0.145321,-0.052035,-0.906234,0.299981,0.014228,0.749901,-0.023630,-0.229701,0.239947,-0.233474,0.141616,-5.236370,8.633242,-0.953535,3.429493,-7.058971,0.571520,0.130234,-0.037701
0.116000,0.013088,-1.352721,0.300252,0.999645,0.019646,-0.017548,0.003927,-0.061320,0.045719,0.038898,0.444103,-0.195813,-0.251503,-0.093809,-0.782564,-0.091870,0.158087,0.875884,-0.126095,-0.052878,-0.898575,0.282608,0.015544,0.750144,-0.023655,-0.291510,0.237423,-0.199795,0.038950,-5.307501,9.612759,-0.421519,3.829540,-8.686625,0.658243,0.121206,-0.012358
0.118000,0.012970,-1.352646,0.300309,0.999636,0.019983,-0.017747,0.003694,-0.059099,0.037495,0.028610,0.331443,-0.205307,-0.235174,-0.094170,-0.782120,-0.092290,0.158133,0.865868,-0.108902,-0.054179,-0.891504,0.267817,0.016576,0.750502,-0.023878,-0.180600,0.221883,-0.210023,0.022856,-5.007943,8.596655,-0.650270,3.535642,-7.395158,0.515903,0.179047,-0.111697
0.120000,0.012852,-1.352566,0.300360,0.999625,0.020379,-0.017946,0.003449,-0.059090,0.039816,0.025541,0.390985,-0.204660,-0.247655,-0.094647,-0.781702,-0.092636,0.157869,0.856090,-0.091505,-0.054647,-0.883982,0.251183,0.017743,0.750858,-0.024090,-0.238352,0.209248,-0.172649,-0.131838,-4.889029,8.698438,-0.234088,3.760939,-8.317231,0.583636,0.178187,-0.106140
0.122000,0.012738,-1.352500,0.300394,0.999616,0.020695,-0.018155,0.003217,-0.056996,0.033031,0.016990,0.311492,-0.215717,-0.233358,-0.094967,-0.781315,-0.092999,0.157621,0.846790,-0.075384,-0.055425,-0.877046,0.236915,0.018699,0.751313,-0.024462,-0.159910,0.193191,-0.181637,-0.124192,-4.650072,8.060775,-0.389026,3.467834,-7.133672,0.477651,0.227164,-0.185767
0.124000,0.012626,-1.352426,0.300420,0.999604,0.021104,-0.018369,0.002982,-0.056050,0.037160,0.012710,0.403752,-0.219795,-0.237708,-0.095483,-0.780987,-0.093270,0.156950,0.837920,-0.059750,-0.055465,-0.870020,0.222103,0.019846,0.751771,-0.024823,-0.257948,0.164281,-0.135370,-0.335399,-4.434841,7.816754,-0.020260,3.513285,-7.406015,0.573635,0.229172,-0.180489
0.126000,0.012516,-1.352366,0.300434,0.999594,0.021427,-0.018587,0.002754,-0.054682,0.029856,0.007251,0.319140,-0.223859,-0.229335,-0.095821,-0.780660,-0.093570,0.156481,0.829340,-0.044288,-0.055672,-0.863365,0.208445,0.020780,0.752284,-0.025285,-0.168992,0.163087,-0.150182,-0.234669,-4.290197,7.730858,-0.103205,3.327045,-6.829052,0.466972,0.256668,-0.231176
0.128000,0.012410,-1.352303,0.300436,0.999583,0.021773,-0.018799,0.002531,-0.053141,0.031439,0.000983,0.340774,-0.218178,-0.224872,-0.096225,-0.780382,-0.093788,0.155660,0.821599,-0.031134,-0.055469,-0.856842,0.194910,0.021750,0.752798,-0.025773,-0.201917,0.139230,-0.108825,-0.410606,-3.870251,6.577227,0.101486,3.261835,-6.767804,0.485318,0.256945,-0.243878
0.130000,0.012306,-1.352255,0.300432,0.999574,0.022038,-0.019013,0.002312,-0.052063,0.024125,-0.002264,0.260201,-0.219091,-0.219026,-0.096454,-0.780090,-0.094045,0.155145,0.814041,-0.017439,-0.055354,-0.850616,0.181925,0.022521,0.753340,-0.026322,-0.114624,0.145959,-0.128689,-0.257499,-3.778881,6.847602,0.057567,3.112653,-6.492584,0.385046,0.271015,-0.274414
0.132000,0.012209,-1.352197,0.300411,0.999562,0.022381,-0.019230,0.002110,-0.048754,0.028924,-0.010589,0.338883,-0.222782,-0.203442,-0.096886,-0.779901,-0.094192,0.154034,0.807644,-0.007198,-0.054919,-0.845037,0.170944,0.023431,0.753907,-0.026909,-0.216117,0.094667,-0.073233,-0.555142,-3.198700,5.120479,0.217188,2.789644,-5.490049,0.455220,0.283112,-0.293561
0.134000,0.012113,-1.352151,0.300389,0.999552,0.022682,-0.019450,0.001908,-0.047914,0.023114,-0.010645,0.297320,-0.225468,-0.203191,-0.097214,-0.779689,-0.094385,0.153283,0.801210,0.004963,-0.054354,-0.839639,0.159718,0.024230,0.754478,-0.027501,-0.164138,0.105718,-0.096690,-0.375526,-3.216921,6.080339,0.282484,2.698838,-5.613236,0.399553,0.285596,-0.295861
0.136000,0.012025,-1.352097,0.300349,0.999540,0.023025,-0.019671,0.001727,-0.043652,0.026828,-0.020263,0.338817,-0.225398,-0.181818,-0.097680,-0.779581,-0.094475,0.151949,0.796279,0.012352,-0.053663,-0.835093,0.151108,0.025088,0.755084,-0.028161,-0.232625,0.054308,-0.045121,-0.667354,-2.465699,3.694601,0.345858,2.273187,-4.304769,0.428816,0.303091,-0.330386
0.138000,0.011938,-1.352059,0.300314,0.999530,0.023290,-0.019887,0.001540,-0.043586,0.019192,-0.017541,0.261492,-0.220827,-0.187903,-0.097956,-0.779407,-0.094644,0.151174,0.791189,0.022429,-0.052792,-0.830477,0.141033,0.025771,0.755669,-0.028799,-0.138137,0.086594,-0.084228,-0.387161,-2.544922,5.038478,0.435421,2.308016,-5.037896,0.341557,0.292720,-0.318864
0.140000,0.011862,-1.352016,0.300256,0.999519,0.023554,-0.020103,0.001382,-0.038065,0.021320,-0.029063,0.260387,-0.220493,-0.157832,-0.098294,-0.779342,-0.094727,0.149830,0.787946,0.026284,-0.052085,-0.827134,0.134780,0.026414,0.756319,-0.029559,-0.169106,0.032562,-0.041760,-0.671963,-1.621435,1.927368,0.353615,1.671431,-3.126149,0.321462,0.324724,-0.379971
0.142000,0.011786,-1.351988,0.300208,0.999510,0.023782,-0.020320,0.001224,-0.038211,0.014281,-0.023812,0.224525,-0.220709,-0.157757,-0.098529,-0.779217,-0.094905,0.149068,0.784295,0.034056,-0.051461,-0.824624,0.130118,0.026952,0.756921,-0.030242,-0.117410,0.062493,-0.089090,-0.381232,-1.825568,3.885975,0.311758,1.255070,-2.331306,0.269345,0.301122,-0.341531
0.144000,0.011716,-1.351954,0.300145,0.999502,0.023979,-0.020497,0.001086,-0.035077,0.016935,-0.031544,0.193779,-0.181097,-0.136960,-0.098767,-0.779148,-0.094934,0.147808,0.782585,0.035093,-0.050895,-0.822810,0.126821,0.027420,0.757433,-0.030902,-0.118982,0.034660,-0.014334,-0.629807,-0.854896,0.518542,0.282913,0.907078,-1.648463,0.233835,0.256120,-0.330108
0.146000,0.011637,-1.351930,0.300105,0.999495,0.024151,-0.020636,0.000937,-0.039255,0.011772,-0.020090,0.168879,-0.142786,-0.149699,-0.098919,-0.778956,-0.094990,0.147185,0.780273,0.040756,-0.050349,-0.821285,0.124303,0.027839,0.757710,-0.031285,-0.076114,0.095827,-0.028242,-0.311812,-1.156220,2.831365,0.273285,0.762311,-1.259060,0.209661,0.138338,-0.191488
0.148000,0.011560,-1.351896,0.300055,0.999490,0.024296,-0.020707,0.000801,-0.038435,0.017079,-0.024812,0.142819,-0.074349,-0.137000,-0.099091,-0.778785,-0.094837,0.145979,0.780031,0.038877,-0.049816,-0.820047,0.122523,0.028229,0.757780,-0.031532,-0.085985,0.085569,0.076602,-0.603090,-0.120850,-0.939093,0.266521,0.619157,-0.890003,0.194604,0.035248,-0.123583
0.150000,0.011473,-1.351864,0.300035,0.999485,0.024472,-0.020734,0.000646,-0.043401,0.016179,-0.010105,0.172289,-0.031467,-0.158205,-0.099289,-0.778484,-0.094692,0.145269,0.779078,0.042098,-0.049162,-0.818856,0.121101,0.028709,0.757582,-0.031441,-0.099009,0.150849,0.072648,-0.354822,-0.476542,1.610451,0.326956,0.595337,-0.710985,0.240199,-0.099195,0.045923
0.152000,0.011391,-1.351813,0.300007,0.999481,0.024681,-0.020714,0.000500,-0.041191,0.025490,-0.013745,0.205741,0.016907,-0.150696,-0.099627,-0.778223,-0.094366,0.143809,0.780084,0.038342,-0.048372,-0.817893,0.120215,0.029300,0.757260,-0.031262,-0.168984,0.130043,0.162838,-0.729753,0.503175,-1.878148,0.394786,0.481492,-0.442643,0.295389,-0.160958,0.089068
0.154000,0.011304,-1.351761,0.300007,0.999475,0.024925,-0.020680,0.000331,-0.043528,0.025707,-0.000177,0.240684,0.028895,-0.174745,-0.099997,-0.777853,-0.094127,0.142790,0.780355,0.039857,-0.047453,-0.816994,0.119567,0.030003,0.756832,-0.030897,-0.185030,0.185308,0.119552,-0.509595,0.135432,0.757462,0.459754,0.449543,-0.324009,0.351695,-0.214015,0.182969
0.156000,0.011227,-1.351696,0.299995,0.999470,0.025157,-0.020637,0.000168,-0.038494,0.032715,-0.006144,0.228366,0.039226,-0.168818,-0.100400,-0.777533,-0.093830,0.141141,0.782467,0.034744,-0.046460,-0.816461,0.119466,0.030723,0.756491,-0.030662,-0.201493,0.160019,0.148508,-0.824849,1.055887,-2.556597,0.496378,0.266839,-0.050794,0.359985,-0.170342,0.117077
0.158000,0.011151,-1.351636,0.300002,0.999466,0.025363,-0.020613,-0.000018,-0.038082,0.030106,0.003614,0.202316,0.019009,-0.190496,-0.100704,-0.777118,-0.093720,0.140030,0.783885,0.034371,-0.045478,-0.816044,0.119555,0.031424,0.756237,-0.030456,-0.152139,0.207431,0.055302,-0.555171,0.709045,-0.186237,0.491023,0.208276,0.044471,0.350633,-0.127183,0.103185
0.160000,0.011086,-1.351568,0.299997,0.999462,0.025531,-0.020608,-0.000200,-0.032471,0.033932,-0.002419,0.165080,0.000524,-0.185170,-0.100970,-0.776751,-0.093647,0.138541,0.786585,0.029194,-0.044442,-0.816146,0.120247,0.032078,0.756187,-0.030493,-0.132903,0.183444,0.036473,-0.744796,1.350067,-2.588838,0.517909,-0.051137,0.346051,0.327013,-0.024988,-0.018424
0.162000,0.011021,-1.351506,0.300007,0.999458,0.025666,-0.020628,-0.000398,-0.032202,0.030830,0.005169,0.130177,-0.025142,-0.200408,-0.101126,-0.776309,-0.093755,0.137574,0.788529,0.028057,-0.043464,-0.816305,0.121023,0.032683,0.756244,-0.030594,-0.077930,0.221112,-0.054236,-0.483343,0.972111,-0.568502,0.488985,-0.079268,0.388017,0.302194,0.028284,-0.050476
0.164000,0.010961,-1.351437,0.300014,0.999453,0.025803,-0.020656,-0.000590,-0.030387,0.034645,0.003309,0.133061,-0.032779,-0.194256,-0.101318,-0.775893,-0.093874,0.136339,0.791010,0.024137,-0.042420,-0.816706,0.122096,0.033310,0.756376,-0.030787,-0.095780,0.208149,-0.059359,-0.617331,1.240534,-1.959961,0.522037,-0.200539,0.536329,0.313459,0.065996,-0.096437
0.166000,0.010895,-1.351369,0.300034,0.999449,0.025939,-0.020684,-0.000789,-0.032821,0.034192,0.010189,0.132717,-0.033225,-0.200750,-0.101494,-0.775418,-0.094062,0.135391,0.792802,0.022573,-0.041385,-0.817014,0.123093,0.033949,0.756470,-0.030915,-0.088143,0.237287,-0.094203,-0.474348,0.896028,-0.782078,0.517410,-0.154169,0.498891,0.319438,0.047020,-0.063915
0.168000,0.010820,-1.351298,0.300067,0.999445,0.026076,-0.020687,-0.000986,-0.037451,0.035424,0.016322,0.132084,-0.008685,-0.200226,-0.101678,-0.774884,-0.094242,0.134479,0.794156,0.021195,-0.040373,-0.817116,0.123902,0.034598,0.756414,-0.030893,-0.092075,0.267002,-0.089823,-0.456022,0.676545,-0.689006,0.506045,-0.050873,0.404376,0.324612,-0.027613,0.010526
0.170000,0.010733,-1.351228,0.300115,0.999443,0.026180,-0.020656,-0.001187,-0.043384,0.034922,0.023841,0.100321,0.026630,-0.203552,-0.101799,-0.774260,-0.094414,0.133736,0.794936,0.020426,-0.039435,-0.816920,0.124408,0.035197,0.756167,-0.030688,-0.060229,0.311834,-0.085897,-0.371119,0.390040,-0.384315,0.469093,0.098103,0.253006,0.299680,-0.123723,0.102622
0.172000,0.010634,-1.350976,0.300218,0.999404,0.027710,-0.020535,-0.001365,-0.049550,0.125697,0.051674,1.526673,0.116553,-0.212877,-0.105061,-0.774043,-0.093562,0.127189,0.796865,0.017073,-0.035316,-0.816476,0.124974,0.038910,0.754922,-0.028992,-1.631416,0.108589,0.425654,-3.273853,0.964863,-1.676459,2.059282,0.221650,0.283145,1.856425,-0.622319,0.848222
0.174000,0.010522,-1.350679,0.300363,0.999358,0.029466,-0.020340,-0.001582,-0.056333,0.148596,0.072644,1.750830,0.190850,-0.258236,-0.108797,-0.773726,-0.092521,0.118760,0.799310,0.014292,-0.030544,-0.815381,0.124868,0.043226,0.753285,-0.026788,-1.867635,0.158647,0.520760,-4.214372,1.222202,-1.390618,2.385990,0.547745,-0.053239,2.157718,-0.818786,1.102022
0.176000,0.010397,-1.350483,0.300525,0.999342,0.030122,-0.020091,-0.001899,-0.062269,0.097921,0.081015,0.649804,0.239890,-0.337664,-0.110096,-0.772802,-0.092166,0.112699,0.801775,0.014155,-0.027899,-0.813262,0.123363,0.045094,0.752509,-0.025743,-0.649444,0.461673,0.177392,-3.030301,1.232580,-0.068208,1.322405,1.059717,-0.752398,0.934119,-0.387647,0.522443
0.178000,0.010261,-1.350425,0.300687,0.999371,0.029334,-0.019785,-0.002320,-0.068219,0.029189,0.081020,-0.797942,0.292757,-0.414095,-0.108232,-0.771182,-0.092650,0.110099,0.804353,0.015023,-0.028122,-0.810064,0.120336,0.043621,0.752780,-0.026407,0.931995,0.810094,-0.241747,-1.300011,1.289114,0.434093,-0.111476,1.598853,-1.513403,-0.736583,0.135108,-0.331908
0.180000,0.010114,-1.350432,0.300849,0.999423,0.027730,-0.019402,-0.002804,-0.073110,-0.003319,0.080643,-1.614938,0.365326,-0.463018,-0.104628,-0.769165,-0.093472,0.109034,0.807416,0.013456,-0.029906,-0.806073,0.116261,0.040385,0.753609,-0.027846,1.801999,1.008418,-0.411233,-0.532571,1.531477,-0.783681,-0.891829,1.995574,-2.037495,-1.617663,0.414692,-0.719511
0.182000,0.009961,-1.350364,0.301032,0.999460,0.026643,-0.018948,-0.003294,-0.076754,0.033761,0.091426,-1.098407,0.438194,-0.480326,-0.102184,-0.767290,-0.093794,0.106088,0.810293,0.011244,-0.030488,-0.801861,0.112066,0.038663,0.754007,-0.028710,1.221977,0.937509,-0.160771,-1.472985,1.438276,-1.106155,-0.290783,2.105974,-2.097836,-0.861290,0.198832,-0.432016
0.184000,0.009809,-1.350129,0.301237,0.999457,0.027031,-0.018466,-0.003738,-0.076060,0.117600,0.102553,0.378660,0.470741,-0.464723,-0.103192,-0.766393,-0.092711,0.099097,0.812185,0.011539,-0.027885,-0.798127,0.108757,0.040269,0.753501,-0.028161,-0.504038,0.448845,0.541041,-3.495681,0.945981,0.147797,1.301464,1.867035,-1.654531,0.803235,-0.252779,0.274378
0.186000,0.009660,-1.349811,0.301445,0.999435,0.028095,-0.017968,-0.004161,-0.074288,0.159037,0.104144,1.053869,0.490457,-0.455877,-0.105780,-0.765956,-0.090962,0.090323,0.813466,0.012365,-0.023834,-0.794660,0.105902,0.043428,0.752464,-0.026810,-1.294022,0.218242,0.874691,-4.386924,0.640470,0.412557,2.025454,1.733153,-1.427090,1.579657,-0.518761,0.675626
0.188000,0.009518,-1.349533,0.301630,0.999426,0.028663,-0.017462,-0.004601,-0.071228,0.138754,0.092562,0.558349,0.494860,-0.464270,-0.107272,-0.765305,-0.089525,0.082978,0.814748,0.011209,-0.020823,-0.791109,0.102825,0.045421,0.751823,-0.025961,-0.745982,0.325738,0.718652,-3.672221,0.641110,-0.577543,1.505554,1.775569,-1.538670,0.996268,-0.320363,0.424307
0.190000,0.009385,-1.349358,0.301781,0.999446,0.028187,-0.016971,-0.005080,-0.066381,0.087863,0.075352,-0.487396,0.475309,-0.484285,-0.106475,-0.764233,-0.088814,0.078760,0.816048,0.008697,-0.020004,-0.787372,0.099263,0.044968,0.752155,-0.026371,0.398462,0.536115,0.355431,-2.109445,0.650165,-1.256090,0.409340,1.868392,-1.780981,-0.226347,0.166136,-0.205080
0.192000,0.009266,-1.349266,0.301901,0.999487,0.026860,-0.016524,-0.005576,-0.059230,0.045831,0.060009,-1.337501,0.426365,-0.485773,-0.103836,-0.762838,-0.088820,0.077175,0.817231,0.005978,-0.020995,-0.783677,0.095470,0.042010,0.752927,-0.024637,1.319308,0.697385,-0.003108,-0.792329,0.591607,-1.359799,-0.495399,1.847648,-1.896714,-1.479272,0.385804,0.867340
0.194000,0.009173,-1.349138,0.302006,0.999518,0.025808,-0.016167,-0.006069,-0.046731,0.064173,0.052569,-1.062524,0.338916,-0.484747,-0.101780,-0.761598,-0.088903,0.075241,0.817895,0.005681,-0.021248,-0.780885,0.092600,0.039789,0.754296,-0.022119,1.027995,0.620076,-0.041450,-0.967187,0.331931,-0.148324,-0.126794,1.396083,-1.434981,-1.110266,0.684727,1.258667
0.196000,0.009109,-1.348885,0.302095,0.999519,0.025800,-0.015902,-0.006538,-0.031851,0.126431,0.044356,-0.017122,0.252759,-0.474995,-0.102141,-0.761118,-0.088257,0.070674,0.818315,0.006767,-0.018987,-0.779585,0.091484,0.040441,0.756263,-0.020901,-0.180616,0.239690,0.322940,-2.283483,0.210094,0.542866,1.130933,0.650059,-0.557919,0.326121,0.983579,0.609269
0.198000,0.009062,-1.348559,0.302163,0.999507,0.026300,-0.015663,-0.006990,-0.023510,0.162747,0.034085,0.490656,0.230512,-0.466527,-0.103715,-0.761020,-0.087183,0.064669,0.819148,0.005836,-0.015535,-0.778846,0.091072,0.042652,0.758428,-0.020637,-0.786794,0.049342,0.537308,-3.002403,0.416143,-0.465164,1.725720,0.369435,-0.206070,1.105344,1.082388,0.132064
0.200000,0.009016,-1.348242,0.302212,0.999501,0.026578,-0.015392,-0.007441,-0.023294,0.158683,0.024483,0.268951,0.260096,-0.461691,-0.104820,-0.760766,-0.086225,0.059330,0.820373,0.002817,-0.012630,-0.777753,0.090255,0.044436,0.760202,-0.020595,-0.552683,0.126951,0.478954,-2.669491,0.612738,-1.509820,1.452466,0.546376,-0.408541,0.891827,0.886878,0.021033
0.202000,0.008962,-1.347979,0.302250,0.999510,0.026255,-0.015071,-0.007908,-0.027075,0.131390,0.019036,-0.332020,0.306007,-0.470560,-0.104617,-0.760151,-0.085641,0.056035,0.821438,0.000593,-0.011059,-0.776033,0.088633,0.044949,0.761564,-0.020855,0.101600,0.307373,0.291877,-1.647617,0.532246,-1.112000,0.785497,0.859994,-0.810874,0.256788,0.681009,-0.130094
0.204000,0.008899,-1.347769,0.302283,0.999535,0.025365,-0.014698,-0.008389,-0.031371,0.105237,0.016520,-0.901032,0.354084,-0.477313,-0.103185,-0.759180,-0.085433,0.054696,0.822210,-0.000157,-0.010739,-0.773703,0.086218,0.044277,0.762543,-0.021299,0.716089,0.485517,0.104129,-0.669275,0.386127,-0.374884,0.159859,1.165266,-1.207627,-0.336137,0.489275,-0.222248
0.206000,0.008833,-1.347546,0.302317,0.999559,0.024490,-0.014286,-0.008858,-0.032973,0.111219,0.016853,-0.885009,0.393106,-0.466000,-0.101823,-0.758123,-0.085232,0.053482,0.822842,-0.000085,-0.010435,-0.771096,0.083504,0.043706,0.762996,-0.021434,0.680804,0.528448,0.100291,-0.607070,0.316073,0.036023,0.152177,1.303320,-1.356816,-0.285583,0.226563,-0.067418
0.208000,0.008772,-1.347250,0.302349,0.999568,0.024190,-0.013858,-0.009287,-0.030607,0.147986,0.016267,-0.309973,0.414344,-0.434584,-0.101848,-0.757380,-0.084571,0.050608,0.823585,-0.000346,-0.008947,-0.768616,0.081072,0.044385,0.762845,-0.020959,-0.012270,0.371520,0.330550,-1.437011,0.371653,-0.130297,0.744081,1.240258,-1.216052,0.339327,-0.075280,0.237379
0.210000,0.008720,-1.346892,0.302375,0.999566,0.024347,-0.013432,-0.009679,-0.026054,0.179160,0.012970,0.147380,0.417656,-0.404049,-0.102970,-0.756890,-0.083597,0.046243,0.824683,-0.001865,-0.006514,-0.766346,0.078965,0.046055,0.762314,-0.020104,-0.561235,0.244803,0.487111,-2.182448,0.548721,-0.759646,1.216625,1.134687,-1.053199,0.835383,-0.265752,0.427805
0.212000,0.008679,-1.346512,0.302391,0.999562,0.024612,-0.013029,-0.010050,-0.020352,0.189881,0.007890,0.256502,0.396617,-0.384619,-0.104342,-0.756441,-0.082674,0.041508,0.825907,-0.003294,-0.003882,-0.764254,0.077036,0.047972,0.761720,-0.019255,-0.685904,0.224641,0.461327,-2.367375,0.612014,-0.714356,1.315829,1.046275,-0.964683,0.958308,-0.296805,0.424296
0.214000,0.008649,-1.346164,0.302391,0.999565,0.024513,-0.012655,-0.010421,-0.014790,0.174227,-0.000111,-0.107891,0.363795,-0.378574,-0.104918,-0.755855,-0.082125,0.037826,0.827151,-0.003988,-0.002062,-0.762176,0.074978,0.049067,0.761380,-0.018929,-0.288087,0.293011,0.274424,-1.840957,0.622217,-0.347284,0.909814,1.038773,-1.029270,0.547626,-0.169794,0.162895
0.216000,0.008630,-1.345867,0.302368,0.999581,0.023850,-0.012312,-0.010794,-0.009429,0.148132,-0.011113,-0.671220,0.327291,-0.372559,-0.104278,-0.755080,-0.082057,0.035691,0.828521,-0.004728,-0.001466,-0.760077,0.072703,0.048811,0.761407,-0.019501,0.319948,0.387478,0.034297,-1.067488,0.685104,-0.370021,0.298346,1.049725,-1.137518,-0.128192,0.013112,-0.286024
0.218000,0.008624,-1.345581,0.302331,0.999601,0.023027,-0.011995,-0.011156,-0.003428,0.143438,-0.018954,-0.831503,0.299573,-0.359346,-0.103312,-0.754288,-0.082165,0.033988,0.829922,-0.005522,-0.001233,-0.758088,0.070464,0.048248,0.761630,-0.020313,0.483219,0.395919,-0.054233,-0.851663,0.700293,-0.397019,0.116318,0.994109,-1.119454,-0.281654,0.111652,-0.406015
0.220000,0.008632,-1.345254,0.302280,0.999612,0.022536,-0.011713,-0.011478,0.004257,0.163358,-0.025040,-0.497652,0.269220,-0.322064,-0.103127,-0.753753,-0.082079,0.031381,0.831172,-0.006037,-0.000262,-0.756636,0.068826,0.047902,0.761079,-0.016072,0.092675,0.267418,0.042927,-1.303529,0.625077,-0.257250,0.485330,0.726013,-0.818580,-0.172948,-0.275238,2.120761
0.222000,0.008659,-1.344886,0.302208,0.999615,0.022316,-0.011493,-0.011786,0.013645,0.184026,-0.036014,-0.226177,0.210293,-0.310535,-0.103573,-0.753471,-0.081852,0.027954,0.832424,-0.006662,0.001379,-0.755756,0.067826,0.048319,0.761006,-0.013154,-0.223226,0.141286,0.113659,-1.713533,0.626050,-0.312874,0.820968,0.440160,-0.500200,0.208635,-0.036526,1.458751
0.224000,0.008709,-1.344438,0.302138,0.999607,0.022521,-0.011417,-0.012143,0.024887,0.223800,-0.035242,0.199404,0.069952,-0.361468,-0.105039,-0.753193,-0.081929,0.023490,0.832825,-0.001748,0.004050,-0.755366,0.067325,0.051933,0.764420,-0.025103,-0.732943,0.138658,-0.038682,-2.231807,0.200108,2.457441,1.335151,0.194910,-0.250685,1.807060,1.706921,-5.974293
0.226000,0.008749,-1.343969,0.302077,0.999601,0.022713,-0.011275,-0.012473,0.020032,0.234380,-0.030324,0.186956,0.136394,-0.334707,-0.106655,-0.752726,-0.082056,0.018776,0.833402,0.000759,0.006657,-0.754561,0.066349,0.055639,0.766974,-0.033944,-0.808028,0.233561,-0.063571,-2.357039,0.288583,1.253203,1.303539,0.402868,-0.487720,1.853088,1.276678,-4.420541
0.228000,0.008773,-1.343541,0.302006,0.999607,0.022400,-0.010986,-0.012756,0.012021,0.214271,-0.035592,-0.319348,0.279586,-0.286304,-0.107366,-0.752078,-0.082075,0.015078,0.834716,-0.002568,0.008098,-0.752978,0.064463,0.057280,0.767582,-0.034252,-0.355609,0.324052,-0.009246,-1.848846,0.657096,-1.663536,0.720445,0.791217,-0.942909,0.820512,0.304252,-0.153962
0.230000,0.008788,-1.343158,0.301928,0.999626,0.021590,-0.010611,-0.013013,0.007255,0.191567,-0.039083,-0.818455,0.358335,-0.256232,-0.107102,-0.751239,-0.082186,0.012873,0.835837,-0.006243,0.008415,-0.750865,0.061893,0.057075,0.767014,-0.029103,0.131998,0.419395,-0.055773,-1.102841,0.560674,-1.837401,0.158847,1.056445,-1.285376,-0.102685,-0.284211,2.574432
0.232000,0.008833,-1.342789,0.301783,0.999647,0.020525,-0.010300,-0.013337,0.022786,0.184180,-0.072377,-1.072335,0.290157,-0.318313,-0.106328,-0.751911,-0.078359,0.011913,0.836436,-0.005604,0.008310,-0.749055,0.059639,0.057680,0.770220,-0.038789,0.386918,-0.335566,1.913600,-0.479697,0.299140,0.319455,-0.052567,0.904893,-1.126822,0.302659,1.603403,-4.842812
0.234000,0.008898,-1.342368,0.301606,0.999660,0.019856,-0.009987,-0.013650,0.032206,0.210970,-0.088447,-0.675801,0.297633,-0.312794,-0.107380,-0.753066,-0.075426,0.010188,0.836551,-0.002329,0.009052,-0.747510,0.057812,0.059545,0.774274,-0.050827,-0.525840,-0.577747,1.466698,-0.862675,0.057860,1.637366,0.370770,0.772507,-0.913487,0.932626,2.026748,-6.019389
0.236000,0.008993,-1.341888,0.301351,0.999661,0.019737,-0.009614,-0.013963,0.047512,0.239789,-0.127837,-0.127934,0.365575,-0.319027,-0.109532,-0.757584,-0.060945,0.007045,0.837162,-0.001084,0.010941,-0.746282,0.056661,0.063020,0.779585,-0.065991,-1.076143,-2.258754,7.240396,-1.571753,0.305542,0.622571,0.944339,0.614009,-0.575741,1.737040,2.655726,-7.581901
0.238000,0.009096,-1.341401,0.301082,0.999665,0.019587,-0.009175,-0.014190,0.051571,0.243303,-0.134083,-0.157719,0.432440,-0.233549,-0.112927,-0.761477,-0.053725,0.003517,0.838280,-0.003213,0.012643,-0.744990,0.055410,0.064858,0.782940,-0.069719,-1.697403,-1.946538,3.609984,-1.763900,0.558939,-1.064288,0.851167,0.646158,-0.625427,0.919130,1.677063,-1.863926
0.240000,0.009237,-1.340985,0.300738,0.999681,0.018743,-0.008796,-0.014448,0.070669,0.208177,-0.172408,-0.852458,0.361585,-0.258182,-0.114173,-0.767640,-0.041240,0.001758,0.839815,-0.005367,0.012919,-0.744009,0.054343,0.065310,0.789250,-0.082425,-0.622762,-3.081698,6.242631,-0.879117,0.767313,-1.077254,0.137938,0.490298,-0.533305,0.226071,3.155156,-6.352846
0.242000,0.009397,-1.340600,0.300378,0.999703,0.017513,-0.008468,-0.014684,0.079662,0.192363,-0.179602,-1.236188,0.306094,-0.230272,-0.115217,-0.773326,-0.035262,0.001022,0.840828,-0.004398,0.012368,-0.743204,0.053273,0.064238,0.796028,-0.094045,-0.522328,-2.842984,2.988914,-0.368040,0.506516,0.484437,-0.275200,0.402585,-0.535157,-0.536133,3.389094,-5.809995
0.244000,0.009587,-1.340216,0.299940,0.999722,0.016289,-0.008152,-0.014973,0.095192,0.192108,-0.219060,-1.230956,0.293115,-0.283956,-0.115314,-0.782359,-0.017028,0.000380,0.841861,-0.002457,0.011918,-0.742707,0.052682,0.064096,0.805736,-0.116160,-0.048467,-4.516568,9.116783,-0.321418,0.516607,0.970874,-0.225068,0.248434,-0.295495,-0.070595,4.853797,-11.057377
0.246000,0.009774,-1.339767,0.299504,0.999733,0.015553,-0.007750,-0.015201,0.093730,0.224469,-0.218263,-0.743875,0.386823,-0.228235,-0.117743,-0.790743,-0.003948,-0.001942,0.842794,-0.002037,0.012455,-0.742098,0.052125,0.064177,0.813607,-0.128966,-1.214418,-4.191833,6.540350,-1.160808,0.466529,0.209805,0.268498,0.304853,-0.278524,0.040437,3.935536,-6.403252
0.248000,0.009975,-1.339285,0.299013,0.999740,0.015072,-0.007301,-0.015456,0.100175,0.240970,-0.245445,-0.489776,0.438292,-0.258082,-0.120438,-0.801152,0.016888,-0.005109,0.843888,-0.002919,0.013604,-0.741544,0.051855,0.065394,0.822795,-0.146362,-1.347230,-5.204792,10.417806,-1.583629,0.546800,-0.440977,0.574305,0.276648,-0.135116,0.608525,4.594348,-8.697981
0.250000,0.010168,-1.338807,0.298530,0.999750,0.014373,-0.006821,-0.015681,0.096845,0.238858,-0.241309,-0.708016,0.465085,-0.227322,-0.123753,-0.809847,0.028473,-0.007993,0.844632,-0.003467,0.014305,-0.740759,0.051237,0.065420,0.831138,-0.159181,-1.657457,-4.347275,5.792580,-1.441896,0.372345,-0.273781,0.350729,0.392607,-0.309019,0.012932,4.171475,-6.409304
0.252000,0.010372,-1.338394,0.297987,0.999767,0.013030,-0.006342,-0.015981,0.101585,0.206797,-0.271496,-1.353035,0.453654,-0.297635,-0.124473,-0.820406,0.048301,-0.009127,0.845339,-0.003304,0.013774,-0.739852,0.050447,0.064857,0.842072,-0.182995,-0.360056,-5.279283,9.913730,-0.567010,0.353189,0.081100,-0.265587,0.453394,-0.394845,-0.281542,5.466811,-11.907274
0.254000,0.010564,-1.337980,0.297447,0.999784,0.011591,-0.005794,-0.016265,0.096006,0.206871,-0.270070,-1.449385,0.521600,-0.281224,-0.125521,-0.830104,0.064201,-0.010127,0.845612,-0.002493,0.013050,-0.738615,0.049305,0.063438,0.851837,-0.201578,-0.524128,-4.849145,7.950115,-0.500195,0.136546,0.405842,-0.362123,0.618802,-0.571044,-0.709655,4.882708,-9.291370
0.256000,0.010758,-1.337554,0.296862,0.999796,0.010254,-0.005183,-0.016589,0.097404,0.213044,-0.292799,-1.348774,0.584981,-0.322792,-0.126017,-0.841608,0.088762,-0.011481,0.845922,-0.002248,0.012618,-0.737275,0.048251,0.062763,0.862427,-0.223873,-0.247954,-5.752275,12.280401,-0.676944,0.155132,0.122287,-0.215748,0.669937,-0.527089,-0.337629,5.294873,-11.147582
0.258000,0.010947,-1.337079,0.296286,0.999805,0.009210,-0.004520,-0.016877,0.094480,0.237521,-0.287797,-1.055987,0.642881,-0.289573,-0.128260,-0.851726,0.106244,-0.014014,0.846084,-0.002497,0.012816,-0.735825,0.047151,0.062158,0.871605,-0.239634,-1.121511,-5.058622,8.741327,-1.266504,0.080752,-0.124499,0.098883,0.725003,-0.549578,-0.302320,4.588987,-7.880391
0.260000,0.011147,-1.336599,0.295669,0.999811,0.008150,-0.003864,-0.017205,0.099693,0.239946,-0.308421,-1.073068,0.635039,-0.329350,-0.129819,-0.863003,0.128594,-0.016662,0.846287,-0.002262,0.013072,-0.734513,0.046292,0.062140,0.882136,-0.261155,-0.779767,-5.638584,11.175150,-1.323726,0.101788,0.117449,0.128048,0.656057,-0.429890,-0.008886,5.265208,-10.760684
0.262000,0.011348,-1.336120,0.295046,0.999817,0.006946,-0.003205,-0.017523,0.100448,0.239445,-0.311323,-1.215449,0.635783,-0.317653,-0.131477,-0.873399,0.145989,-0.019217,0.846429,-0.001690,0.013057,-0.733190,0.045367,0.061394,0.892291,-0.280566,-0.828912,-5.197851,8.697243,-1.277816,0.070950,0.285974,-0.007534,0.661606,-0.462411,-0.373310,5.077926,-9.705219
0.264000,0.011553,-1.335696,0.294369,0.999823,0.005217,-0.002511,-0.017874,0.102820,0.212327,-0.338645,-1.742702,0.661092,-0.350447,-0.130893,-0.885044,0.169090,-0.019994,0.847961,-0.003949,0.011989,-0.731742,0.044303,0.059547,0.903307,-0.304022,0.292161,-5.822757,11.550483,-0.388058,0.765961,-1.129333,-0.534306,0.723723,-0.531782,-0.923373,5.507557,-11.727976
0.266000,0.011756,-1.335250,0.293682,0.999826,0.003618,-0.001768,-0.018201,0.101088,0.222847,-0.343509,-1.612573,0.712330,-0.327162,-0.131063,-0.896065,0.188800,-0.020498,0.850191,-0.007834,0.011186,-0.730244,0.043270,0.057371,0.913220,-0.322604,-0.084815,-5.510354,9.854811,-0.252016,1.114754,-1.942499,-0.401309,0.749039,-0.516520,-1.087669,4.956552,-9.291213
0.268000,0.011960,-1.334767,0.292976,0.999825,0.002395,-0.001033,-0.018535,0.102341,0.241397,-0.352928,-1.237093,0.711655,-0.333829,-0.131632,-0.907778,0.211438,-0.021277,0.852901,-0.012704,0.011217,-0.728994,0.042683,0.056044,0.923082,-0.341448,-0.284560,-5.856827,11.319426,-0.389518,1.355340,-2.435137,0.015375,0.624878,-0.293752,-0.663761,4.931198,-9.421889
0.270000,0.012165,-1.334226,0.292287,0.999821,0.001686,-0.000355,-0.018851,0.102390,0.270697,-0.344748,-0.721973,0.663869,-0.317417,-0.133730,-0.918756,0.229921,-0.022758,0.855744,-0.017846,0.012351,-0.728106,0.042573,0.055676,0.932456,-0.358592,-1.049011,-5.489000,9.241446,-0.740768,1.421319,-2.570928,0.567411,0.444344,-0.054719,-0.184134,4.686817,-8.572105
0.272000,0.012371,-1.333694,0.291613,0.999816,0.000975,0.000207,-0.019177,0.102887,0.265801,-0.337024,-0.721052,0.548457,-0.326729,-0.134663,-0.930185,0.250356,-0.023875,0.858828,-0.023160,0.013479,-0.727596,0.042785,0.054975,0.942077,-0.377749,-0.466710,-5.714517,10.217266,-0.558454,1.541829,-2.656950,0.563872,0.254819,0.105976,-0.350225,4.810658,-9.578684
0.274000,0.012572,-1.333171,0.290982,0.999810,0.000259,0.000641,-0.019497,0.100632,0.261507,-0.315202,-0.724385,0.419732,-0.320994,-0.134807,-0.941209,0.269079,-0.024700,0.861935,-0.028270,0.014559,-0.727401,0.043166,0.053561,0.951361,-0.396195,-0.071939,-5.512035,9.361358,-0.412589,1.553845,-2.555006,0.539722,0.097461,0.190641,-0.707193,4.642132,-9.222720
0.276000,0.012763,-1.332701,0.290403,0.999803,-0.000813,0.000946,-0.019811,0.095654,0.235082,-0.289858,-1.077582,0.283393,-0.314673,-0.132616,-0.952243,0.288607,-0.024544,0.865117,-0.033242,0.014827,-0.727373,0.043443,0.050098,0.960000,-0.413187,1.095276,-5.516606,9.764352,0.078053,1.590674,-2.486061,0.133988,0.013928,0.138463,-1.731237,4.319312,-8.496320
0.278000,0.012940,-1.332210,0.289881,0.999796,-0.001636,0.001154,-0.020119,0.088241,0.245342,-0.260627,-0.825944,0.192278,-0.308022,-0.130484,-0.962595,0.306647,-0.024723,0.868037,-0.037671,0.015592,-0.727509,0.043813,0.046588,0.967850,-0.428593,1.066251,-5.175900,9.019669,-0.089588,1.460323,-2.214482,0.382815,-0.067963,0.184570,-1.754978,3.925082,-7.702927
0.280000,0.013097,-1.331699,0.289421,0.999788,-0.002189,0.001286,-0.020415,0.078532,0.255448,-0.230039,-0.556048,0.120848,-0.296993,-0.128316,-0.972370,0.324356,-0.025310,0.870639,-0.041533,0.016879,-0.727727,0.044209,0.042837,0.974518,-0.441285,1.084124,-4.887774,8.854493,-0.293453,1.300745,-1.930769,0.643161,-0.108974,0.198299,-1.875658,3.333749,-6.345668
0.282000,0.013236,-1.331138,0.289017,0.999782,-0.002263,0.001336,-0.020724,0.069684,0.280880,-0.201981,-0.074529,0.049193,-0.308634,-0.127026,-0.981374,0.341313,-0.026758,0.872846,-0.044649,0.019193,-0.728073,0.044767,0.040353,0.980923,-0.455450,0.644744,-4.501925,8.478561,-0.724037,1.103811,-1.558332,1.157168,-0.173088,0.278893,-1.242272,3.202515,-7.082659
0.284000,0.013355,-1.330593,0.288681,0.999775,-0.002448,0.001305,-0.021024,0.059520,0.272033,-0.168211,-0.184018,-0.034088,-0.300515,-0.124753,-0.989577,0.356929,-0.027882,0.874842,-0.047313,0.021228,-0.728365,0.045070,0.036621,0.986315,-0.467093,1.136363,-4.101371,7.808310,-0.561605,0.997917,-1.331842,1.017597,-0.146103,0.151333,-1.865864,2.696249,-5.821469
0.286000,0.013458,-1.330051,0.288401,0.999768,-0.002625,0.001187,-0.021342,0.051584,0.271287,-0.139711,-0.173446,-0.120703,-0.318750,-0.121817,-0.997259,0.372614,-0.028917,0.876628,-0.049444,0.023291,-0.728660,0.045245,0.032835,0.991699,-0.480065,1.467991,-3.840961,7.842235,-0.517669,0.892674,-1.065594,1.031220,-0.147494,0.087594,-1.892781,2.691761,-6.485984
0.288000,0.013543,-1.329551,0.288195,0.999760,-0.003136,0.000994,-0.021641,0.042494,0.250033,-0.103060,-0.506789,-0.203336,-0.300392,-0.117376,-1.004106,0.385794,-0.029210,0.878260,-0.051203,0.024576,-0.728831,0.044996,0.026834,0.995808,-0.488035,2.220729,-3.423534,6.590119,-0.146562,0.816011,-0.879369,0.642509,-0.085299,-0.124301,-3.000524,2.054754,-3.984851
0.290000,0.013616,-1.329024,0.288041,0.999753,-0.003378,0.000729,-0.021962,0.036121,0.263231,-0.077319,-0.235732,-0.268320,-0.322345,-0.113078,-1.010674,0.399698,-0.029974,0.879583,-0.052295,0.026446,-0.729057,0.044782,0.021758,1.000037,-0.497498,2.148772,-3.283962,6.952142,-0.382001,0.661860,-0.546231,0.935151,-0.112726,-0.107339,-2.538292,2.114536,-4.731817
0.292000,0.013671,-1.328498,0.287950,0.999746,-0.003578,0.000424,-0.022261,0.027782,0.263369,-0.045308,-0.193103,-0.308526,-0.300202,-0.108691,-1.016418,0.410856,-0.030809,0.880633,-0.052931,0.028336,-0.729199,0.044349,0.015723,1.002901,-0.501689,2.193767,-2.872241,5.579083,-0.417570,0.524891,-0.317592,0.944849,-0.071248,-0.216504,-3.017352,1.431826,-2.095165
0.294000,0.013716,-1.327938,0.287893,0.999739,-0.003480,0.000073,-0.022585,0.022314,0.279930,-0.028640,0.105565,-0.347678,-0.324661,-0.104689,-1.022059,0.423297,-0.032204,0.881460,-0.053096,0.030882,-0.729387,0.044007,0.011107,1.006148,-0.509213,2.000951,-2.820234,6.220016,-0.697625,0.413401,-0.082664,1.273196,-0.093830,-0.170678,-2.308114,1.623730,-3.762360
0.296000,0.013745,-1.327404,0.287887,0.999732,-0.003617,-0.000300,-0.022875,0.014521,0.266752,-0.002786,-0.128659,-0.374909,-0.291544,-0.100060,-1.026822,0.432075,-0.033145,0.882202,-0.053156,0.032847,-0.729420,0.043316,0.004681,1.007907,-0.511203,2.314665,-2.381811,4.389151,-0.470496,0.371317,-0.030197,0.982707,-0.016780,-0.345790,-3.212698,0.879522,-0.994827
0.298000,0.013764,-1.326866,0.287901,0.999724,-0.003727,-0.000698,-0.023182,0.009436,0.269326,0.006953,-0.100465,-0.400011,-0.309018,-0.095095,-1.031590,0.442361,-0.034119,0.882908,-0.053094,0.034886,-0.729424,0.042590,-0.001147,1.009950,-0.516280,2.482393,-2.384162,5.143162,-0.487000,0.352875,0.031182,1.019136,-0.001968,-0.362670,-2.914353,1.021175,-2.538509
0.300000,0.013767,-1.326356,0.287956,0.999716,-0.004106,-0.001093,-0.023447,0.001821,0.254927,0.027408,-0.370247,-0.401789,-0.265767,-0.089612,-1.035417,0.448588,-0.034599,0.883591,-0.053112,0.036255,-0.729239,0.041500,-0.008969,1.010248,-0.514836,2.741420,-1.913501,3.113493,-0.239600,0.341536,-0.009085,0.684751,0.092768,-0.544971,-3.910792,0.148969,0.722097
0.302000,0.013762,-1.325820,0.288017,0.999708,-0.004277,-0.001488,-0.023728,-0.002752,0.267860,0.030400,-0.161557,-0.398662,-0.282622,-0.084393,-1.039303,0.457005,-0.035499,0.884210,-0.053042,0.038087,-0.729049,0.040507,-0.015432,1.010855,-0.516935,2.609738,-1.942771,4.208235,-0.449970,0.309426,0.034935,0.915905,0.094798,-0.496679,-3.231507,0.303687,-1.049728
0.304000,0.013744,-1.325286,0.288107,0.999701,-0.004473,-0.001866,-0.023966,-0.009138,0.267211,0.044904,-0.187745,-0.380698,-0.239768,-0.079468,-1.042244,0.461717,-0.036415,0.884742,-0.052994,0.039775,-0.728747,0.039342,-0.022879,1.009863,-0.513172,2.462462,-1.470498,2.355963,-0.458373,0.265888,0.024187,0.843965,0.151155,-0.582400,-3.723634,-0.496080,1.881517
0.306000,0.013720,-1.324730,0.288193,0.999694,-0.004508,-0.002251,-0.024221,-0.011853,0.278052,0.043387,-0.026174,-0.384567,-0.256087,-0.074636,-1.045270,0.468663,-0.037663,0.885262,-0.052905,0.041830,-0.728500,0.038332,-0.028926,1.009405,-0.513566,2.415902,-1.513176,3.473215,-0.623683,0.259801,0.044612,1.027380,0.123464,-0.504939,-3.023438,-0.229084,-0.197086
0.308000,0.013688,-1.324194,0.288303,0.999687,-0.004747,-0.002630,-0.024429,-0.016192,0.267848,0.054948,-0.230196,-0.384117,-0.209382,-0.069561,-1.047346,0.471456,-0.038567,0.885790,-0.052926,0.043359,-0.728186,0.037137,-0.036464,1.007490,-0.507953,2.537279,-1.037982,1.396664,-0.452367,0.264088,-0.010570,0.764550,0.157104,-0.597873,-3.768753,-0.957093,2.806821
0.310000,0.013653,-1.323654,0.288406,0.999679,-0.004979,-0.003027,-0.024649,-0.017433,0.269897,0.051218,-0.222652,-0.401058,-0.221356,-0.064045,-1.049539,0.476382,-0.039489,0.886379,-0.052980,0.044921,-0.727954,0.036070,-0.043143,1.006132,-0.505905,2.758068,-1.096462,2.463055,-0.460961,0.294763,-0.026984,0.781284,0.115946,-0.533272,-3.339800,-0.679179,1.023708
0.312000,0.013612,-1.323131,0.288523,0.999671,-0.005378,-0.003424,-0.024827,-0.020360,0.261516,0.058526,-0.389717,-0.405895,-0.179126,-0.058311,-1.050920,0.477848,-0.040137,0.886984,-0.053121,0.046049,-0.727716,0.034908,-0.050983,1.003596,-0.498908,2.867028,-0.690245,0.732931,-0.323763,0.302345,-0.070678,0.563939,0.118757,-0.581226,-3.919905,-1.267876,3.498490
0.314000,0.013570,-1.322589,0.288627,0.999664,-0.005628,-0.003834,-0.025015,-0.020926,0.270968,0.051985,-0.240755,-0.415962,-0.190050,-0.052573,-1.052455,0.481738,-0.041092,0.887592,-0.053221,0.047515,-0.727609,0.033980,-0.057496,1.001653,-0.495626,2.869242,-0.767447,1.944794,-0.477339,0.304188,-0.049833,0.732700,0.053834,-0.463698,-3.256437,-0.971816,1.641195
0.316000,0.013524,-1.322045,0.288737,0.999657,-0.005864,-0.004240,-0.025167,-0.023077,0.272095,0.054946,-0.225800,-0.410942,-0.153217,-0.047117,-1.053384,0.483290,-0.042135,0.888156,-0.053328,0.048946,-0.727541,0.033086,-0.064429,0.998773,-0.488417,2.727575,-0.464868,0.775841,-0.521506,0.281779,-0.053519,0.715513,0.033821,-0.447204,-3.466489,-1.439882,3.604678
0.318000,0.013478,-1.321489,0.288832,0.999650,-0.006015,-0.004661,-0.025323,-0.023066,0.278079,0.047564,-0.141197,-0.423562,-0.157618,-0.041614,-1.054448,0.486589,-0.043358,0.888744,-0.053425,0.050571,-0.727598,0.032393,-0.070419,0.996401,-0.484163,2.751901,-0.531824,1.649699,-0.611738,0.293839,-0.048676,0.812720,-0.028762,-0.346377,-2.995191,-1.185798,2.126574
0.320000,0.013431,-1.320945,0.288922,0.999643,-0.006286,-0.005090,-0.025451,-0.023538,0.272063,0.045366,-0.260642,-0.434552,-0.129296,-0.035894,-1.055272,0.488611,-0.044380,0.889386,-0.053619,0.051897,-0.727723,0.031731,-0.077066,0.993570,-0.477705,2.859843,-0.411774,1.010952,-0.510950,0.321335,-0.096797,0.663017,-0.062052,-0.331062,-3.323530,-1.415677,3.229291
0.322000,0.013385,-1.320399,0.288996,0.999636,-0.006573,-0.005535,-0.025577,-0.022655,0.272735,0.036756,-0.276822,-0.451769,-0.128242,-0.030003,-1.056288,0.491728,-0.045381,0.890099,-0.053866,0.053200,-0.727963,0.031220,-0.083301,0.991224,-0.473475,2.945425,-0.507986,1.558767,-0.500739,0.356325,-0.123532,0.651596,-0.120057,-0.255227,-3.117576,-1.172770,2.114865
0.324000,0.013343,-1.319863,0.289051,0.999628,-0.006954,-0.005996,-0.025690,-0.021132,0.268291,0.027453,-0.369630,-0.469471,-0.113652,-0.023816,-1.057640,0.495559,-0.046218,0.890914,-0.054233,0.054293,-0.728325,0.030835,-0.089861,0.989066,-0.469480,3.093342,-0.676211,1.915267,-0.418245,0.407547,-0.183598,0.546414,-0.180946,-0.192513,-3.279626,-1.079081,1.997804
0.326000,0.013304,-1.319312,0.289087,0.999620,-0.007240,-0.006464,-0.025792,-0.019457,0.275131,0.017920,-0.274660,-0.474693,-0.103770,-0.018092,-1.059245,0.499703,-0.047275,0.891746,-0.054614,0.055592,-0.728813,0.030644,-0.095982,0.987278,-0.466400,2.862250,-0.802736,2.072102,-0.528390,0.416035,-0.190344,0.649544,-0.244291,-0.095822,-3.060669,-0.894349,1.539890
0.328000,0.013262,-1.318753,0.289123,0.999614,-0.007464,-0.006909,-0.025863,-0.021120,0.279621,0.018079,-0.212296,-0.450378,-0.073284,-0.013061,-1.060493,0.501466,-0.048506,0.892505,-0.055009,0.056982,-0.729259,0.030421,-0.102276,0.984832,-0.459707,2.515494,-0.623565,0.881455,-0.615650,0.379516,-0.197574,0.695113,-0.223137,-0.111172,-3.146973,-1.222687,3.346612
0.330000,0.013216,-1.318188,0.289152,0.999607,-0.007680,-0.007340,-0.025929,-0.023073,0.282302,0.014663,-0.205546,-0.435371,-0.067864,-0.008293,-1.061616,0.502835,-0.049769,0.893249,-0.055454,0.058395,-0.729644,0.030159,-0.108255,0.982444,-0.453319,2.384041,-0.561629,0.684527,-0.631465,0.372214,-0.222379,0.706259,-0.192181,-0.131378,-2.989497,-1.194268,3.193794
0.332000,0.013157,-1.317629,0.289197,0.999601,-0.007987,-0.007730,-0.025969,-0.029286,0.279925,0.022492,-0.297099,-0.398304,-0.039986,-0.003989,-1.061676,0.500135,-0.050890,0.893905,-0.055962,0.059574,-0.729792,0.029598,-0.114664,0.979015,-0.443113,2.152049,-0.030256,-1.349979,-0.560765,0.327814,-0.254078,0.589738,-0.073991,-0.280448,-3.204509,-1.714312,5.102969
0.334000,0.013087,-1.317076,0.289237,0.999593,-0.008401,-0.008097,-0.026028,-0.034996,0.276295,0.019972,-0.404481,-0.376752,-0.058926,0.000889,-1.061622,0.499604,-0.051773,0.894577,-0.056588,0.060565,-0.729742,0.028851,-0.120482,0.975857,-0.436013,2.439135,0.027216,-0.265513,-0.441317,0.335968,-0.312992,0.495406,0.024754,-0.373293,-2.908949,-1.578822,3.549975
0.336000,0.012999,-1.316515,0.289301,0.999586,-0.008773,-0.008411,-0.026060,-0.044096,0.280298,0.031871,-0.364025,-0.323652,-0.032648,0.004992,-1.060177,0.495260,-0.052777,0.895047,-0.057165,0.061596,-0.729412,0.027805,-0.126158,0.971370,-0.424978,2.051167,0.722215,-2.171971,-0.501835,0.234809,-0.288474,0.515134,0.165149,-0.522820,-2.837864,-2.243499,5.517626
0.338000,0.012899,-1.315954,0.289363,0.999579,-0.009146,-0.008704,-0.026110,-0.050218,0.280714,0.031287,-0.366305,-0.301787,-0.049505,0.009577,-1.058585,0.493572,-0.053750,0.895461,-0.057750,0.062644,-0.728932,0.026654,-0.130913,0.966981,-0.416545,2.292587,0.796440,-0.843884,-0.486739,0.207221,-0.292554,0.524356,0.240127,-0.575719,-2.377732,-2.194753,4.216462
0.340000,0.012783,-1.315373,0.289456,0.999575,-0.009353,-0.008956,-0.026118,-0.057991,0.290373,0.046080,-0.200562,-0.257163,-0.008564,0.012871,-1.055332,0.486420,-0.055115,0.895595,-0.058137,0.063967,-0.728285,0.025333,-0.135362,0.960949,-0.402315,1.646828,1.626302,-3.576433,-0.682291,0.066818,-0.193768,0.661577,0.323282,-0.660307,-2.224539,-3.016133,7.114874
0.342000,0.012661,-1.314805,0.289543,0.999569,-0.009673,-0.009220,-0.026145,-0.061037,0.283988,0.043624,-0.312991,-0.272347,-0.026201,0.017175,-1.052087,0.481862,-0.056218,0.895758,-0.058525,0.065073,-0.727633,0.024009,-0.139187,0.955286,-0.391306,2.151953,1.622317,-2.278914,-0.551439,0.081583,-0.193999,0.552569,0.326033,-0.662392,-1.912278,-2.831366,5.504490
0.344000,0.012529,-1.314231,0.289654,0.999564,-0.009948,-0.009480,-0.026131,-0.065744,0.287092,0.055440,-0.267956,-0.266786,0.013920,0.020605,-1.047268,0.471425,-0.057464,0.895741,-0.058729,0.066200,-0.726963,0.022620,-0.142974,0.948332,-0.375707,1.715331,2.409884,-5.218323,-0.623061,-0.008624,-0.101887,0.563571,0.335008,-0.694388,-1.893445,-3.477104,7.799357
0.346000,0.012396,-1.313673,0.289749,0.999557,-0.010349,-0.009769,-0.026138,-0.066376,0.278832,0.047790,-0.393716,-0.300279,-0.006828,0.025309,-1.042794,0.464867,-0.058412,0.895820,-0.058959,0.067083,-0.726403,0.021358,-0.146161,0.942024,-0.364187,2.352008,2.236921,-3.279255,-0.474335,0.039453,-0.114744,0.441810,0.279789,-0.630792,-1.593609,-3.153654,5.760372
0.348000,0.012257,-1.313095,0.289860,0.999553,-0.010548,-0.010048,-0.026095,-0.069769,0.289419,0.055412,-0.190681,-0.284419,0.041802,0.028597,-1.036866,0.452968,-0.059837,0.895693,-0.058993,0.068293,-0.725953,0.020239,-0.149003,0.934314,-0.347232,1.643712,2.963767,-5.949425,-0.712335,-0.063163,-0.017209,0.604993,0.225238,-0.559723,-1.420840,-3.855289,8.477391
0.350000,0.012118,-1.312525,0.289949,0.999548,-0.010804,-0.010351,-0.026066,-0.069385,0.284593,0.044218,-0.248496,-0.309396,0.028197,0.032761,-1.031325,0.444873,-0.061115,0.895674,-0.059096,0.069397,-0.725651,0.019316,-0.151228,0.927152,-0.333561,2.082137,2.770810,-4.047188,-0.638769,-0.009851,-0.051362,0.552073,0.151210,-0.461659,-1.112565,-3.580935,6.835546
0.352000,0.011974,-1.311936,0.290048,0.999546,-0.010886,-0.010645,-0.025983,-0.072065,0.294873,0.049549,-0.073321,-0.296624,0.080541,0.035274,-1.024205,0.430467,-0.062823,0.895488,-0.059058,0.070765,-0.725495,0.018570,-0.153224,0.918646,-0.314635,1.256466,3.560018,-7.203010,-0.854273,-0.092598,0.019067,0.683846,0.077811,-0.372890,-0.997957,-4.253056,9.462979
0.354000,0.011831,-1.311368,0.290119,0.999542,-0.011159,-0.010962,-0.025922,-0.071468,0.284035,0.035554,-0.263654,-0.325131,0.060881,0.038897,-1.017489,0.419781,-0.064112,0.895502,-0.059217,0.071770,-0.725412,0.017910,-0.154933,0.910900,-0.299886,1.811467,3.357556,-5.343197,-0.644191,0.006739,-0.079543,0.502651,0.041455,-0.329998,-0.854635,-3.872775,7.374556
0.356000,0.011682,-1.310787,0.290195,0.999539,-0.011339,-0.011265,-0.025817,-0.074675,0.290510,0.038051,-0.171003,-0.308599,0.103561,0.041107,-1.009343,0.403560,-0.065652,0.895412,-0.059340,0.072917,-0.725316,0.017239,-0.156545,0.902004,-0.280803,1.105318,4.073182,-8.110352,-0.770202,-0.044772,-0.061638,0.573116,0.047913,-0.335214,-0.805848,-4.447922,9.541177
0.358000,0.011532,-1.310225,0.290241,0.999534,-0.011678,-0.011574,-0.025734,-0.074647,0.280959,0.022812,-0.330305,-0.318913,0.082751,0.044310,-1.001763,0.391777,-0.066832,0.895513,-0.059707,0.073765,-0.725238,0.016623,-0.157855,0.893782,-0.265374,1.601157,3.790256,-5.891776,-0.590192,0.050326,-0.183496,0.424147,0.038965,-0.308144,-0.655196,-4.111466,7.714797
0.360000,0.011377,-1.309640,0.290288,0.999532,-0.011830,-0.011858,-0.025609,-0.077765,0.292169,0.023771,-0.143022,-0.288891,0.123091,0.045880,-0.992997,0.375366,-0.068453,0.895476,-0.060021,0.074958,-0.725139,0.016031,-0.158795,0.884422,-0.245442,0.785135,4.382571,-8.205438,-0.810424,-0.018487,-0.156796,0.596479,0.049456,-0.296144,-0.469939,-4.679511,9.966047
0.362000,0.011223,-1.309072,0.290306,0.999527,-0.012128,-0.012149,-0.025506,-0.076921,0.283918,0.009153,-0.288879,-0.300209,0.103602,0.048232,-0.984799,0.362564,-0.069746,0.895617,-0.060552,0.075883,-0.725069,0.015497,-0.159452,0.875763,-0.228877,1.175994,4.099412,-6.400785,-0.646543,0.070735,-0.265879,0.462713,0.035315,-0.267059,-0.328565,-4.329511,8.282413
0.364000,0.011066,-1.308489,0.290325,0.999525,-0.012319,-0.012432,-0.025368,-0.078571,0.291826,0.009485,-0.181808,-0.289147,0.137027,0.049173,-0.975525,0.344751,-0.071311,0.895668,-0.061028,0.077002,-0.725015,0.014991,-0.159868,0.866309,-0.208970,0.470440,4.636570,-8.906348,-0.782457,0.025149,-0.237776,0.559408,0.026977,-0.252896,-0.207958,-4.727253,9.953609
0.366000,0.010912,-1.307926,0.290316,0.999519,-0.012696,-0.012728,-0.025252,-0.077039,0.281446,-0.004551,-0.368330,-0.307384,0.115926,0.050985,-0.966898,0.330328,-0.072463,0.895909,-0.061714,0.077770,-0.724998,0.014531,-0.160177,0.857625,-0.192391,0.906039,4.313470,-7.211526,-0.575689,0.120599,-0.343261,0.384026,0.008500,-0.229915,-0.154588,-4.341993,8.289157
0.368000,0.010755,-1.307348,0.290304,0.999516,-0.012958,-0.013016,-0.025111,-0.078271,0.288981,-0.005897,-0.252851,-0.296125,0.141401,0.051621,-0.957582,0.312579,-0.073887,0.896067,-0.062346,0.078759,-0.725002,0.014119,-0.160191,0.848316,-0.172979,0.318255,4.658144,-8.874798,-0.712367,0.079072,-0.315769,0.494231,-0.001884,-0.205781,-0.007092,-4.654280,9.706389
0.370000,0.010601,-1.306786,0.290267,0.999510,-0.013353,-0.013313,-0.024988,-0.076879,0.281017,-0.018634,-0.385458,-0.308620,0.123368,0.052942,-0.948978,0.298301,-0.075010,0.896374,-0.063145,0.079503,-0.725039,0.013762,-0.160091,0.839633,-0.156028,0.660506,4.302290,-7.139091,-0.561346,0.153389,-0.399522,0.372203,-0.018809,-0.178506,0.050077,-4.341897,8.475112
0.372000,0.010447,-1.306210,0.290225,0.999505,-0.013649,-0.013614,-0.024847,-0.077153,0.288062,-0.020968,-0.287383,-0.309645,0.140635,0.053237,-0.939883,0.281277,-0.076362,0.896617,-0.063866,0.080450,-0.725131,0.013483,-0.159666,0.830644,-0.137427,0.147390,4.547437,-8.511876,-0.676110,0.121611,-0.360748,0.473311,-0.045778,-0.139842,0.212377,-4.494349,9.300748
0.374000,0.010296,-1.305649,0.290163,0.999498,-0.014089,-0.013932,-0.024723,-0.075523,0.280323,-0.031287,-0.429974,-0.330516,0.126078,0.054047,-0.931338,0.266483,-0.077401,0.896992,-0.064707,0.081130,-0.725276,0.013260,-0.159261,0.822257,-0.120976,0.405026,4.272625,-7.396997,-0.519299,0.187286,-0.420251,0.340156,-0.072854,-0.111615,0.202535,-4.193454,8.225611
0.376000,0.010146,-1.305077,0.290093,0.999491,-0.014458,-0.014261,-0.024588,-0.075116,0.286124,-0.034670,-0.359117,-0.339974,0.134824,0.054033,-0.922526,0.249785,-0.078604,0.897329,-0.065471,0.081972,-0.725493,0.013130,-0.158544,0.813868,-0.103981,-0.007356,4.405772,-8.348914,-0.601480,0.168451,-0.382046,0.420750,-0.108077,-0.064642,0.358727,-4.194292,8.497519
0.378000,0.009998,-1.304517,0.290007,0.999482,-0.014935,-0.014601,-0.024466,-0.074147,0.279908,-0.042944,-0.466541,-0.353585,0.124004,0.054377,-0.914261,0.235203,-0.079567,0.897764,-0.066336,0.082612,-0.725737,0.013033,-0.157910,0.805880,-0.088103,0.172301,4.132310,-7.291091,-0.481833,0.217507,-0.432544,0.320431,-0.122180,-0.048438,0.316854,-3.993975,7.938548
0.380000,0.009851,-1.303946,0.289911,0.999474,-0.015333,-0.014951,-0.024345,-0.073240,0.285731,-0.048237,-0.387377,-0.361818,0.121356,0.054104,-0.906112,0.220494,-0.080696,0.898184,-0.067149,0.083450,-0.726043,0.013038,-0.156859,0.798189,-0.072724,-0.136591,4.074887,-7.354265,-0.564039,0.210062,-0.406323,0.418653,-0.152873,0.002238,0.525306,-3.845625,7.689840
0.382000,0.009706,-1.303386,0.289803,0.999464,-0.015841,-0.015313,-0.024233,-0.072526,0.280014,-0.053816,-0.497057,-0.375940,0.113911,0.054046,-0.898382,0.206967,-0.081588,0.898679,-0.068031,0.084079,-0.726360,0.013039,-0.156009,0.790800,-0.057797,-0.029142,3.865019,-6.763583,-0.446363,0.247720,-0.441245,0.314495,-0.158764,0.000651,0.425262,-3.694389,7.463441
0.384000,0.009566,-1.302817,0.289683,0.999452,-0.016321,-0.015697,-0.024133,-0.070285,0.284103,-0.060242,-0.469565,-0.397336,0.100902,0.053593,-0.890958,0.193743,-0.082535,0.899206,-0.068871,0.084820,-0.726759,0.013144,-0.154767,0.784167,-0.045030,-0.226266,3.711825,-6.612037,-0.473407,0.263309,-0.419933,0.370607,-0.199169,0.052191,0.620774,-3.316891,6.383245
0.386000,0.009429,-1.302261,0.289553,0.999437,-0.016951,-0.016106,-0.024048,-0.068152,0.278175,-0.065093,-0.618444,-0.425024,0.086936,0.053322,-0.883831,0.180669,-0.083172,0.899834,-0.069761,0.085293,-0.727187,0.013235,-0.153969,0.779487,-0.035972,-0.135673,3.563465,-6.536876,-0.318234,0.313984,-0.445166,0.236516,-0.214375,0.045729,0.399383,-2.339867,4.529098
0.388000,0.009294,-1.301686,0.289410,0.999425,-0.017410,-0.016502,-0.023963,-0.067592,0.287594,-0.071533,-0.448790,-0.408906,0.085753,0.052458,-0.877433,0.169846,-0.084158,0.900417,-0.070631,0.086145,-0.727632,0.013426,-0.152923,0.776210,-0.029675,-0.431898,3.199140,-5.411488,-0.493354,0.291861,-0.434824,0.425937,-0.222279,0.095589,0.522648,-1.638253,3.148712
0.390000,0.009146,-1.301095,0.289280,0.999418,-0.017681,-0.016826,-0.023845,-0.074232,0.295532,-0.064557,-0.260701,-0.332098,0.116302,0.050758,-0.871255,0.159014,-0.085555,0.900792,-0.071499,0.087325,-0.727819,0.013411,-0.151642,0.773575,-0.025077,-0.849973,3.088936,-5.416332,-0.698279,0.187352,-0.433731,0.589917,-0.093688,-0.007638,0.640829,-1.317473,2.299076
0.392000,0.008983,-1.300488,0.289161,0.999417,-0.017704,-0.017050,-0.023692,-0.081140,0.303458,-0.059752,-0.014939,-0.226890,0.149247,0.048421,-0.865968,0.151044,-0.087465,0.900950,-0.072438,0.088929,-0.727701,0.013187,-0.149998,0.771267,-0.021658,-1.168609,2.643292,-3.985047,-0.954946,0.078798,-0.469494,0.802042,0.058883,-0.112150,0.822012,-1.154262,1.709283
0.394000,0.008796,-1.299896,0.289084,0.999420,-0.017737,-0.017140,-0.023484,-0.093540,0.295962,-0.038597,-0.027368,-0.094838,0.207363,0.045804,-0.860635,0.141299,-0.089376,0.900846,-0.073528,0.090329,-0.727016,0.012339,-0.148580,0.768876,-0.018839,-1.308336,2.666453,-4.872090,-0.955883,-0.052006,-0.545478,0.700141,0.342561,-0.423805,0.709058,-1.195553,1.409364
0.396000,0.008594,-1.299335,0.289030,0.999424,-0.017855,-0.017108,-0.023237,-0.101339,0.280522,-0.026962,-0.114180,0.025165,0.249023,0.043816,-0.856432,0.134834,-0.091098,0.900625,-0.074900,0.091378,-0.725871,0.011001,-0.147533,0.766483,-0.016611,-0.993988,2.101429,-3.232886,-0.860842,-0.110574,-0.685643,0.524282,0.572759,-0.669011,0.523065,-1.196276,1.114233
0.398000,0.008373,-1.298813,0.289020,0.999428,-0.018152,-0.016970,-0.022933,-0.110294,0.260696,-0.005111,-0.294610,0.125727,0.311432,0.042236,-0.852341,0.126555,-0.092466,0.900234,-0.076440,0.091837,-0.724286,0.009099,-0.147076,0.763941,-0.014688,-0.790068,2.045852,-4.139106,-0.683850,-0.195063,-0.770315,0.229700,0.792325,-0.950780,0.228505,-1.270936,0.961567
0.400000,0.008150,-1.298309,0.289020,0.999436,-0.018340,-0.016756,-0.022581,-0.111475,0.252031,0.000372,-0.186903,0.202831,0.359130,0.041079,-0.849920,0.123437,-0.094031,0.899715,-0.078054,0.092345,-0.722609,0.007147,-0.146582,0.761347,-0.013036,-0.578524,1.210405,-1.559215,-0.782787,-0.259583,-0.806931,0.253859,0.838803,-0.976314,0.247191,-1.297322,0.826123
0.402000,0.007925,-1.297817,0.289055,0.999448,-0.018439,-0.016508,-0.022155,-0.112528,0.246042,0.017224,-0.097010,0.238529,0.432640,0.039501,-0.847566,0.117612,-0.095808,0.898977,-0.079499,0.092790,-0.721111,0.005355,-0.146101,0.758634,-0.011457,-0.788913,1.176945,-2.912414,-0.888336,-0.369183,-0.722448,0.222527,0.748871,-0.895940,0.240714,-1.356504,0.789373
0.404000,0.007717,-1.297329,0.289085,0.999464,-0.018326,-0.016272,-0.021683,-0.104205,0.244123,0.015252,0.115394,0.230068,0.474603,0.037964,-0.846780,0.116108,-0.097996,0.898175,-0.080766,0.093448,-0.720320,0.004397,-0.145331,0.756169,-0.010273,-0.768776,0.393080,-0.752171,-1.094040,-0.401174,-0.633607,0.329253,0.395323,-0.478995,0.384954,-1.232388,0.591952
0.406000,0.007519,-1.296858,0.289139,0.999481,-0.018211,-0.016063,-0.021157,-0.098830,0.235657,0.027059,0.119782,0.201090,0.527788,0.036118,-0.845787,0.111087,-0.100205,0.897283,-0.081789,0.093861,-0.720158,0.004046,-0.144711,0.753880,-0.009351,-0.922916,0.496295,-2.510260,-1.104168,-0.445879,-0.511376,0.206332,0.081274,-0.175271,0.309957,-1.144378,0.460937
0.408000,0.007344,-1.296413,0.289176,0.999495,-0.018164,-0.015910,-0.020642,-0.087199,0.222263,0.018146,0.051749,0.145118,0.517726,0.035104,-0.846236,0.111206,-0.102203,0.896564,-0.082774,0.094126,-0.720318,0.003987,-0.144287,0.752266,-0.009262,-0.506830,-0.224487,0.059418,-0.999223,-0.359609,-0.492300,0.132322,-0.080345,-0.029849,0.211971,-0.806936,0.044262
0.410000,0.007183,-1.295994,0.289223,0.999505,-0.018284,-0.015810,-0.020126,-0.080823,0.209477,0.023496,-0.113345,0.088254,0.519057,0.034169,-0.846271,0.108516,-0.103836,0.895922,-0.083626,0.094078,-0.720471,0.003749,-0.144253,0.751123,-0.009737,-0.467400,-0.017356,-1.344878,-0.816590,-0.320747,-0.426365,-0.023728,-0.076574,-0.118573,0.017067,-0.571491,-0.237110
0.412000,0.007046,-1.295591,0.289245,0.999512,-0.018470,-0.015772,-0.019658,-0.068610,0.201834,0.011324,-0.179315,0.025729,0.471544,0.033756,-0.847278,0.110265,-0.105249,0.895507,-0.084460,0.094016,-0.720738,0.003588,-0.144129,0.751260,-0.011711,-0.206565,-0.503752,0.874117,-0.706678,-0.207671,-0.416680,-0.030833,-0.133429,-0.080926,0.061849,0.068117,-0.986978
0.414000,0.006919,-1.295187,0.289272,0.999517,-0.018670,-0.015787,-0.019201,-0.063158,0.201891,0.013132,-0.192488,-0.026808,0.460102,0.032691,-0.847523,0.108652,-0.106622,0.895131,-0.085115,0.094004,-0.721038,0.003367,-0.144039,0.751680,-0.013979,-0.532714,-0.122456,-0.806283,-0.686385,-0.187669,-0.327614,-0.006242,-0.150083,-0.110338,0.045161,0.210205,-1.133986
0.416000,0.006811,-1.294768,0.289275,0.999523,-0.018714,-0.015836,-0.018792,-0.053927,0.209592,0.001612,-0.036285,-0.058041,0.408812,0.031243,-0.848331,0.110557,-0.108246,0.894862,-0.085681,0.094459,-0.721410,0.003267,-0.143214,0.753410,-0.017769,-0.723696,-0.403982,0.952610,-0.811956,-0.134736,-0.283097,0.227604,-0.185675,-0.050092,0.412468,0.864921,-1.894979
0.418000,0.006707,-1.294344,0.289281,0.999529,-0.018738,-0.015904,-0.018394,-0.052266,0.212053,0.003161,-0.016330,-0.075082,0.396936,0.029094,-0.848427,0.109989,-0.109903,0.894599,-0.086164,0.095017,-0.721705,0.003042,-0.142397,0.755026,-0.021389,-1.074629,-0.047947,-0.284309,-0.828313,-0.131659,-0.241279,0.278887,-0.147488,-0.112528,0.408419,0.808197,-1.810006
0.420000,0.006607,-1.293925,0.289278,0.999533,-0.018804,-0.015970,-0.018031,-0.049910,0.209178,-0.001544,-0.058953,-0.074004,0.362431,0.027011,-0.848672,0.111338,-0.111428,0.894434,-0.086735,0.095562,-0.721859,0.002663,-0.141595,0.756858,-0.025260,-1.041750,-0.122421,0.674794,-0.762430,-0.082219,-0.285558,0.272593,-0.076999,-0.189335,0.400716,0.915880,-1.935798
0.422000,0.006504,-1.293522,0.289284,0.999534,-0.019010,-0.016022,-0.017684,-0.051317,0.201676,0.002845,-0.199906,-0.061953,0.349128,0.024928,-0.848368,0.110968,-0.112649,0.894310,-0.087396,0.095837,-0.721773,0.001964,-0.141139,0.758460,-0.028865,-1.041328,0.151867,-0.185153,-0.610875,-0.062025,-0.330416,0.137257,0.042948,-0.349696,0.228473,0.800885,-1.802442
0.424000,0.006396,-1.293133,0.289299,0.999534,-0.019336,-0.016044,-0.017354,-0.054165,0.194460,0.007607,-0.320127,-0.034578,0.335104,0.023014,-0.847662,0.109797,-0.113607,0.894206,-0.088173,0.095874,-0.721407,0.000926,-0.140963,0.759779,-0.032153,-0.956924,0.353429,-0.585304,-0.478979,-0.051836,-0.388812,0.018664,0.183008,-0.518688,0.087866,0.659467,-1.643876
0.426000,0.006281,-1.292747,0.289325,0.999534,-0.019646,-0.016027,-0.017026,-0.057591,0.192825,0.012988,-0.303957,0.005002,0.332775,0.021036,-0.846744,0.108411,-0.114585,0.894040,-0.088992,0.095932,-0.720811,-0.000347,-0.140792,0.760691,-0.034956,-0.988898,0.458836,-0.693273,-0.489005,-0.082998,-0.409066,0.028828,0.298086,-0.636531,0.085248,0.456081,-1.401561
0.428000,0.006158,-1.292171,0.289383,0.999566,-0.018366,-0.016010,-0.016583,-0.061703,0.288347,0.028850,1.286605,0.031091,0.423577,0.012177,-0.842261,0.087515,-0.118974,0.892989,-0.088595,0.099416,-0.720836,-0.000615,-0.137246,0.760380,-0.036004,-4.429510,2.241578,-10.447914,-2.194406,-0.525748,0.198226,1.742000,-0.012716,-0.134109,1.773305,-0.155387,-0.524167
0.430000,0.006022,-1.291545,0.289426,0.999609,-0.016409,-0.015862,-0.016129,-0.067627,0.312883,0.021903,1.961271,0.172974,0.425280,0.002365,-0.838780,0.072479,-0.124592,0.891818,-0.088386,0.104226,-0.720639,-0.000739,-0.132302,0.759112,-0.035895,-4.906382,1.740548,-7.517897,-2.808874,-0.585248,0.104689,2.405298,0.098355,-0.062231,2.471959,-0.634185,0.054565
0.432000,0.005875,-1.291046,0.289426,0.999640,-0.015163,-0.015516,-0.015765,-0.073449,0.249271,-0.000366,1.246176,0.360130,0.350076,-0.002631,-0.838915,0.077161,-0.127733,0.891419,-0.091211,0.107358,-0.719673,-0.001506,-0.128938,0.757532,-0.035707,-2.497898,-0.067498,2.340688,-1.570591,-0.199686,-1.412704,1.565921,0.483118,-0.383353,1.681850,-0.790064,0.094022
0.434000,0.005735,-1.290725,0.289423,0.999649,-0.015283,-0.015132,-0.015491,-0.070406,0.160511,-0.001296,-0.120998,0.377649,0.281867,-0.002325,-0.840152,0.086838,-0.127454,0.891968,-0.095968,0.107374,-0.718524,-0.002697,-0.128532,0.756442,-0.036265,0.153068,-0.618681,4.838557,0.139611,0.274584,-2.378276,0.008129,0.574851,-0.595312,0.203203,-0.544835,-0.279117
0.436000,0.005614,-1.290515,0.289466,0.999637,-0.016455,-0.014886,-0.015253,-0.060293,0.105207,0.021598,-1.172538,0.224498,0.259610,0.000276,-0.839086,0.082268,-0.125105,0.892878,-0.100233,0.105026,-0.717822,-0.003879,-0.130374,0.756188,-0.037696,1.300765,0.533033,-2.284866,1.174246,0.455039,-2.132505,-1.174082,0.350648,-0.590928,-0.921214,-0.127033,-0.715530
0.438000,0.005509,-1.290243,0.289537,0.999633,-0.017076,-0.014759,-0.014986,-0.052296,0.135750,0.035130,-0.618515,0.112745,0.278023,0.000709,-0.836416,0.067448,-0.124082,0.893183,-0.102822,0.103825,-0.717907,-0.004245,-0.131039,0.756001,-0.038872,0.216299,1.334880,-7.410233,0.511601,0.152456,-1.294478,-0.600548,-0.042289,-0.183401,-0.332412,-0.093198,-0.587697
0.440000,0.005418,-1.289799,0.289587,0.999659,-0.015827,-0.014659,-0.014692,-0.045611,0.222238,0.025255,1.251519,0.114157,0.277338,-0.003048,-0.835179,0.059614,-0.125792,0.890734,-0.090660,0.106934,-0.718941,-0.003140,-0.127716,0.755172,-0.038833,-1.878746,0.618587,-3.916919,-0.854944,-1.224415,6.080781,1.554623,-0.516904,0.552544,1.661228,-0.414835,0.019485
0.442000,0.005322,-1.289294,0.289573,0.999696,-0.013892,-0.014398,-0.014410,-0.048214,0.252183,-0.006906,1.935345,0.285339,0.258164,-0.007792,-0.835849,0.063229,-0.128973,0.889111,-0.082945,0.111499,-0.719529,-0.002088,-0.122907,0.753689,-0.038122,-2.371953,-0.335086,1.807820,-1.590677,-0.811604,3.857358,2.282414,-0.293982,0.526356,2.404958,-0.741498,0.355568
0.444000,0.005217,-1.288865,0.289503,0.999721,-0.012759,-0.013970,-0.014174,-0.052465,0.214524,-0.035198,1.130748,0.441719,0.226446,-0.010714,-0.836271,0.067598,-0.130983,0.890407,-0.089581,0.114364,-0.719102,-0.002158,-0.119746,0.752187,-0.037812,-1.460942,-0.211064,2.184124,-1.004829,0.647884,-3.317799,1.432601,0.213341,-0.034931,1.580211,-0.750830,0.154922
0.446000,0.005117,-1.288557,0.289440,0.999728,-0.012916,-0.013472,-0.013979,-0.050099,0.154210,-0.031282,-0.161584,0.493063,0.203807,-0.011263,-0.834584,0.062251,-0.129713,0.892610,-0.099412,0.113696,-0.717638,-0.010366,-0.119275,0.751042,-0.038192,-0.274485,0.843530,-2.673346,0.634930,1.101369,-4.915348,-0.333949,0.732080,-4.104175,0.235723,-0.572541,-0.190223
0.448000,0.005043,-1.288255,0.289380,0.999733,-0.013086,-0.013134,-0.013773,-0.036905,0.150937,-0.030091,-0.171618,0.332784,0.211851,-0.011987,-0.831960,0.050568,-0.128773,0.894425,-0.107148,0.112669,-0.717814,-0.014757,-0.118872,0.750579,-0.039133,-0.361938,1.312127,-5.841651,0.470193,0.907810,-3.868044,-0.513697,-0.088234,-2.195669,0.201583,-0.231490,-0.470116
0.450000,0.004996,-1.287884,0.289300,0.999750,-0.012238,-0.012925,-0.013547,-0.023262,0.185593,-0.040124,0.847443,0.217348,0.217972,-0.014318,-0.830803,0.044901,-0.128243,0.892984,-0.097097,0.113238,-0.720242,-0.012930,-0.116370,0.750368,-0.039962,-1.165350,0.578438,-2.833405,0.265114,-0.720789,5.025112,0.284351,-1.214048,0.913707,1.250805,-0.105779,-0.414982
0.452000,0.004956,-1.287440,0.289167,0.999775,-0.010555,-0.012688,-0.013319,-0.020304,0.222025,-0.066305,1.682610,0.257437,0.209446,-0.017912,-0.831475,0.048726,-0.130050,0.891688,-0.089239,0.115690,-0.723108,-0.009670,-0.112123,0.749854,-0.040340,-1.796933,-0.335941,1.912870,-0.903727,-0.647931,3.929120,1.226201,-1.432823,1.630059,2.123510,-0.256944,-0.188514
0.454000,0.004905,-1.287032,0.288993,0.999794,-0.009316,-0.012350,-0.013130,-0.025311,0.203955,-0.087075,1.237494,0.353386,0.177086,-0.020673,-0.831648,0.051320,-0.131429,0.892140,-0.090551,0.117592,-0.724935,-0.007333,-0.108772,0.749299,-0.040933,-1.380679,-0.086442,1.296852,-0.689264,0.226066,-0.655808,0.950847,-0.913307,1.168393,1.675320,-0.277457,-0.296857
0.456000,0.004841,-1.286710,0.288811,0.999803,-0.009085,-0.011932,-0.012998,-0.032146,0.160965,-0.091224,0.227017,0.419677,0.133397,-0.021743,-0.829842,0.045316,-0.130818,0.893948,-0.098723,0.117709,-0.725526,-0.006439,-0.107478,0.748932,-0.042054,-0.535200,0.902837,-3.001936,0.305153,0.904001,-4.086006,0.058634,-0.295487,0.446997,0.646920,-0.183565,-0.560562
0.458000,0.004770,-1.286400,0.288643,0.999810,-0.009032,-0.011495,-0.012913,-0.035582,0.154869,-0.083749,0.048022,0.437039,0.088222,-0.022500,-0.827260,0.036247,-0.130188,0.895651,-0.105975,0.117744,-0.725408,-0.006291,-0.106488,0.748548,-0.043142,-0.378548,1.290912,-4.534733,0.315016,0.851503,-3.625932,0.017550,0.058859,0.073938,0.495445,-0.191902,-0.543881
0.460000,0.004690,-1.286052,0.288485,0.999820,-0.008532,-0.011032,-0.012867,-0.039583,0.174242,-0.079048,0.495247,0.468721,0.044310,-0.023681,-0.825592,0.032519,-0.130698,0.896754,-0.111770,0.118953,-0.724883,-0.006359,-0.104495,0.747866,-0.043740,-0.590140,0.834273,-1.864118,-0.254846,0.551484,-2.897811,0.604176,0.262388,-0.034014,0.996032,-0.340719,-0.298884
0.462000,0.004612,-1.285671,0.288342,0.999833,-0.007504,-0.010576,-0.012865,-0.039356,0.190482,-0.071668,1.021781,0.468906,-0.004663,-0.025370,-0.825022,0.034308,-0.130424,0.894440,-0.099798,0.121430,-0.724194,-0.006401,-0.101374,0.746976,-0.043849,-0.844527,0.284742,0.894470,0.137123,-1.157092,5.985958,1.238613,0.344514,-0.020980,1.560478,-0.445382,-0.054402
0.464000,0.004534,-1.285286,0.288184,0.999845,-0.006513,-0.010074,-0.012880,-0.038830,0.192494,-0.079127,0.984135,0.515648,-0.021716,-0.027131,-0.824404,0.035567,-0.130755,0.892787,-0.091149,0.123973,-0.723155,-0.006744,-0.098295,0.746005,-0.043913,-0.880783,0.309167,0.629647,-0.165447,-0.826552,4.324804,1.271767,0.519616,-0.171709,1.539884,-0.485394,-0.032338
0.466000,0.004458,-1.284945,0.287988,0.999853,-0.006159,-0.009487,-0.012902,-0.038053,0.170586,-0.097543,0.346392,0.591412,-0.021716,-0.028136,-0.822803,0.031381,-0.130919,0.893633,-0.094819,0.125286,-0.721587,-0.007721,-0.096524,0.745159,-0.044410,-0.502467,0.800268,-2.092706,-0.081942,0.423032,-1.835027,0.656590,0.784065,-0.488106,0.885493,-0.422920,-0.248559
0.468000,0.004391,-1.284635,0.287760,0.999858,-0.006216,-0.008867,-0.012929,-0.033391,0.154792,-0.113982,-0.065524,0.619326,-0.022595,-0.028541,-0.820809,0.024270,-0.130819,0.895835,-0.104646,0.125813,-0.719816,-0.008957,-0.095611,0.744544,-0.045325,-0.202156,0.997240,-3.555745,0.049569,1.101108,-4.913557,0.263429,0.885159,-0.618199,0.456232,-0.307344,-0.457460
0.470000,0.004340,-1.284294,0.287514,0.999864,-0.005893,-0.008283,-0.012952,-0.025494,0.170391,-0.123377,0.315225,0.587775,-0.021923,-0.029548,-0.819760,0.020578,-0.131682,0.897762,-0.113030,0.127189,-0.718388,-0.009696,-0.093924,0.744002,-0.046174,-0.503699,0.524394,-1.846181,-0.431385,0.963582,-4.192109,0.688076,0.714301,-0.369592,0.843697,-0.271260,-0.424269
0.472000,0.004307,-1.283903,0.287263,0.999873,-0.004922,-0.007789,-0.012965,-0.016787,0.195921,-0.125551,0.964212,0.506914,-0.017974,-0.031599,-0.819923,0.021522,-0.133942,0.899173,-0.119594,0.129954,-0.717587,-0.009615,-0.090923,0.743534,-0.046815,-1.025725,-0.081426,0.472149,-1.129768,0.705361,-3.281945,1.382484,0.400550,0.040521,1.500287,-0.234075,-0.320309
0.474000,0.004288,-1.283502,0.287032,0.999881,-0.003726,-0.007431,-0.012981,-0.009069,0.200230,-0.115294,1.191214,0.373531,-0.023615,-0.034219,-0.820305,0.022624,-0.136662,0.900130,-0.124416,0.133207,-0.717317,-0.009020,-0.087502,0.743402,-0.047554,-1.309729,-0.191067,0.551121,-1.360378,0.478498,-2.410693,1.626085,0.134793,0.297469,1.710651,-0.065849,-0.369605
0.476000,0.004270,-1.283052,0.286849,0.999888,-0.002018,-0.007160,-0.013003,-0.009233,0.225223,-0.091301,1.703936,0.293511,-0.034172,-0.038026,-0.820773,0.023865,-0.140440,0.900367,-0.127385,0.137613,-0.717245,-0.008203,-0.082997,0.743136,-0.047794,-1.903443,-0.234099,0.620572,-1.888992,0.118690,-1.484593,2.203391,0.035861,0.408566,2.252511,-0.132725,-0.120021
0.478000,0.004253,-1.282652,0.286727,0.999890,-0.000663,-0.006977,-0.013081,-0.008695,0.199802,-0.061119,1.352819,0.200749,-0.086614,-0.041068,-0.820907,0.024508,-0.141633,0.897643,-0.112897,0.141325,-0.717002,-0.007825,-0.079229,0.743139,-0.048125,-1.520855,-0.067037,0.321567,-0.596087,-1.362082,7.243872,1.855637,0.121906,0.188908,1.883960,0.001500,-0.165369
0.480000,0.004230,-1.282381,0.286598,0.999890,-0.000656,-0.006738,-0.013199,-0.011381,0.135567,-0.064619,0.002303,0.238897,-0.118260,-0.041350,-0.820491,0.024533,-0.140664,0.897383,-0.108533,0.142218,-0.716024,-0.008572,-0.078280,0.743523,-0.049247,-0.141440,0.208249,0.012355,0.484060,-0.130058,2.181801,0.446718,0.488585,-0.373286,0.474399,0.191679,-0.561163
0.482000,0.004203,-1.282176,0.286454,0.999889,-0.001506,-0.006432,-0.013320,-0.013581,0.102442,-0.072063,-0.854303,0.295285,-0.115255,-0.040002,-0.819753,0.024295,-0.139606,0.900516,-0.119768,0.141341,-0.714530,-0.010074,-0.079101,0.744020,-0.050808,0.674355,0.368720,-0.118875,0.529404,1.566753,-5.617152,-0.438323,0.747243,-0.751286,-0.410191,0.248791,-0.780615
0.484000,0.004201,-1.281917,0.286297,0.999890,-0.001938,-0.006212,-0.013361,-0.000615,0.129552,-0.078534,-0.435095,0.213670,-0.037241,-0.039776,-0.819340,0.024179,-0.141165,0.905794,-0.138622,0.140954,-0.715229,-0.006658,-0.079128,0.744583,-0.052289,0.112861,0.206887,-0.058087,-0.779664,2.638754,-9.427283,-0.193844,-0.349422,1.708090,-0.013583,0.281104,-0.740494
0.486000,0.004226,-1.281538,0.286190,0.999891,-0.001163,-0.006205,-0.013360,0.012288,0.189572,-0.053537,0.775071,0.017633,-0.003625,-0.042193,-0.819330,0.024052,-0.144743,0.908597,-0.141880,0.143700,-0.717361,-0.002295,-0.076652,0.745176,-0.053177,-1.208317,0.004676,-0.063417,-1.789075,1.401461,-1.628910,1.373030,-1.066379,2.181806,1.237725,0.296638,-0.443984
0.488000,0.004279,-1.281098,0.286087,0.999892,0.000275,-0.006348,-0.013282,0.026666,0.219793,-0.051475,1.440172,-0.124218,0.068471,-0.046141,-0.819716,0.023954,-0.149929,0.911447,-0.141812,0.147476,-0.722302,0.009484,-0.072921,0.745893,-0.053876,-1.974109,-0.192593,-0.048961,-2.592978,1.424999,0.034160,1.887834,-2.470471,5.889238,1.865808,0.358680,-0.349500
0.490000,0.004321,-1.280735,0.286010,0.999891,0.000893,-0.006412,-0.013237,0.020900,0.181371,-0.038615,0.618637,-0.055636,0.040704,-0.048375,-0.819631,0.023405,-0.152922,0.914982,-0.144388,0.149640,-0.725678,0.012734,-0.070864,0.746554,-0.054713,-1.116910,0.042168,-0.274826,-1.496531,1.767709,-1.288311,1.082295,-1.687821,1.625129,1.028536,0.330382,-0.418674
0.492000,0.004363,-1.280499,0.285892,0.999893,0.000262,-0.006374,-0.013152,0.020981,0.118244,-0.058592,-0.630855,0.029637,0.089698,-0.048092,-0.819227,0.022491,-0.154210,0.922407,-0.165265,0.147673,-0.730450,0.020791,-0.071539,0.747374,-0.056232,0.141318,0.202108,-0.457007,-0.643735,3.712502,-10.438331,-0.983549,-2.385775,4.028519,-0.337777,0.409757,-0.759251
0.494000,0.004402,-1.280272,0.285800,0.999894,-0.000399,-0.006362,-0.013077,0.019505,0.113466,-0.046360,-0.660366,0.004018,0.078467,-0.047734,-0.818732,0.021407,-0.154313,0.928939,-0.180808,0.145921,-0.735049,0.026966,-0.072272,0.748174,-0.057654,0.179098,0.247277,-0.541866,-0.051602,3.265749,-7.771415,-0.876173,-2.299862,3.087447,-0.366239,0.400407,-0.710857
0.496000,0.004463,-1.279971,0.285692,0.999895,-0.000194,-0.006487,-0.012930,0.030225,0.150256,-0.053997,0.207618,-0.122252,0.145949,-0.049283,-0.818782,0.020669,-0.156057,0.935481,-0.193900,0.145718,-0.742759,0.044581,-0.071323,0.749037,-0.058849,-0.774489,-0.024671,-0.369211,-0.871975,3.271056,-6.546225,-0.101158,-3.854961,8.807262,0.474365,0.431371,-0.597910
0.498000,0.004516,-1.279608,0.285620,0.999896,0.000609,-0.006638,-0.012824,0.026488,0.181573,-0.035623,0.805571,-0.141251,0.101108,-0.052045,-0.818915,0.020164,-0.157809,0.940480,-0.198123,0.148288,-0.748978,0.055052,-0.069015,0.749654,-0.059510,-1.380969,-0.066823,-0.252535,-0.876223,2.499482,-2.111511,1.284587,-3.109195,5.235952,1.154202,0.308366,-0.330222
0.500000,0.004568,-1.279248,0.285515,0.999896,0.001364,-0.006747,-0.012682,0.026451,0.179943,-0.052501,0.757031,-0.099107,0.136499,-0.054784,-0.819195,0.019982,-0.160210,0.948005,-0.213890,0.150471,-0.756277,0.070259,-0.066862,0.750163,-0.060202,-1.369394,-0.139899,-0.090586,-1.200498,3.762767,-7.883281,1.091898,-3.649619,7.603104,1.076122,0.254416,-0.345943
0.502000,0.004604,-1.278934,0.285425,0.999896,0.001651,-0.006771,-0.012587,0.017725,0.157154,-0.045269,0.287724,-0.020261,0.093486,-0.056482,-0.819177,0.019705,-0.160850,0.955939,-0.231141,0.152175,-0.761947,0.079200,-0.065620,0.750527,-0.060895,-0.849010,0.009020,-0.138797,-0.319677,3.966768,-8.625453,0.851707,-2.835311,4.470580,0.621230,0.182345,-0.346542
0.504000,0.004645,-1.278684,0.285307,0.999898,0.001444,-0.006800,-0.012449,0.020758,0.125101,-0.058742,-0.205724,-0.031001,0.139020,-0.057165,-0.819128,0.019227,-0.160386,0.965547,-0.254624,0.151580,-0.769771,0.097164,-0.065547,0.751115,-0.062028,-0.341911,0.024535,-0.238974,0.231626,4.803833,-11.741567,-0.297479,-3.911888,8.982183,0.036446,0.293605,-0.566495
0.506000,0.004685,-1.278430,0.285225,0.999899,0.001356,-0.006872,-0.012343,0.019833,0.126761,-0.041115,-0.086377,-0.072812,0.107072,-0.058019,-0.818997,0.018561,-0.158582,0.973606,-0.267830,0.151799,-0.777068,0.111876,-0.065188,0.751729,-0.063026,-0.426645,0.065391,-0.332831,0.901941,4.029446,-6.603096,0.109469,-3.648134,7.356094,0.179716,0.306992,-0.499318
0.508000,0.004735,-1.278150,0.285132,0.999900,0.001587,-0.006996,-0.012191,0.024937,0.140083,-0.046508,0.233724,-0.121327,0.150563,-0.059597,-0.819106,0.018034,-0.157644,0.982489,-0.282741,0.152293,-0.786126,0.132686,-0.064235,0.752378,-0.063979,-0.788946,-0.054562,-0.263834,0.469380,4.441946,-7.455382,0.247134,-4.529355,10.404673,0.476234,0.324589,-0.476217
0.510000,0.004775,-1.277840,0.285064,0.999900,0.002022,-0.007090,-0.012064,0.020251,0.155337,-0.033830,0.436518,-0.088853,0.123685,-0.061595,-0.819164,0.017620,-0.156928,0.991309,-0.296401,0.154165,-0.793804,0.146287,-0.062761,0.752787,-0.064596,-0.999182,-0.028702,-0.206948,0.357927,4.409734,-6.830126,0.936103,-3.839080,6.800480,0.737147,0.204553,-0.308393
0.512000,0.004816,-1.277534,0.284978,0.999901,0.002395,-0.007164,-0.011889,0.020208,0.152604,-0.042983,0.375987,-0.068188,0.173434,-0.063545,-0.819301,0.017310,-0.156929,1.001855,-0.318392,0.155138,-0.802794,0.164662,-0.061488,0.753120,-0.065244,-0.974944,-0.068435,-0.154714,-0.000503,5.273203,-10.995376,0.486335,-4.494684,9.187443,0.636574,0.166456,-0.323921
0.514000,0.004848,-1.277236,0.284917,0.999901,0.002717,-0.007223,-0.011725,0.016028,0.149339,-0.030841,0.323901,-0.055453,0.161840,-0.065354,-0.819309,0.016884,-0.156169,1.011843,-0.337208,0.156132,-0.811249,0.179980,-0.060298,0.753348,-0.065757,-0.904810,-0.004086,-0.213009,0.379837,4.993654,-9.408216,0.496945,-4.227799,7.659307,0.594709,0.114027,-0.256841
0.516000,0.004880,-1.276976,0.284855,0.999903,0.002773,-0.007297,-0.011529,0.015943,0.129791,-0.030905,0.058229,-0.072429,0.195493,-0.066604,-0.819251,0.016226,-0.154392,1.021893,-0.356076,0.155436,-0.821079,0.200659,-0.059759,0.753673,-0.066455,-0.624988,0.028978,-0.328881,0.888656,5.025382,-9.433971,-0.347901,-4.914621,10.339627,0.269656,0.162359,-0.349041
0.518000,0.004902,-1.276718,0.284822,0.999904,0.002823,-0.007363,-0.011355,0.011238,0.128971,-0.016468,0.051915,-0.065340,0.173146,-0.067795,-0.819058,0.015448,-0.151713,1.030919,-0.369958,0.154995,-0.830111,0.217364,-0.059184,0.753905,-0.067005,-0.595203,0.096358,-0.389054,1.339349,4.513017,-6.940930,-0.220705,-4.516354,8.352155,0.287215,0.116463,-0.274642
0.520000,0.004918,-1.276467,0.284788,0.999906,0.002823,-0.007416,-0.011161,0.008023,0.125638,-0.016926,0.001418,-0.051692,0.194676,-0.068903,-0.818858,0.014684,-0.148977,1.040176,-0.386462,0.153873,-0.839654,0.236253,-0.058744,0.754070,-0.067543,-0.553975,0.100149,-0.382023,1.368222,4.628155,-8.251861,-0.560781,-4.771547,9.444791,0.220179,0.082388,-0.269186
0.522000,0.004924,-1.276183,0.284768,0.999907,0.003067,-0.007449,-0.010975,0.002659,0.141875,-0.009914,0.245819,-0.030644,0.184563,-0.070533,-0.818675,0.014085,-0.146859,1.049193,-0.403397,0.153714,-0.848419,0.251911,-0.057730,0.754039,-0.067820,-0.815128,0.091342,-0.299552,1.058847,4.508487,-8.467370,-0.079499,-4.382250,7.828623,0.507194,-0.015427,-0.138445
0.524000,0.004923,-1.275901,0.284747,0.999908,0.003331,-0.007482,-0.010772,-0.000347,0.141015,-0.010440,0.265714,-0.029536,0.200797,-0.072211,-0.818519,0.013526,-0.144640,1.058042,-0.421384,0.153015,-0.857678,0.270401,-0.056701,0.753973,-0.068088,-0.838928,0.078209,-0.279333,1.109475,4.424825,-8.993567,-0.349673,-4.629361,9.245419,0.514128,-0.033213,-0.134095
0.526000,0.004915,-1.275610,0.284741,0.999909,0.003687,-0.007518,-0.010585,-0.003921,0.145779,-0.003467,0.357607,-0.030657,0.184181,-0.074048,-0.818336,0.012982,-0.142162,1.066197,-0.436883,0.152645,-0.866422,0.287293,-0.055441,0.753866,-0.068268,-0.918679,0.091513,-0.272439,1.238843,4.077305,-7.749685,-0.185017,-4.372386,8.445728,0.630031,-0.053633,-0.089900
0.528000,0.004900,-1.275364,0.284740,0.999911,0.003670,-0.007535,-0.010412,-0.007728,0.123015,-0.000118,-0.015265,-0.017359,0.173923,-0.075046,-0.817979,0.012224,-0.137918,1.073610,-0.450313,0.150788,-0.875121,0.304844,-0.054969,0.753842,-0.068643,-0.499048,0.178524,-0.378726,2.121987,3.706595,-6.714796,-0.928449,-4.349504,8.775444,0.236378,-0.011704,-0.187796
0.530000,0.004878,-1.275114,0.284747,0.999912,0.003656,-0.007542,-0.010254,-0.010969,0.124988,0.003592,-0.012348,-0.006226,0.157229,-0.076031,-0.817581,0.011487,-0.133549,1.080743,-0.463574,0.149016,-0.883230,0.320407,-0.054441,0.753797,-0.069000,-0.492233,0.198888,-0.368749,2.184610,3.566215,-6.630646,-0.885681,-4.054439,7.781512,0.263837,-0.022724,-0.178056
0.532000,0.004850,-1.274882,0.284758,0.999914,0.003489,-0.007534,-0.010107,-0.014048,0.115881,0.005405,-0.166095,0.007182,0.149142,-0.076664,-0.817110,0.010697,-0.128277,1.087265,-0.475947,0.146457,-0.891180,0.335902,-0.054222,0.753770,-0.069431,-0.316621,0.235507,-0.394613,2.636225,3.261068,-6.186666,-1.279696,-3.974925,7.747461,0.109530,-0.013582,-0.215824
0.534000,0.004820,-1.274609,0.284769,0.999915,0.003665,-0.007541,-0.009957,-0.014637,0.136335,0.005524,0.177207,-0.005272,0.148006,-0.078037,-0.816783,0.010118,-0.124173,1.093737,-0.489354,0.144762,-0.898972,0.351058,-0.053247,0.753691,-0.069721,-0.686506,0.163719,-0.289945,2.051715,3.236318,-6.703253,-0.847289,-3.896084,7.577949,0.487300,-0.039279,-0.145122
0.536000,0.004787,-1.274349,0.284789,0.999916,0.003774,-0.007545,-0.009823,-0.016660,0.130083,0.009707,0.110057,-0.002524,0.133370,-0.079220,-0.816407,0.009500,-0.118925,1.099032,-0.498896,0.142514,-0.906550,0.365786,-0.052399,0.753631,-0.070030,-0.591681,0.187562,-0.308954,2.623899,2.647304,-4.771026,-1.124122,-3.788969,7.364258,0.424028,-0.029808,-0.154374
0.538000,0.004752,-1.274072,0.284808,0.999916,0.004016,-0.007551,-0.009693,-0.017571,0.138386,0.009804,0.242597,-0.002853,0.128328,-0.080682,-0.816090,0.008988,-0.114100,1.104132,-0.508957,0.140418,-0.913922,0.380085,-0.051248,0.753552,-0.070288,-0.730636,0.158854,-0.255594,2.412854,2.550052,-5.030720,-1.048006,-3.685711,7.149422,0.575745,-0.039788,-0.129107
0.540000,0.004708,-1.273846,0.284839,0.999918,0.003820,-0.007514,-0.009592,-0.021876,0.112970,0.015259,-0.195730,0.035513,0.102140,-0.081150,-0.815545,0.008280,-0.106925,1.107879,-0.515208,0.136782,-0.920631,0.392081,-0.050991,0.753494,-0.070685,-0.234221,0.272373,-0.354003,3.587380,1.873358,-3.125534,-1.817804,-3.354742,5.997805,0.128295,-0.028813,-0.198111
0.542000,0.004663,-1.273600,0.284864,0.999920,0.003772,-0.007475,-0.009486,-0.022771,0.123014,0.012564,-0.046797,0.039562,0.106274,-0.081955,-0.815084,0.007720,-0.100567,1.111688,-0.523996,0.133194,-0.927259,0.404404,-0.050406,0.753395,-0.071026,-0.402354,0.230260,-0.280343,3.179074,1.904510,-4.393732,-1.794211,-3.314103,6.161666,0.292442,-0.049447,-0.170778
0.544000,0.004610,-1.273373,0.284901,0.999922,0.003593,-0.007410,-0.009401,-0.026131,0.113464,0.018463,-0.178793,0.063522,0.085809,-0.082428,-0.814524,0.007118,-0.092665,1.113936,-0.528167,0.128908,-0.933298,0.414828,-0.050076,0.753242,-0.071327,-0.236718,0.280224,-0.300812,3.950788,1.123940,-2.085642,-2.142945,-3.019502,5.211825,0.165108,-0.076866,-0.150411
0.546000,0.004559,-1.273100,0.284931,0.999922,0.003818,-0.007364,-0.009303,-0.025532,0.136565,0.015237,0.224739,0.048507,0.096507,-0.083788,-0.814164,0.006780,-0.086379,1.116224,-0.534556,0.125321,-0.939430,0.426472,-0.048892,0.753016,-0.071458,-0.679732,0.180122,-0.169134,3.143351,1.144080,-3.194582,-1.793778,-3.065895,5.822388,0.592053,-0.112740,-0.065426
0.548000,0.004501,-1.272849,0.284977,0.999923,0.003892,-0.007289,-0.009234,-0.028921,0.125607,0.022911,0.073784,0.075299,0.068258,-0.084760,-0.813677,0.006381,-0.078276,1.116709,-0.534946,0.121103,-0.944736,0.435266,-0.047995,0.752730,-0.071531,-0.486384,0.243191,-0.199627,4.051177,0.242710,-0.194805,-2.108971,-2.653038,4.396829,0.448252,-0.143110,-0.036756
0.550000,0.004443,-1.272577,0.285015,0.999924,0.004120,-0.007214,-0.009156,-0.029210,0.135879,0.018886,0.227711,0.077995,0.076063,-0.086086,-0.813286,0.006131,-0.071200,1.117380,-0.538462,0.116852,-0.949985,0.444907,-0.046772,0.752403,-0.071551,-0.662585,0.195600,-0.124633,3.538014,0.335488,-1.758204,-2.125119,-2.624567,4.820494,0.611509,-0.163381,-0.009962
