QPZ-918/AT_DOG_AMP/temp/gmr_data_csv/L0.5.csv
time_sec,root_pos_x,root_pos_y,root_pos_z,root_quat_w,root_quat_x,root_quat_y,root_quat_z,base_lin_vel_x,base_lin_vel_y,base_lin_vel_z,base_ang_vel_x,base_ang_vel_y,base_ang_vel_z,FR_hip_joint,FR_thigh_joint,FR_calf_joint,FL_hip_joint,FL_thigh_joint,FL_calf_joint,RR_hip_joint,RR_thigh_joint,RR_calf_joint,RL_hip_joint,RL_thigh_joint,RL_calf_joint,FR_hip_joint_vel,FR_thigh_joint_vel,FR_calf_joint_vel,FL_hip_joint_vel,FL_thigh_joint_vel,FL_calf_joint_vel,RR_hip_joint_vel,RR_thigh_joint_vel,RR_calf_joint_vel,RL_hip_joint_vel,RL_thigh_joint_vel,RL_calf_joint_vel
0.002000,-0.173121,1.323189,0.298137,0.991064,-0.073512,-0.013524,-0.110476,-0.002360,0.641658,-0.061042,-0.785114,-0.642069,0.141769,-0.033726,-1.049979,0.494699,-0.136053,0.875825,-0.091650,0.108902,-0.587368,-0.237564,-0.100342,1.005016,-0.449579,5.995233,-1.876689,2.007385,-1.536911,-0.143873,1.412596,1.215061,0.407481,-3.131751,-7.074060,-3.690159,9.149495
0.004000,-0.173122,1.324458,0.297953,0.991008,-0.074448,-0.014078,-0.110281,-0.000511,0.634561,-0.091835,-0.868213,-0.667638,0.159680,-0.021301,-1.053618,0.500640,-0.139330,0.876427,-0.092603,0.110386,-0.588520,-0.236655,-0.113906,0.998210,-0.435914,6.212562,-1.819505,2.970494,-1.638418,0.300526,-0.476411,0.741630,-0.576263,0.454686,-6.782444,-3.403212,6.832412
0.006000,-0.173142,1.325709,0.297766,0.990932,-0.075667,-0.014557,-0.110076,-0.009916,0.625288,-0.093289,-1.157452,-0.625264,0.176117,-0.008842,-1.055454,0.500828,-0.141988,0.877213,-0.094715,0.111087,-0.589517,-0.235674,-0.128108,0.990145,-0.418551,6.229753,-0.918206,0.094140,-1.329111,0.393385,-1.056264,0.350689,-0.498306,0.490250,-7.100982,-4.032136,8.681517
0.008000,-0.173185,1.326953,0.297567,0.990834,-0.077053,-0.014957,-0.109945,-0.021274,0.622019,-0.099523,-1.335088,-0.560808,0.108140,0.004469,-1.056643,0.503301,-0.144080,0.878051,-0.096956,0.111597,-0.589640,-0.235869,-0.141174,0.982416,-0.404813,6.655502,-0.594417,1.236458,-1.046170,0.419068,-1.120359,0.255008,-0.061466,-0.097622,-6.532791,-3.864706,6.869032
0.010000,-0.173252,1.328252,0.297400,0.990760,-0.078094,-0.015241,-0.109835,-0.033824,0.649532,-0.083507,-1.004423,-0.404922,0.095037,0.015841,-1.055594,0.500111,-0.146723,0.878413,-0.098896,0.112885,-0.588609,-0.237500,-0.152693,0.972664,-0.383745,5.685674,0.524420,-1.594986,-1.321394,0.181020,-0.969735,0.644041,0.515547,-0.815196,-5.759620,-4.876091,10.533984
0.012000,-0.173340,1.329569,0.297235,0.990683,-0.079057,-0.015456,-0.109809,-0.043990,0.658669,-0.082439,-0.936059,-0.322304,0.015615,0.027723,-1.054253,0.500669,-0.149302,0.878587,-0.100680,0.114495,-0.586671,-0.240265,-0.162162,0.963259,-0.365925,5.940957,0.670507,0.279251,-1.289147,0.086686,-0.892272,0.804814,0.968719,-1.382706,-4.734418,-4.702561,8.910009
0.014000,-0.173442,1.330933,0.297103,0.990628,-0.079736,-0.015628,-0.109789,-0.051086,0.681762,-0.065979,-0.657782,-0.247655,0.010090,0.037855,-1.050921,0.494366,-0.152351,0.878299,-0.101934,0.116735,-0.584069,-0.243923,-0.170185,0.952452,-0.343025,5.066397,1.666268,-3.151702,-1.524766,-0.143958,-0.627191,1.119943,1.301020,-1.829186,-4.011565,-5.403203,11.450356
0.016000,-0.173554,1.332263,0.296965,0.990539,-0.080740,-0.015816,-0.109835,-0.055870,0.665313,-0.069233,-0.981429,-0.293502,-0.054392,0.049948,-1.047914,0.491550,-0.154565,0.878105,-0.103061,0.118398,-0.581266,-0.248001,-0.177713,0.942705,-0.325636,6.046524,1.503409,-1.407815,-1.107219,-0.097146,-0.563242,0.831845,1.401621,-2.038792,-3.763888,-4.873407,8.694560
0.018000,-0.173666,1.333612,0.296850,0.990459,-0.081655,-0.016004,-0.109849,-0.056185,0.674584,-0.057434,-0.892302,-0.287212,-0.023134,0.060658,-1.043226,0.481234,-0.156939,0.877652,-0.103760,0.119965,-0.578297,-0.256616,-0.184914,0.931676,-0.303308,5.354863,2.344092,-5.157935,-1.186973,-0.226157,-0.349624,0.783268,1.484322,-4.307733,-3.600643,-5.514487,11.163871
0.020000,-0.173763,1.334944,0.296696,0.990382,-0.082538,-0.016293,-0.109839,-0.048493,0.665939,-0.077169,-0.849051,-0.385065,-0.008541,0.072199,-1.039434,0.475620,-0.159327,0.877305,-0.104205,0.120982,-0.577558,-0.260014,-0.191674,0.921257,-0.284201,5.770265,1.895597,-2.807053,-1.193736,-0.173865,-0.222564,0.508718,0.369485,-1.698513,-3.380052,-5.209823,9.553356
0.022000,-0.173842,1.336344,0.296525,0.990374,-0.082708,-0.016666,-0.109733,-0.039058,0.699787,-0.085139,-0.127029,-0.396803,0.075738,0.080208,-1.034184,0.463868,-0.163231,0.876584,-0.104024,0.122869,-0.578788,-0.258742,-0.196925,0.909284,-0.258911,4.004838,2.625267,-5.876206,-1.952256,-0.360150,0.090783,0.943428,-0.614732,0.635841,-2.625251,-5.986217,12.644886
0.024000,-0.173923,1.337717,0.296317,0.990343,-0.083072,-0.017073,-0.109678,-0.040612,0.686587,-0.104078,-0.317101,-0.448445,0.024193,0.089235,-1.029385,0.456879,-0.166636,0.876122,-0.104001,0.124675,-0.579917,-0.257652,-0.201935,0.898300,-0.238248,4.513184,2.399181,-3.494709,-1.702162,-0.231391,0.011293,0.902701,-0.564709,0.544813,-2.505087,-5.492401,10.331703
0.026000,-0.174017,1.339113,0.296113,0.990314,-0.083384,-0.017445,-0.109636,-0.047294,0.697879,-0.102169,-0.269590,-0.406637,0.012741,0.096109,-1.022443,0.442711,-0.170121,0.875571,-0.103997,0.126863,-0.580119,-0.257780,-0.206455,0.886489,-0.214432,3.437335,3.471450,-7.083781,-1.742863,-0.275205,0.002135,1.094480,-0.100909,-0.064090,-2.260021,-5.905318,11.907854
0.028000,-0.174135,1.340452,0.295892,0.990227,-0.084285,-0.017738,-0.109693,-0.058674,0.669841,-0.110689,-0.869212,-0.385527,-0.074603,0.104778,-1.015616,0.432687,-0.172265,0.875421,-0.104651,0.128117,-0.579250,-0.259372,-0.211570,0.875595,-0.194712,4.334308,3.413256,-5.012219,-1.071923,-0.074978,-0.326866,0.626768,0.434565,-0.796021,-2.557355,-5.447039,9.860262
0.030000,-0.174264,1.341839,0.295674,0.990162,-0.084908,-0.017961,-0.109761,-0.064567,0.693434,-0.108908,-0.598558,-0.284131,-0.082698,0.110576,-1.006893,0.416611,-0.174978,0.875063,-0.105343,0.130136,-0.577458,-0.262052,-0.215512,0.863556,-0.170258,2.899156,4.361424,-8.037836,-1.356168,-0.179048,-0.346324,1.009285,0.896038,-1.339751,-1.971235,-6.019632,12.226933
0.032000,-0.174401,1.343212,0.295428,0.990078,-0.085671,-0.018136,-0.109897,-0.068338,0.686118,-0.123054,-0.746396,-0.247787,-0.144855,0.116925,-0.998800,0.405556,-0.177323,0.874905,-0.106425,0.132057,-0.575064,-0.265445,-0.218933,0.852200,-0.148533,3.174286,4.046726,-5.527384,-1.172619,-0.078844,-0.540855,0.960833,1.196751,-1.696631,-1.710470,-5.677765,10.862409
0.034000,-0.174526,1.344645,0.295163,0.990030,-0.085991,-0.018334,-0.110049,-0.062534,0.716470,-0.132441,-0.301962,-0.218496,-0.167163,0.120299,-0.989597,0.389656,-0.180580,0.874586,-0.107295,0.135081,-0.572470,-0.268972,-0.219992,0.843508,-0.132430,1.687229,4.601590,-7.949914,-1.628612,-0.159893,-0.435007,1.511934,1.297099,-1.763394,-0.529558,-4.346150,8.051664
0.036000,-0.174650,1.346059,0.294880,0.989976,-0.086354,-0.018492,-0.110224,-0.062344,0.707363,-0.141162,-0.349541,-0.182458,-0.185370,0.124082,-0.981389,0.377786,-0.183691,0.874369,-0.108406,0.138017,-0.569705,-0.272646,-0.220173,0.837109,-0.121095,1.891090,4.103982,-5.935297,-1.555634,-0.108518,-0.555544,1.467939,1.382527,-1.837070,-0.090486,-3.199603,5.667108
0.038000,-0.174780,1.347501,0.294616,0.989962,-0.086376,-0.018584,-0.110316,-0.065065,0.721085,-0.132205,-0.014278,-0.085902,-0.100760,0.125491,-0.972399,0.360676,-0.187555,0.873826,-0.109419,0.141382,-0.567340,-0.275677,-0.218993,0.831777,-0.112689,0.704596,4.494728,-8.554720,-1.931618,-0.271191,-0.506369,1.682719,1.182727,-1.515220,0.590182,-2.665657,4.203211
0.040000,-0.174937,1.348879,0.294379,0.989930,-0.086720,-0.018507,-0.110345,-0.078176,0.688549,-0.118596,-0.352368,0.039696,-0.018635,0.128204,-0.964365,0.346912,-0.190754,0.873276,-0.110964,0.143441,-0.565498,-0.277445,-0.218167,0.827276,-0.106779,1.356779,4.017053,-6.881930,-1.599820,-0.275057,-0.772691,1.029307,0.920685,-0.884378,0.412946,-2.250501,2.954864
0.042000,-0.175128,1.350213,0.294203,0.989888,-0.087370,-0.018183,-0.110263,-0.095842,0.667366,-0.087860,-0.681020,0.241188,0.116513,0.130643,-0.955656,0.329865,-0.193432,0.872519,-0.113066,0.142974,-0.563820,-0.282875,-0.217780,0.822803,-0.102290,1.219432,4.354287,-8.523888,-1.339009,-0.378622,-1.050742,-0.233499,0.839355,-2.714775,0.193716,-2.236735,2.244410
0.044000,-0.175350,1.351518,0.294050,0.989867,-0.087956,-0.017705,-0.110058,-0.110567,0.652405,-0.076476,-0.630905,0.390216,0.253030,0.133187,-0.947889,0.316714,-0.196297,0.871509,-0.115475,0.141866,-0.563392,-0.283955,-0.217223,0.818255,-0.098834,1.271857,3.883569,-6.575273,-1.432183,-0.504975,-1.204534,-0.554141,0.213772,-0.540198,0.278136,-2.273932,1.728290
0.046000,-0.175593,1.352865,0.293921,0.989913,-0.087972,-0.017140,-0.109722,-0.121731,0.673512,-0.064724,-0.068768,0.529221,0.387528,0.133138,-0.939739,0.301354,-0.200411,0.869947,-0.117683,0.141923,-0.563376,-0.284005,-0.215386,0.813289,-0.095746,-0.024491,4.075322,-7.680019,-2.057026,-0.781142,-1.103973,0.028408,0.008155,-0.024800,0.918576,-2.482777,1.544065
0.048000,-0.175877,1.354190,0.293830,0.989970,-0.087980,-0.016421,-0.109313,-0.141818,0.662470,-0.045278,-0.074809,0.676221,0.474138,0.133071,-0.931950,0.287752,-0.204544,0.868082,-0.120095,0.142041,-0.562682,-0.284776,-0.213523,0.807993,-0.093047,-0.033481,3.894139,-6.800982,-2.066743,-0.932442,-1.206136,0.058987,0.346940,-0.385699,0.931844,-2.648434,1.349180
0.050000,-0.176201,1.355509,0.293802,0.990038,-0.087981,-0.015499,-0.108833,-0.162289,0.659379,-0.014150,-0.087593,0.871228,0.564428,0.132270,-0.923735,0.272768,-0.208726,0.865817,-0.122709,0.141590,-0.560446,-0.294491,-0.211617,0.802007,-0.090215,-0.400713,4.107876,-7.492162,-2.090922,-1.132210,-1.307187,-0.225412,1.117837,-4.857333,0.952518,-2.992582,1.416232
0.052000,-0.176550,1.356791,0.293805,0.990121,-0.087951,-0.014496,-0.108239,-0.174288,0.641264,0.001648,-0.062650,0.945747,0.684145,0.131694,-0.916252,0.259695,-0.212993,0.863314,-0.125335,0.140585,-0.559658,-0.298926,-0.209825,0.795686,-0.087460,-0.287955,3.741063,-6.536403,-2.133322,-1.251526,-1.312647,-0.502202,0.393901,-2.217537,0.896033,-3.160583,1.377370
0.054000,-0.176912,1.358064,0.293835,0.990238,-0.087667,-0.013449,-0.107525,-0.181290,0.636321,0.015035,0.188702,1.006196,0.808069,0.130292,-0.909224,0.246791,-0.217811,0.860491,-0.127759,0.139378,-0.560552,-0.297804,-0.207669,0.788940,-0.084530,-0.700754,3.514154,-6.451836,-2.408953,-1.411835,-1.212147,-0.603688,-0.447053,0.561227,1.077974,-3.372882,1.465105
0.056000,-0.177304,1.359285,0.293908,0.990342,-0.087585,-0.012322,-0.106769,-0.195831,0.610468,0.036194,-0.021523,1.059609,0.857070,0.129694,-0.902619,0.234531,-0.222152,0.857542,-0.130235,0.138000,-0.561152,-0.296990,-0.206054,0.782016,-0.081665,-0.298995,3.302555,-6.130274,-2.170786,-1.474064,-1.238266,-0.688965,-0.299617,0.406787,0.807812,-3.462117,1.432367
0.058000,-0.177719,1.360489,0.294015,0.990449,-0.087455,-0.011135,-0.106007,-0.207592,0.601875,0.053769,0.020927,1.123695,0.868452,0.128983,-0.896431,0.223543,-0.226495,0.854381,-0.132607,0.137131,-0.560367,-0.297879,-0.204344,0.774867,-0.078681,-0.355384,3.093999,-5.493717,-2.171379,-1.580857,-1.185752,-0.434647,0.392404,-0.444730,0.855021,-3.574695,1.492008
0.060000,-0.178159,1.361648,0.294168,0.990534,-0.087555,-0.009884,-0.105257,-0.219989,0.579752,0.076327,-0.215265,1.163715,0.862421,0.128880,-0.890374,0.212331,-0.230256,0.851143,-0.134988,0.136154,-0.558004,-0.300892,-0.203137,0.767654,-0.075722,-0.051779,3.028385,-5.606243,-1.880521,-1.618807,-1.190284,-0.488330,1.181248,-1.506422,0.603313,-3.606334,1.479846
0.062000,-0.178595,1.362808,0.294337,0.990634,-0.087439,-0.008632,-0.104517,-0.217775,0.579847,0.084548,-0.001311,1.188803,0.852544,0.128211,-0.885119,0.203637,-0.234355,0.847784,-0.137139,0.136324,-0.554453,-0.311484,-0.201447,0.760417,-0.072658,-0.334491,2.627412,-4.346955,-2.049478,-1.679657,-1.075889,0.084987,1.775607,-5.295715,0.844868,-3.618505,1.531758
0.064000,-0.179003,1.363944,0.294508,0.990754,-0.087149,-0.007490,-0.103708,-0.204333,0.568316,0.085563,0.185417,1.092121,0.910681,0.126874,-0.880409,0.193992,-0.238780,0.844439,-0.138836,0.136547,-0.553380,-0.315433,-0.199543,0.753488,-0.069769,-0.668605,2.355109,-4.822655,-2.212690,-1.672472,-0.848164,0.111317,0.536353,-1.974642,0.952410,-3.464810,1.444497
0.066000,-0.179370,1.365074,0.294654,0.990910,-0.086460,-0.006499,-0.102856,-0.183203,0.564738,0.072919,0.600251,0.980560,0.941945,0.124659,-0.877176,0.188002,-0.243942,0.841158,-0.140020,0.137485,-0.554951,-0.312014,-0.196906,0.747035,-0.067138,-1.107353,1.616548,-2.994594,-2.580924,-1.640224,-0.592019,0.469254,-0.785530,1.709709,1.318465,-3.226062,1.315299
0.068000,-0.179723,1.366138,0.294826,0.991025,-0.086184,-0.005539,-0.102039,-0.176709,0.532262,0.085923,0.189642,0.908910,0.902796,0.123151,-0.873849,0.179919,-0.248117,0.838285,-0.141329,0.137852,-0.556057,-0.313177,-0.195148,0.741168,-0.065012,-0.753960,1.663621,-4.041442,-2.087522,-1.436579,-0.654749,0.183443,-0.552995,-0.581908,0.879008,-2.933764,1.063451
0.070000,-0.180056,1.367158,0.294998,0.991113,-0.086093,-0.004616,-0.101300,-0.166490,0.509811,0.086325,0.008140,0.861371,0.820224,0.122246,-0.871492,0.175694,-0.251704,0.835954,-0.142925,0.138522,-0.555900,-0.321237,-0.193697,0.735941,-0.063395,-0.452650,1.178648,-2.112958,-1.793584,-1.165524,-0.797960,0.334878,0.078560,-4.029667,0.725260,-2.613556,0.808378
0.072000,-0.180363,1.368127,0.295175,0.991180,-0.086208,-0.003796,-0.100582,-0.153167,0.484542,0.088099,-0.188626,0.739304,0.789180,0.121314,-0.869023,0.169240,-0.254729,0.834089,-0.144501,0.138758,-0.556592,-0.326917,-0.192718,0.731444,-0.062363,-0.465926,1.234519,-3.226745,-1.512388,-0.932340,-0.788177,0.117874,-0.345907,-2.840136,0.489484,-2.248304,0.516101
0.074000,-0.180626,1.369088,0.295313,0.991271,-0.085987,-0.003132,-0.099892,-0.131592,0.480441,0.069052,0.162901,0.621385,0.749404,0.119585,-0.867968,0.168007,-0.258266,0.832537,-0.145802,0.139798,-0.558805,-0.326626,-0.191017,0.727652,-0.061786,-0.864246,0.527366,-0.616346,-1.768361,-0.776281,-0.650443,0.520402,-1.106287,0.145720,0.850584,-1.896248,0.288244
0.076000,-0.180868,1.370012,0.295458,0.991340,-0.085943,-0.002559,-0.099261,-0.121334,0.462003,0.072674,-0.006015,0.518689,0.681262,0.117490,-0.866434,0.163845,-0.261266,0.831289,-0.146967,0.140742,-0.560648,-0.327269,-0.189621,0.724538,-0.061730,-1.047872,0.766777,-2.081025,-1.500065,-0.624042,-0.582518,0.471847,-0.921621,-0.321914,0.697811,-1.556751,0.028237
0.078000,-0.181089,1.370918,0.295590,0.991400,-0.085859,-0.002056,-0.098740,-0.110096,0.452827,0.066212,0.040188,0.461746,0.565971,0.115236,-0.865796,0.164189,-0.264100,0.830285,-0.148041,0.142474,-0.560960,-0.332759,-0.187992,0.722134,-0.062182,-1.126677,0.319354,0.171890,-1.417218,-0.501695,-0.536918,0.866178,-0.155983,-2.744634,0.814803,-1.201937,-0.226427
0.080000,-0.181290,1.371782,0.295733,0.991434,-0.086007,-0.001645,-0.098283,-0.100483,0.431917,0.071142,-0.183350,0.354177,0.492466,0.112767,-0.864626,0.161254,-0.266288,0.829456,-0.148851,0.143808,-0.560924,-0.338222,-0.186782,0.720407,-0.063164,-1.234373,0.584934,-1.467312,-1.093657,-0.414757,-0.404662,0.666919,0.017751,-2.731471,0.604742,-0.863528,-0.490691
0.082000,-0.181456,1.372621,0.295847,0.991468,-0.086063,-0.001367,-0.097887,-0.083149,0.419936,0.057053,-0.079550,0.235807,0.419318,0.110090,-0.864532,0.162218,-0.268476,0.828779,-0.149292,0.145337,-0.561549,-0.339575,-0.185410,0.719754,-0.065003,-1.338700,0.046949,0.481740,-1.094021,-0.338609,-0.220910,0.764411,-0.312140,-0.676576,0.685972,-0.326854,-0.919662
0.084000,-0.181603,1.373425,0.295968,0.991483,-0.086288,-0.001172,-0.097545,-0.073495,0.402039,0.060725,-0.240665,0.141916,0.357497,0.107199,-0.864107,0.160614,-0.270169,0.828172,-0.149406,0.146415,-0.562029,-0.340085,-0.184322,0.719599,-0.067191,-1.445461,0.212462,-0.802041,-0.846626,-0.303317,-0.056715,0.538791,-0.240061,-0.254998,0.543994,-0.077175,-1.094054
0.086000,-0.181724,1.374196,0.296068,0.991472,-0.086670,-0.001068,-0.097314,-0.060678,0.385443,0.049974,-0.389311,0.045974,0.237968,0.104755,-0.864463,0.162372,-0.271335,0.827852,-0.149427,0.147600,-0.561423,-0.343817,-0.183575,0.720899,-0.070695,-1.221948,-0.177817,0.879070,-0.582816,-0.160283,-0.010383,0.592871,0.302876,-1.866205,0.373736,0.649692,-1.752059
0.088000,-0.181827,1.374953,0.296168,0.991454,-0.087079,-0.001039,-0.097136,-0.051310,0.378343,0.049812,-0.409805,-0.026312,0.177503,0.101767,-0.864504,0.161926,-0.272321,0.827543,-0.149109,0.148755,-0.560372,-0.348387,-0.182748,0.722518,-0.074381,-1.494027,-0.020949,-0.223046,-0.493115,-0.154387,0.158744,0.577328,0.525419,-2.285057,0.413234,0.809566,-1.843013
0.090000,-0.181902,1.375708,0.296241,0.991444,-0.087333,-0.001120,-0.097005,-0.037483,0.377408,0.036723,-0.243901,-0.116344,0.122008,0.098189,-0.864928,0.162584,-0.273512,0.827276,-0.148416,0.150198,-0.559748,-0.350625,-0.181524,0.724770,-0.078554,-1.788888,-0.211705,0.329133,-0.595416,-0.133562,0.346498,0.721354,0.312003,-1.119005,0.612239,1.126328,-2.086214
0.092000,-0.181962,1.376453,0.296311,0.991435,-0.087549,-0.001254,-0.096899,-0.030141,0.372635,0.034777,-0.202622,-0.163065,0.092990,0.094093,-0.865068,0.161570,-0.274695,0.827043,-0.147525,0.151431,-0.559326,-0.351543,-0.180145,0.727020,-0.082616,-2.048335,-0.070199,-0.506983,-0.591436,-0.116344,0.445692,0.616602,0.211284,-0.458755,0.689503,1.124766,-2.031092
0.094000,-0.182020,1.377179,0.296386,0.991413,-0.087865,-0.001381,-0.096838,-0.029118,0.363131,0.037786,-0.302826,-0.162270,0.047729,0.090082,-0.864839,0.159955,-0.275568,0.826958,-0.146763,0.152264,-0.558181,-0.354735,-0.178879,0.729153,-0.086503,-2.005314,0.114844,-0.807641,-0.436630,-0.042288,0.380767,0.416347,0.572281,-1.596085,0.632932,1.066783,-1.943235
0.096000,-0.182080,1.377886,0.296470,0.991384,-0.088239,-0.001483,-0.096800,-0.029637,0.353379,0.041605,-0.363274,-0.140813,0.025910,0.086259,-0.864390,0.158516,-0.276235,0.826997,-0.146180,0.152573,-0.556753,-0.358616,-0.177705,0.731013,-0.090041,-1.911426,0.224073,-0.719449,-0.333340,0.019276,0.291512,0.154709,0.714015,-1.940314,0.587106,0.929859,-1.769429
0.098000,-0.182060,1.378868,0.296482,0.991530,-0.086505,-0.001968,-0.096859,0.009921,0.491023,0.005965,1.778949,-0.307348,-0.089167,0.071492,-0.856900,0.131402,-0.281299,0.826780,-0.144007,0.158729,-0.557136,-0.354003,-0.168126,0.737795,-0.102403,-7.383865,3.745419,-13.557092,-2.532273,-0.108636,1.086769,3.078003,-0.191685,2.306317,4.789517,3.391083,-6.180778
0.100000,-0.182027,1.379966,0.296501,0.991708,-0.084241,-0.002574,-0.097012,0.016613,0.548836,0.009507,2.318964,-0.368131,-0.191324,0.050702,-0.841834,0.077864,-0.287248,0.826954,-0.141779,0.166761,-0.556296,-0.353223,-0.156101,0.746713,-0.116704,-10.394813,7.532912,-26.768955,-2.974614,0.087240,1.113983,4.015879,0.420408,0.389817,6.012593,4.458693,-7.150323
0.102000,-0.182056,1.380972,0.296499,0.991825,-0.082487,-0.002843,-0.097324,-0.014861,0.502817,-0.000826,1.774529,-0.069802,-0.325393,0.033901,-0.828484,0.045497,-0.290927,0.828051,-0.144488,0.173039,-0.552740,-0.359918,-0.145676,0.753839,-0.128594,-8.400695,6.674730,-16.183459,-1.839355,0.548571,-1.354781,3.139083,1.778043,-3.347149,5.212472,3.563012,-5.945067
0.104000,-0.182147,1.381742,0.296494,0.991811,-0.082175,-0.002728,-0.097726,-0.045530,0.385129,-0.002238,0.295852,0.177513,-0.392150,0.025061,-0.819482,0.037079,-0.288269,0.828864,-0.143774,0.174021,-0.549270,-0.364107,-0.139266,0.759257,-0.138308,-4.419833,4.501251,-4.209245,1.328860,0.406251,0.357147,0.490821,1.734605,-2.094560,3.204961,2.708903,-4.856955
0.106000,-0.182269,1.382333,0.296486,0.991732,-0.082623,-0.002218,-0.098165,-0.060830,0.295597,-0.004136,-0.502428,0.497318,-0.399996,0.022522,-0.815868,0.054287,-0.281456,0.829506,-0.141481,0.170915,-0.546958,-0.362752,-0.135130,0.761231,-0.127107,-1.269574,1.807112,8.604130,3.406506,0.321256,1.146483,-1.553004,1.156173,0.677464,2.067731,0.987110,5.600306
0.108000,-0.182367,1.382913,0.296461,0.991645,-0.083164,-0.001775,-0.098592,-0.048837,0.289897,-0.012458,-0.587524,0.422097,-0.393961,0.020971,-0.812603,0.068167,-0.275328,0.831357,-0.142561,0.167283,-0.545742,-0.360329,-0.131499,0.763336,-0.119232,-0.775516,1.632525,6.940026,3.064297,0.925198,-0.540087,-1.815951,0.607771,1.211171,1.815593,1.052760,3.937533
0.110000,-0.182397,1.383666,0.296424,0.991647,-0.082599,-0.001623,-0.099048,-0.015364,0.376659,-0.018788,0.544182,0.243668,-0.439821,0.014765,-0.806351,0.060284,-0.272666,0.833292,-0.143127,0.167425,-0.544376,-0.362850,-0.122748,0.768032,-0.121038,-3.103085,3.125865,-3.941636,1.330723,0.967661,-0.282992,0.070920,0.683348,-1.260451,4.375628,2.347781,-0.903222
0.112000,-0.182363,1.384586,0.296371,0.991740,-0.080939,-0.001785,-0.099489,0.017031,0.460120,-0.026130,1.669199,0.040788,-0.444669,0.004025,-0.797418,0.030701,-0.273433,0.834909,-0.142642,0.171147,-0.543535,-0.367603,-0.109420,0.774714,-0.130706,-5.369981,4.466395,-14.791405,-0.383322,0.808576,0.242628,1.861026,0.420162,-2.376114,6.663839,3.341208,-4.833919
0.114000,-0.182303,1.385546,0.296276,0.991876,-0.078776,-0.002089,-0.099865,0.030183,0.480014,-0.047843,2.186386,-0.055373,-0.387278,-0.006814,-0.790166,0.003368,-0.276032,0.836327,-0.141908,0.176056,-0.544233,-0.368887,-0.095953,0.780796,-0.140133,-5.419227,3.626148,-13.666447,-1.299354,0.708691,0.367114,2.454863,-0.348762,-0.642295,6.733540,3.041106,-4.713202
0.116000,-0.182267,1.386413,0.296137,0.991983,-0.076931,-0.002232,-0.100231,0.017904,0.433402,-0.069141,1.851360,0.071443,-0.367509,-0.013174,-0.788324,0.001207,-0.278230,0.837914,-0.143158,0.179476,-0.545236,-0.368809,-0.084629,0.785470,-0.147816,-3.179800,0.920605,-1.080691,-1.099311,0.793882,-0.625142,1.709738,-0.501260,0.039045,5.662027,2.336650,-3.841437
0.118000,-0.182284,1.387120,0.296032,0.991990,-0.076361,-0.002133,-0.100601,-0.008507,0.353621,-0.052715,0.555721,0.183994,-0.360076,-0.014241,-0.788521,0.009106,-0.278001,0.839697,-0.146454,0.179096,-0.544994,-0.373040,-0.077186,0.789074,-0.154329,-0.533727,-0.098034,3.949842,0.114574,0.891449,-1.648046,-0.189904,0.120728,-2.115307,3.721693,1.802352,-3.256931
0.120000,-0.182332,1.387768,0.295997,0.991949,-0.076517,-0.002012,-0.100887,-0.023772,0.324055,-0.017522,-0.171256,0.125836,-0.278588,-0.014482,-0.785841,0.001906,-0.276866,0.840962,-0.148997,0.176327,-0.544887,-0.376848,-0.072214,0.791906,-0.159772,-0.120383,1.339599,-3.600186,0.567357,0.632491,-1.271467,-1.384471,0.053277,-1.904301,2.485980,1.415913,-2.721265
0.122000,-0.182388,1.388488,0.295988,0.991956,-0.076172,-0.002012,-0.101078,-0.027904,0.359919,-0.004309,0.342661,0.049528,-0.189661,-0.017714,-0.780104,-0.020460,-0.277239,0.841274,-0.149971,0.175005,-0.545618,-0.377438,-0.066874,0.793825,-0.163807,-1.616075,2.868903,-11.182961,-0.186153,0.156168,-0.486979,-0.661018,-0.365224,-0.295065,2.669777,0.959586,-2.017740
0.124000,-0.182452,1.389319,0.295943,0.992058,-0.074594,-0.002055,-0.101254,-0.032048,0.415157,-0.022524,1.577166,0.130264,-0.170014,-0.024075,-0.774926,-0.037247,-0.278680,0.838985,-0.139190,0.177049,-0.546010,-0.377565,-0.059459,0.794447,-0.166056,-3.180572,2.588793,-8.393412,-0.720584,-1.144977,5.390307,1.021877,-0.195913,-0.063055,3.707739,0.310981,-1.124166
0.126000,-0.182535,1.390196,0.295817,0.992205,-0.072304,-0.001962,-0.101477,-0.041595,0.438899,-0.063216,2.273097,0.340959,-0.204153,-0.031404,-0.772167,-0.037942,-0.281622,0.837172,-0.133044,0.181211,-0.545540,-0.377822,-0.050932,0.793921,-0.167022,-3.664241,1.379690,-0.347642,-1.471276,-0.906072,3.073158,2.081221,0.234997,-0.128811,4.263161,-0.263035,-0.483027
0.128000,-0.182651,1.390984,0.295639,0.992283,-0.070811,-0.001666,-0.101776,-0.057901,0.393657,-0.089035,1.456445,0.466693,-0.270659,-0.036889,-0.769193,-0.036439,-0.282587,0.837257,-0.136314,0.184215,-0.543865,-0.379240,-0.044358,0.793280,-0.168130,-2.742776,1.486748,0.751782,-0.482325,0.042539,-1.635177,1.501991,0.837358,-0.709161,3.287352,-0.320802,-0.554297
0.130000,-0.182782,1.391645,0.295457,0.992256,-0.070679,-0.001314,-0.102136,-0.065707,0.330745,-0.091092,0.092446,0.388077,-0.335534,-0.040040,-0.763534,-0.047322,-0.280476,0.838823,-0.143993,0.184861,-0.541492,-0.381744,-0.040926,0.793957,-0.170746,-1.575587,2.829340,-5.441770,1.055628,0.782999,-3.839588,0.322847,1.186511,-1.251740,1.715667,0.338441,-1.307686
0.132000,-0.182890,1.392307,0.295269,0.992218,-0.070642,-0.001105,-0.102525,-0.053746,0.330677,-0.093758,0.011713,0.238551,-0.374790,-0.043433,-0.756747,-0.064699,-0.278850,0.840454,-0.150387,0.185786,-0.539419,-0.383907,-0.037480,0.795906,-0.174506,-1.696217,3.393626,-8.688599,0.812729,0.815228,-3.196589,0.462301,1.036475,-1.081398,1.723160,0.974698,-1.880367
0.134000,-0.182960,1.393042,0.295049,0.992237,-0.069761,-0.001066,-0.102945,-0.035386,0.367795,-0.110102,0.871773,0.159507,-0.413208,-0.048185,-0.751734,-0.074610,-0.279420,0.841477,-0.154891,0.188879,-0.537965,-0.384969,-0.031630,0.798849,-0.179100,-2.376319,2.506427,-4.955340,-0.284714,0.511678,-2.252232,1.546503,0.727257,-0.530945,2.925060,1.471334,-2.296807
0.136000,-0.182997,1.393841,0.294814,0.992309,-0.068059,-0.001158,-0.103394,-0.018433,0.399374,-0.117473,1.702510,0.114944,-0.446146,-0.054021,-0.748824,-0.075622,-0.281918,0.841802,-0.157540,0.193963,-0.536985,-0.385147,-0.023570,0.802138,-0.177241,-2.917684,1.455237,-0.506160,-1.249139,0.162191,-1.324355,2.542116,0.489907,-0.089168,4.029886,1.644802,0.929340
0.138000,-0.183021,1.394592,0.294593,0.992350,-0.066693,-0.001376,-0.103880,-0.012157,0.375415,-0.110602,1.380147,-0.042324,-0.494737,-0.058839,-0.745771,-0.078749,-0.281081,0.839251,-0.139556,0.198576,-0.536306,-0.385121,-0.016029,0.806637,-0.177951,-2.408938,1.526560,-1.563404,0.418560,-1.275163,8.991767,2.306374,0.339469,0.012974,3.770401,2.249588,-0.354767
0.140000,-0.183060,1.395220,0.294351,0.992300,-0.066642,-0.001507,-0.104392,-0.019325,0.314134,-0.120702,0.060025,-0.090727,-0.522301,-0.061119,-0.741206,-0.089803,-0.278014,0.838625,-0.128854,0.200584,-0.535199,-0.385923,-0.011570,0.812102,-0.181060,-1.140158,2.282569,-5.526886,1.533566,-0.313126,5.350934,1.004129,0.553422,-0.401046,2.229786,2.732380,-1.554596
0.142000,-0.183124,1.395767,0.294045,0.992185,-0.067504,-0.001398,-0.104925,-0.031983,0.273372,-0.153166,-0.874736,0.053533,-0.531862,-0.061827,-0.736229,-0.102258,-0.274293,0.841450,-0.135900,0.200749,-0.533237,-0.387714,-0.009141,0.817228,-0.185251,-0.354180,2.488228,-6.227332,1.860507,1.412552,-3.522622,0.082410,0.980816,-0.895332,1.214476,2.562862,-2.095286
0.144000,-0.183186,1.396381,0.293669,0.992118,-0.067714,-0.001211,-0.105433,-0.031180,0.307254,-0.187895,-0.233544,0.198150,-0.498513,-0.064453,-0.732493,-0.108502,-0.272478,0.844903,-0.147041,0.202347,-0.531208,-0.389120,-0.005548,0.821169,-0.189010,-1.313115,1.868087,-3.122175,0.907171,1.726362,-5.570880,0.798958,1.014579,-0.703079,1.796445,1.970336,-1.879832
0.146000,-0.183218,1.397320,0.293275,0.992240,-0.065208,-0.001130,-0.105863,-0.015826,0.469282,-0.197124,2.485174,0.373447,-0.411162,-0.074170,-0.729417,-0.112959,-0.277972,0.847019,-0.156509,0.209970,-0.529349,-0.389528,0.003621,0.822643,-0.190166,-4.858460,1.537755,-2.228441,-2.746872,1.057817,-4.733776,3.811804,0.929551,-0.204141,4.584463,0.737208,-0.577767
0.148000,-0.183250,1.398398,0.292927,0.992422,-0.061705,-0.001107,-0.106253,-0.016161,0.539151,-0.173859,3.484877,0.419535,-0.370196,-0.086095,-0.725942,-0.120877,-0.285848,0.847771,-0.163199,0.219806,-0.527264,-0.390085,0.014707,0.822785,-0.190004,-5.962339,1.737549,-3.959207,-3.937733,0.376379,-3.344968,4.918163,1.042587,-0.278212,5.542874,0.071086,0.080830
0.150000,-0.183298,1.399390,0.292655,0.992537,-0.059120,-0.001113,-0.106649,-0.023557,0.495797,-0.136197,2.572900,0.293626,-0.383496,-0.094202,-0.722352,-0.131494,-0.291989,0.848174,-0.168231,0.227697,-0.524944,-0.391447,0.023678,0.823194,-0.190409,-4.053664,1.795292,-5.308274,-3.070798,0.201239,-2.516216,3.945480,1.159941,-0.681110,4.485566,0.204486,-0.202511
0.152000,-0.183369,1.400167,0.292466,0.992531,-0.058401,-0.001097,-0.107100,-0.035565,0.388409,-0.094458,0.711133,0.119264,-0.448052,-0.095240,-0.719494,-0.140269,-0.291882,0.845940,-0.152729,0.231588,-0.522196,-0.394104,0.028409,0.824814,-0.192527,-0.518924,1.428881,-4.387637,0.053680,-1.116873,7.751378,1.945092,1.374209,-1.328750,2.365536,0.809700,-1.058730
0.154000,-0.183431,1.400719,0.292239,0.992423,-0.059541,-0.000944,-0.107472,-0.031354,0.276137,-0.113580,-1.155022,0.051564,-0.370962,-0.090164,-0.717711,-0.146624,-0.289368,0.847390,-0.150697,0.229773,-0.523285,-0.387272,0.028523,0.827587,-0.196978,2.538332,0.891568,-3.177581,1.256875,0.725211,1.015573,-0.907350,-0.544677,3.416244,0.056831,1.386508,-2.225859
0.156000,-0.183470,1.401311,0.291946,0.992336,-0.060384,-0.000752,-0.107807,-0.019417,0.296257,-0.146208,-0.862606,0.119517,-0.329861,-0.085883,-0.716172,-0.151862,-0.290010,0.852052,-0.163625,0.228832,-0.524818,-0.380806,0.029306,0.829971,-0.201158,2.140151,0.769640,-2.618754,-0.320911,2.330687,-6.463950,-0.470248,-0.766659,3.232845,0.391864,1.192286,-2.090020
0.158000,-0.183413,1.402130,0.291536,0.992407,-0.058938,-0.000867,-0.107954,0.028664,0.409551,-0.205424,1.451443,0.050220,-0.146264,-0.088448,-0.714763,-0.158576,-0.298241,0.858825,-0.184732,0.232796,-0.532151,-0.358736,0.034746,0.831700,-0.204195,-1.282242,0.704388,-3.356883,-4.115335,3.386826,-10.553255,1.981817,-3.666353,11.034889,2.719912,0.864419,-1.518025
0.160000,-0.183339,1.403108,0.291144,0.992539,-0.056268,-0.001096,-0.108160,0.037014,0.488643,-0.195955,2.681912,0.074007,-0.205894,-0.094812,-0.712058,-0.167994,-0.307899,0.862916,-0.190201,0.241267,-0.535750,-0.357425,0.042995,0.832654,-0.206029,-3.182059,1.352476,-4.709482,-4.829043,2.045157,-2.734508,4.235730,-1.799377,0.655921,4.124294,0.476750,-0.917173
0.162000,-0.183226,1.404037,0.290689,0.992683,-0.053520,-0.001403,-0.108230,0.056377,0.464836,-0.227124,2.768957,-0.003540,-0.073759,-0.101433,-0.709733,-0.175663,-0.316891,0.867324,-0.193650,0.248116,-0.545844,-0.336045,0.051071,0.833828,-0.208088,-3.310464,1.162195,-3.834169,-4.495937,2.204069,-1.724602,3.424490,-5.047178,10.689701,4.038259,0.587054,-1.029791
0.164000,-0.183172,1.404754,0.290252,0.992709,-0.052695,-0.001341,-0.108399,0.027118,0.358081,-0.218647,0.813904,0.159645,-0.163016,-0.102891,-0.706821,-0.181007,-0.319641,0.872063,-0.198310,0.249951,-0.553723,-0.325812,0.055128,0.835118,-0.210874,-0.729292,1.456169,-2.671998,-1.375080,2.369398,-2.330204,0.917411,-3.939382,5.116802,2.028339,0.645378,-1.392754
0.166000,-0.183124,1.405254,0.289733,0.992662,-0.053435,-0.001051,-0.108473,0.024052,0.250194,-0.259398,-0.769424,0.211373,-0.062345,-0.100540,-0.703725,-0.186646,-0.319299,0.880653,-0.221458,0.245647,-0.567382,-0.295664,0.055544,0.837019,-0.214942,1.175525,1.548086,-2.819810,0.171028,4.295304,-11.573561,-2.152072,-6.829605,15.073992,0.208045,0.950532,-2.033867
0.168000,-0.183091,1.405793,0.289210,0.992614,-0.053952,-0.000673,-0.108655,0.016244,0.269485,-0.261664,-0.556641,0.328626,-0.164747,-0.099274,-0.699631,-0.193407,-0.317868,0.888255,-0.239534,0.243177,-0.577254,-0.282707,0.056663,0.838426,-0.218504,0.633012,2.047052,-3.380273,0.715128,3.801005,-9.038392,-1.235049,-4.935994,6.478473,0.559385,0.703035,-1.781142
0.170000,-0.182979,1.406499,0.288581,0.992689,-0.052457,-0.000617,-0.108700,0.056024,0.352823,-0.314732,1.481808,0.220327,-0.035120,-0.103224,-0.697700,-0.195991,-0.320808,0.895993,-0.255462,0.245075,-0.592671,-0.251082,0.061810,0.839596,-0.221329,-1.974628,0.965250,-1.291897,-1.470048,3.869045,-7.963797,0.949107,-7.708607,15.812524,2.573759,0.585068,-1.412692
0.172000,-0.182855,1.407316,0.287952,0.992800,-0.050056,-0.000641,-0.108825,0.062286,0.408720,-0.314065,2.391977,0.243981,-0.114907,-0.109313,-0.696774,-0.196425,-0.324370,0.902306,-0.262279,0.250936,-0.604760,-0.234384,0.069077,0.840339,-0.223416,-3.044577,0.463037,-0.217184,-1.780834,3.156358,-3.408399,2.930326,-6.044354,8.349021,3.633579,0.371787,-1.043547
0.174000,-0.182710,1.408088,0.287259,0.992907,-0.047814,-0.000697,-0.108851,0.072464,0.385896,-0.346689,2.237495,0.190327,-0.017590,-0.115376,-0.696765,-0.195666,-0.328170,0.911098,-0.279492,0.255187,-0.621327,-0.200362,0.075797,0.841442,-0.226008,-3.031884,0.004815,0.379404,-1.900171,4.395905,-8.606444,2.125618,-8.283637,17.010822,3.359926,0.551567,-1.295921
0.176000,-0.182617,1.408735,0.286611,0.992930,-0.047038,-0.000518,-0.108982,0.046563,0.323706,-0.324228,0.751812,0.268525,-0.119997,-0.118371,-0.696278,-0.195122,-0.327722,0.920518,-0.298647,0.256605,-0.634276,-0.179836,0.079630,0.842750,-0.229207,-1.497353,0.243493,0.272074,0.224093,4.710233,-9.577723,0.708846,-6.474499,10.263111,1.916180,0.653721,-1.599194
0.178000,-0.182539,1.409243,0.285965,0.992899,-0.047555,-0.000285,-0.109045,0.038700,0.253738,-0.322932,-0.539892,0.177439,-0.054521,-0.118826,-0.695656,-0.195251,-0.324588,0.931846,-0.324843,0.253522,-0.650291,-0.146771,0.080643,0.844807,-0.233522,-0.227315,0.310631,-0.064170,1.567232,5.663931,-13.097908,-1.541517,-8.007280,16.532443,0.506606,1.028570,-2.157468
0.180000,-0.182469,1.409792,0.285385,0.992864,-0.048030,-0.000152,-0.109149,0.034890,0.274562,-0.289819,-0.487808,0.085496,-0.100497,-0.119491,-0.694942,-0.195618,-0.320512,0.941747,-0.340843,0.251740,-0.663987,-0.123142,0.081953,0.846935,-0.237710,-0.332749,0.357435,-0.183646,2.037804,4.950420,-8.000083,-0.890748,-6.848090,11.814405,0.655019,1.063921,-2.094259
0.182000,-0.182364,1.410448,0.284803,0.992889,-0.047557,-0.000301,-0.109132,0.052551,0.328241,-0.291115,0.487250,-0.097558,0.011805,-0.122487,-0.694879,-0.195634,-0.319442,0.952049,-0.356788,0.251886,-0.680905,-0.086862,0.085177,0.849161,-0.241647,-1.498005,0.031165,-0.008029,0.535270,5.151019,-7.972523,0.073065,-8.459167,18.139873,1.611903,1.113192,-1.968624
0.184000,-0.182263,1.411222,0.284272,0.992940,-0.046468,-0.000551,-0.109138,0.050733,0.386690,-0.265422,1.110945,-0.128539,-0.011972,-0.126958,-0.694877,-0.195424,-0.320238,0.961974,-0.371330,0.255033,-0.695160,-0.060978,0.089899,0.850982,-0.244916,-2.235359,0.001131,0.104868,-0.397937,4.962387,-7.271073,1.573417,-7.127580,12.942235,2.360999,0.910569,-1.634470
0.186000,-0.182176,1.412001,0.283760,0.992991,-0.045517,-0.000813,-0.109072,0.043556,0.389840,-0.256127,0.974532,-0.159843,0.057674,-0.131332,-0.694851,-0.195393,-0.321683,0.973012,-0.393504,0.257195,-0.710719,-0.028393,0.094273,0.852705,-0.248156,-2.186937,0.012907,0.015711,-0.722681,5.518927,-11.086911,1.080625,-7.779474,16.292357,2.186999,0.861460,-1.619858
0.188000,-0.182131,1.412755,0.283320,0.993010,-0.045192,-0.000985,-0.109035,0.022557,0.376675,-0.219955,0.343191,-0.136727,0.031101,-0.134421,-0.694267,-0.196038,-0.321118,0.983409,-0.414185,0.258168,-0.724266,-0.002409,0.097449,0.854239,-0.251325,-1.544421,0.292296,-0.322735,0.282231,5.198686,-10.340517,0.486961,-6.773037,12.992232,1.587971,0.766905,-1.584276
0.190000,-0.182127,1.413412,0.282933,0.992986,-0.045896,-0.001058,-0.108954,0.001936,0.328519,-0.193434,-0.692413,-0.153280,0.075437,-0.135381,-0.693126,-0.197702,-0.317412,0.993554,-0.435183,0.255250,-0.739024,0.030039,0.098395,0.855900,-0.254890,-0.480336,0.570094,-0.831676,1.853383,5.072409,-10.499159,-1.459059,-7.379166,16.223705,0.473340,0.830391,-1.782543
0.192000,-0.182143,1.414093,0.282614,0.992957,-0.046697,-0.001155,-0.108876,-0.008376,0.340734,-0.159376,-0.786424,-0.187422,0.070833,-0.136204,-0.691637,-0.199945,-0.312632,1.002490,-0.450672,0.252398,-0.752681,0.058322,0.099245,0.857398,-0.258213,-0.411269,0.744521,-1.121546,2.389928,4.467847,-7.744131,-1.426340,-6.828797,14.141801,0.424870,0.748998,-1.661694
0.194000,-0.182167,1.414813,0.282333,0.992939,-0.047367,-0.001321,-0.108747,-0.011838,0.359838,-0.140510,-0.647273,-0.243337,0.118631,-0.137447,-0.690048,-0.202554,-0.308016,1.011106,-0.465973,0.249473,-0.767060,0.089654,0.100390,0.858787,-0.261344,-0.621645,0.794706,-1.304816,2.307904,4.308196,-7.650830,-1.462114,-7.189047,15.665651,0.572580,0.694450,-1.565278
0.196000,-0.182186,1.415644,0.282091,0.992954,-0.047388,-0.001599,-0.108600,-0.009569,0.415646,-0.121259,0.010075,-0.285108,0.134138,-0.140222,-0.688483,-0.205181,-0.305451,1.019606,-0.482180,0.248957,-0.780476,0.116411,0.103031,0.859855,-0.263910,-1.387495,0.782292,-1.313433,1.282322,4.249989,-8.103230,-0.258146,-6.708300,13.378708,1.320276,0.534044,-1.283026
0.198000,-0.182218,1.416493,0.281885,0.992969,-0.047484,-0.001896,-0.108418,-0.015713,0.424432,-0.102604,-0.062595,-0.313867,0.168404,-0.142940,-0.686710,-0.208263,-0.302402,1.027933,-0.499252,0.247823,-0.794228,0.144826,0.105544,0.860834,-0.266377,-1.359046,0.886488,-1.540920,1.524835,4.163383,-8.536114,-0.567070,-6.876151,14.207488,1.256740,0.489498,-1.233474
0.200000,-0.182260,1.417368,0.281725,0.992982,-0.047632,-0.002213,-0.108225,-0.021169,0.437521,-0.080041,-0.111746,-0.339960,0.179147,-0.145623,-0.684678,-0.211835,-0.298883,1.035985,-0.515602,0.246597,-0.807499,0.171380,0.108033,0.861719,-0.268701,-1.341417,1.015961,-1.786164,1.759198,4.025843,-8.175020,-0.613038,-6.635256,13.276724,1.244147,0.442682,-1.162221
0.202000,-0.182341,1.418160,0.281626,0.992947,-0.048762,-0.002397,-0.108037,-0.040306,0.395768,-0.049905,-1.103383,-0.314438,0.175845,-0.146195,-0.681984,-0.216420,-0.291236,1.043132,-0.528612,0.241961,-0.820492,0.197692,0.108500,0.862657,-0.271309,-0.286023,1.347065,-2.292464,3.823787,3.573643,-6.504842,-2.317824,-6.496472,13.156433,0.233759,0.468704,-1.304084
0.204000,-0.182428,1.418985,0.281557,0.992916,-0.049811,-0.002592,-0.107841,-0.043519,0.412831,-0.034305,-1.021359,-0.316675,0.184751,-0.147001,-0.679157,-0.221211,-0.283290,1.050010,-0.541014,0.237374,-0.833104,0.222908,0.109213,0.863426,-0.273694,-0.402813,1.413581,-2.395203,3.972869,3.439070,-6.201156,-2.293557,-6.306083,12.607764,0.356214,0.384680,-1.192374
0.206000,-0.182534,1.419808,0.281522,0.992873,-0.051060,-0.002717,-0.107654,-0.053027,0.411184,-0.017570,-1.227877,-0.267635,0.178101,-0.147385,-0.676099,-0.226181,-0.273279,1.055899,-0.550372,0.231712,-0.845133,0.246734,0.109564,0.863957,-0.275893,-0.192234,1.529098,-2.485151,5.005257,2.944565,-4.678741,-2.831217,-6.014512,11.913237,0.175471,0.265409,-1.099601
0.208000,-0.182625,1.420739,0.281483,0.992873,-0.051482,-0.002922,-0.107443,-0.045656,0.465500,-0.019384,-0.396698,-0.260151,0.200496,-0.149662,-0.673371,-0.230559,-0.265521,1.061930,-0.562054,0.228130,-0.856982,0.270493,0.111709,0.864107,-0.277502,-1.138362,1.363910,-2.188874,3.879355,3.015472,-5.841027,-1.790775,-5.924534,11.879116,1.072612,0.075225,-0.804621
0.210000,-0.182734,1.421665,0.281468,0.992863,-0.052059,-0.003032,-0.107255,-0.054678,0.462968,-0.007276,-0.560976,-0.180896,0.181491,-0.151581,-0.670489,-0.234879,-0.255355,1.066632,-0.569048,0.223504,-0.867982,0.292156,0.113575,0.863963,-0.278885,-0.959459,1.441130,-2.159952,5.082891,2.351005,-3.497029,-2.313260,-5.499786,10.831705,0.933113,-0.072336,-0.691197
0.212000,-0.182841,1.422635,0.281449,0.992869,-0.052340,-0.003130,-0.107058,-0.053236,0.485332,-0.009733,-0.267780,-0.137151,0.192055,-0.154191,-0.667754,-0.238817,-0.245685,1.071388,-0.577797,0.219075,-0.878780,0.314217,0.116094,0.863568,-0.279989,-1.305073,1.367649,-1.969416,4.835104,2.378073,-4.374780,-2.214092,-5.399392,11.030536,1.259303,-0.197326,-0.551973
0.214000,-0.182983,1.423519,0.281463,0.992822,-0.053533,-0.003006,-0.106913,-0.070931,0.441845,0.006864,-1.199418,-0.012543,0.148659,-0.154745,-0.664536,-0.243106,-0.231128,1.074566,-0.580746,0.211257,-0.888326,0.332434,0.116755,0.863044,-0.281258,-0.276796,1.608982,-2.144410,7.278308,1.589069,-1.474191,-3.909123,-4.772757,9.108293,0.330685,-0.261717,-0.634469
0.216000,-0.183114,1.424450,0.281460,0.992793,-0.054392,-0.002889,-0.106750,-0.065526,0.465509,-0.001215,-0.866300,0.015630,0.167539,-0.156090,-0.661530,-0.247000,-0.217595,1.078022,-0.586602,0.203542,-0.897960,0.351968,0.118147,0.862375,-0.282342,-0.672628,1.502979,-1.946751,6.766479,1.727764,-2.928294,-3.857521,-4.817056,9.767009,0.695947,-0.334942,-0.542322
0.218000,-0.183258,1.425353,0.281478,0.992739,-0.055612,-0.002657,-0.106624,-0.072251,0.451269,0.008674,-1.238932,0.092662,0.135530,-0.156593,-0.658316,-0.250969,-0.201000,1.079814,-0.585969,0.194109,-0.906543,0.367731,0.118850,0.861593,-0.283421,-0.251305,1.606836,-1.984678,8.297786,0.896303,0.316808,-4.716825,-4.291505,7.881601,0.351561,-0.390641,-0.539260
0.220000,-0.183371,1.426360,0.281464,0.992737,-0.055961,-0.002536,-0.106466,-0.056110,0.503799,-0.006838,-0.359278,0.074031,0.164003,-0.159149,-0.655632,-0.254236,-0.187488,1.082030,-0.588988,0.186395,-0.915457,0.385467,0.121591,0.860902,-0.284415,-1.277981,1.342024,-1.633439,6.755939,1.107543,-1.509750,-3.856646,-4.456857,8.868269,1.370601,-0.345506,-0.497194
0.222000,-0.183491,1.427347,0.281471,0.992714,-0.056596,-0.002325,-0.106348,-0.060444,0.493475,0.003528,-0.653962,0.135673,0.128496,-0.161001,-0.652746,-0.257611,-0.171148,1.082331,-0.584427,0.177282,-0.923185,0.398888,0.123884,0.860253,-0.285517,-0.926091,1.443181,-1.687522,8.169964,0.150932,2.280613,-4.556529,-3.864290,6.710445,1.146355,-0.324560,-0.550822
0.224000,-0.183594,1.428386,0.281456,0.992715,-0.056864,-0.002152,-0.106205,-0.051436,0.519297,-0.007572,-0.283234,0.135323,0.152907,-0.163706,-0.650081,-0.260692,-0.156565,1.082982,-0.584124,0.168335,-0.931040,0.414073,0.127050,0.859693,-0.286642,-1.352652,1.332023,-1.540379,7.291602,0.325179,0.151308,-4.473579,-3.927115,7.592131,1.583040,-0.280156,-0.562648
0.226000,-0.183721,1.429351,0.281470,0.992665,-0.057924,-0.001808,-0.106105,-0.063172,0.482562,0.006978,-1.092298,0.222848,0.115147,-0.164606,-0.646969,-0.264221,-0.137849,1.081648,-0.577043,0.156516,-0.937424,0.424051,0.128565,0.859093,-0.287914,-0.449883,1.556009,-1.764378,9.358044,-0.666988,3.540470,-5.909466,-3.192409,4.989406,0.757295,-0.300067,-0.635845
0.228000,-0.183827,1.430370,0.281459,0.992641,-0.058574,-0.001524,-0.105972,-0.052981,0.509851,-0.005312,-0.676491,0.205155,0.147137,-0.166464,-0.644111,-0.267486,-0.121249,1.080677,-0.574571,0.144984,-0.944026,0.436611,0.131007,0.858586,-0.289183,-0.929247,1.429407,-1.632672,8.299815,-0.485317,1.236237,-5.766257,-3.300585,6.279528,1.221158,-0.253340,-0.634532
0.230000,-0.183936,1.431376,0.281467,0.992602,-0.059427,-0.001187,-0.105867,-0.054745,0.502712,0.004002,-0.883983,0.237470,0.121222,-0.167817,-0.641083,-0.270925,-0.102528,1.077759,-0.564686,0.132498,-0.949425,0.445051,0.133104,0.858111,-0.290478,-0.676564,1.513905,-1.719338,9.360603,-1.459211,4.942408,-6.242913,-2.699833,4.220097,1.048595,-0.237276,-0.647590
0.232000,-0.184016,1.432462,0.281444,0.992607,-0.059599,-0.000966,-0.105724,-0.039774,0.542951,-0.011513,-0.193746,0.192445,0.155941,-0.170781,-0.638501,-0.273926,-0.086891,1.075286,-0.559165,0.121296,-0.955098,0.456237,0.136659,0.857689,-0.291619,-1.481795,1.291035,-1.500531,7.818508,-1.236562,2.760659,-5.600756,-2.836208,5.593189,1.777597,-0.211452,-0.570488
0.234000,-0.184099,1.433525,0.281437,0.992595,-0.060027,-0.000693,-0.105605,-0.041532,0.531685,-0.003707,-0.454477,0.219438,0.133828,-0.173113,-0.635743,-0.277137,-0.069300,1.071133,-0.547088,0.109179,-0.959584,0.463145,0.139618,0.857166,-0.292643,-1.165882,1.379066,-1.605828,8.795599,-2.076449,6.038296,-6.058837,-2.243007,3.453724,1.479219,-0.261459,-0.511856
0.236000,-0.184165,1.434615,0.281404,0.992596,-0.060264,-0.000460,-0.105456,-0.033047,0.544894,-0.016492,-0.259637,0.196780,0.162270,-0.175895,-0.633164,-0.280234,-0.053387,1.067555,-0.539834,0.097030,-0.964191,0.472075,0.142896,0.856651,-0.293606,-1.390969,1.289453,-1.548546,7.956342,-1.788954,3.627262,-6.074258,-2.303422,4.465431,1.639378,-0.257478,-0.481403
0.238000,-0.184235,1.435659,0.281380,0.992569,-0.060944,-0.000160,-0.105326,-0.035203,0.521873,-0.011919,-0.707865,0.218052,0.144486,-0.177650,-0.630381,-0.283639,-0.035352,1.062743,-0.527748,0.083481,-0.967896,0.477484,0.145202,0.856180,-0.294678,-0.877895,1.391473,-1.702484,9.017283,-2.406042,6.042649,-6.774304,-1.852561,2.704395,1.152801,-0.235474,-0.535995
0.240000,-0.184282,1.436732,0.281325,0.992560,-0.061352,0.000063,-0.105167,-0.023489,0.536714,-0.027439,-0.428677,0.169378,0.169734,-0.180022,-0.627891,-0.286852,-0.019144,1.058542,-0.519528,0.070327,-0.971954,0.485299,0.148027,0.855836,-0.295775,-1.185770,1.244903,-1.606544,8.104121,-2.100210,4.110142,-6.577221,-2.029191,3.907319,1.412277,-0.171967,-0.548787
0.242000,-0.184313,1.437804,0.281261,0.992554,-0.061717,0.000242,-0.105013,-0.015355,0.535688,-0.032071,-0.382020,0.129233,0.164063,-0.182410,-0.625675,-0.289894,-0.002577,1.053548,-0.507112,0.057271,-0.975864,0.492095,0.150905,0.855643,-0.296932,-1.193862,1.108229,-1.520545,8.283384,-2.497327,6.208099,-6.527855,-1.954833,3.398329,1.439290,-0.096220,-0.578309
0.244000,-0.184318,1.438904,0.281164,0.992567,-0.061793,0.000335,-0.104840,-0.002372,0.550437,-0.048274,-0.084518,0.074007,0.178085,-0.185422,-0.623853,-0.292615,0.012259,1.049192,-0.497802,0.045041,-0.980073,0.500241,0.154367,0.855613,-0.298140,-1.506211,0.910957,-1.360641,7.418006,-2.177578,4.654978,-6.115288,-2.104626,4.072695,1.730921,-0.015289,-0.604182
0.246000,-0.184309,1.439984,0.281050,0.992573,-0.061999,0.000402,-0.104665,0.004534,0.540031,-0.057025,-0.210976,0.033705,0.179105,-0.188111,-0.622155,-0.295377,0.027537,1.044706,-0.487275,0.032405,-0.984573,0.508739,0.157521,0.855801,-0.299569,-1.344435,0.848730,-1.380977,7.639068,-2.243253,5.263424,-6.317922,-2.250097,4.249183,1.576823,0.094036,-0.714191
0.248000,-0.184285,1.441057,0.280911,0.992575,-0.062270,0.000446,-0.104487,0.011668,0.536400,-0.069449,-0.273534,0.004571,0.179417,-0.190659,-0.620494,-0.298219,0.042425,1.040819,-0.479206,0.019866,-0.989155,0.517068,0.160532,0.856168,-0.301189,-1.273942,0.830556,-1.421320,7.443960,-1.943245,4.034731,-6.269432,-2.290742,4.164183,1.505820,0.183601,-0.810407
0.250000,-0.184260,1.442100,0.280778,0.992559,-0.062788,0.000509,-0.104325,0.012506,0.521293,-0.066786,-0.521557,-0.001288,0.162145,-0.192614,-0.618645,-0.301378,0.058541,1.036057,-0.466499,0.006949,-0.993196,0.522388,0.163009,0.856601,-0.302889,-0.977564,0.924637,-1.579229,8.058081,-2.380988,6.353347,-6.458722,-2.020477,2.660333,1.238605,0.216617,-0.849710
0.252000,-0.184225,1.443155,0.280630,0.992552,-0.063180,0.000543,-0.104160,0.017715,0.527715,-0.074051,-0.393966,-0.017884,0.165395,-0.194842,-0.616817,-0.304553,0.073794,1.031407,-0.454858,-0.005423,-0.997072,0.527632,0.165729,0.857030,-0.304534,-1.113802,0.913936,-1.587707,7.626606,-2.325306,5.820622,-6.185755,-1.938221,2.621892,1.359995,0.214492,-0.822600
0.254000,-0.184188,1.444227,0.280496,0.992553,-0.063401,0.000563,-0.104013,0.018589,0.535617,-0.066690,-0.220801,-0.012513,0.146615,-0.197375,-0.614958,-0.307707,0.088952,1.025348,-0.437559,-0.016780,-0.999823,0.528863,0.168786,0.857258,-0.305853,-1.266874,0.929587,-1.577082,7.578936,-3.029556,8.649401,-5.678588,-1.375356,0.615402,1.528267,0.113801,-0.659436
0.256000,-0.184147,1.445316,0.280349,0.992568,-0.063453,0.000575,-0.103842,0.020211,0.544712,-0.073725,-0.051870,-0.003816,0.172605,-0.200290,-0.613267,-0.310622,0.102545,1.019522,-0.424373,-0.028005,-1.002469,0.532329,0.172129,0.857327,-0.306998,-1.457362,0.845537,-1.457191,6.796594,-2.912682,6.593139,-5.612680,-1.323203,1.733035,1.671446,0.034770,-0.572746
0.258000,-0.184114,1.446412,0.280225,0.992585,-0.063433,0.000612,-0.103687,0.016511,0.548015,-0.061946,0.016781,0.028054,0.157573,-0.203275,-0.611565,-0.313432,0.116005,1.012188,-0.406481,-0.038537,-1.003571,0.531246,0.175577,0.857105,-0.307776,-1.492192,0.850967,-1.405145,6.730091,-3.666953,8.945565,-5.265548,-0.551075,-0.541325,1.724000,-0.111416,-0.388838
0.260000,-0.184086,1.447494,0.280096,0.992598,-0.063529,0.000681,-0.103504,0.013874,0.541141,-0.064507,-0.102199,0.046809,0.187882,-0.206000,-0.609970,-0.316127,0.128624,1.004990,-0.392464,-0.049972,-1.004528,0.532671,0.178699,0.856791,-0.308538,-1.362695,0.797193,-1.347533,6.309366,-3.599410,7.008646,-5.717948,-0.478165,0.712225,1.560800,-0.156925,-0.381095
0.262000,-0.184065,1.448579,0.280000,0.992610,-0.063584,0.000756,-0.103350,0.010764,0.542484,-0.048183,-0.061323,0.059501,0.159022,-0.208696,-0.608307,-0.318855,0.141134,0.996082,-0.371912,-0.060381,-1.003630,0.527701,0.181891,0.856288,-0.309005,-1.348017,0.831488,-1.364075,6.254924,-4.453744,10.275861,-5.204135,0.448613,-2.484793,1.596490,-0.251188,-0.233316
0.264000,-0.184042,1.449654,0.279897,0.992622,-0.063696,0.000819,-0.103165,0.011622,0.537626,-0.051411,-0.117448,0.039269,0.188203,-0.211243,-0.606785,-0.321553,0.152398,0.987448,-0.354974,-0.071468,-1.002876,0.525869,0.184902,0.855864,-0.309577,-1.273758,0.760937,-1.348805,5.631938,-4.316911,8.469177,-5.543465,0.377340,-0.916075,1.505402,-0.212058,-0.286279
0.266000,-0.184014,1.450755,0.279820,0.992647,-0.063557,0.000826,-0.103013,0.013637,0.550155,-0.038460,0.139561,0.011526,0.154463,-0.214207,-0.605282,-0.324255,0.162515,0.977455,-0.332470,-0.080614,-1.000431,0.517910,0.188459,0.855377,-0.309891,-1.481965,0.751866,-1.350861,5.058615,-4.996652,11.252053,-4.573148,1.222632,-3.979311,1.778181,-0.243750,-0.156735
0.268000,-0.183983,1.451838,0.279730,0.992668,-0.063537,0.000806,-0.102827,0.015915,0.541635,-0.045047,0.023029,-0.029455,0.184759,-0.216874,-0.603946,-0.326967,0.171339,0.968096,-0.314884,-0.090589,-0.998442,0.514126,0.191721,0.855117,-0.310482,-1.333273,0.667976,-1.356355,4.411944,-4.679580,8.793205,-4.987665,0.994496,-1.891984,1.630996,-0.129758,-0.295485
0.270000,-0.183947,1.452937,0.279663,0.992695,-0.063349,0.000732,-0.102683,0.017646,0.549450,-0.033586,0.195616,-0.063883,0.141280,-0.219752,-0.602616,-0.329707,0.179254,0.957505,-0.291892,-0.098543,-0.994702,0.503817,0.195374,0.854884,-0.310930,-1.439139,0.665018,-1.369683,3.957472,-5.295554,11.495558,-3.976988,1.869556,-5.154775,1.826900,-0.116773,-0.224180
0.272000,-0.183911,1.453998,0.279582,0.992706,-0.063451,0.000649,-0.102515,0.018005,0.530596,-0.040210,-0.092452,-0.102907,0.163194,-0.221940,-0.601418,-0.332501,0.186659,0.947440,-0.272811,-0.107626,-0.991407,0.497432,0.198390,0.854957,-0.311802,-1.094109,0.598637,-1.396887,3.702382,-5.032500,9.540466,-4.541113,1.647497,-3.192625,1.507873,0.036675,-0.435710
0.274000,-0.183870,1.455062,0.279540,0.992714,-0.063540,0.000496,-0.102383,0.020782,0.531710,-0.020993,-0.072616,-0.169771,0.122135,-0.223085,-0.600220,-0.337763,0.193548,0.936123,-0.247906,-0.114750,-0.986283,0.483654,0.201489,0.855201,-0.312667,-0.572291,0.598996,-2.631205,3.444807,-5.658463,12.452587,-3.562469,2.562095,-6.888702,1.549612,0.121881,-0.432624
0.276000,-0.183824,1.456112,0.279470,0.992724,-0.063632,0.000327,-0.102229,0.022984,0.525044,-0.035017,-0.072754,-0.186761,0.142652,-0.223960,-0.600031,-0.339769,0.199318,0.925378,-0.227335,-0.122161,-0.981698,0.474529,0.204533,0.855585,-0.313737,-0.437567,0.094789,-1.002847,2.884868,-5.372388,10.285876,-3.705185,2.292480,-4.562770,1.521625,0.192165,-0.535280
0.278000,-0.183775,1.457208,0.279405,0.992759,-0.063256,0.000104,-0.102120,0.024485,0.547957,-0.032763,0.398244,-0.190176,0.097446,-0.225781,-0.600136,-0.340314,0.203508,0.913624,-0.202789,-0.126538,-0.975430,0.459780,0.208581,0.855783,-0.314435,-0.910582,-0.052309,-0.272831,2.095185,-5.876853,12.272860,-2.188619,3.134374,-7.374231,2.024280,0.098962,-0.348828
0.280000,-0.183734,1.458272,0.279320,0.992780,-0.063144,-0.000097,-0.101984,0.020411,0.532036,-0.042573,0.133311,-0.196896,0.124759,-0.227326,-0.599744,-0.341710,0.207495,0.902438,-0.182499,-0.132038,-0.969776,0.449744,0.212031,0.856116,-0.315435,-0.772534,0.195686,-0.697698,1.993163,-5.593109,10.144885,-2.749959,2.826793,-5.018151,1.725012,0.166459,-0.500117
0.282000,-0.183699,1.459336,0.279268,0.992794,-0.063111,-0.000325,-0.101871,0.017661,0.532221,-0.025641,0.056266,-0.230072,0.099233,-0.228256,-0.598169,-0.349056,0.211366,0.890298,-0.157899,-0.136092,-0.962572,0.433463,0.215351,0.856472,-0.316378,-0.464971,0.787569,-3.673233,1.935533,-6.070304,12.300096,-2.027236,3.601766,-8.140545,1.660031,0.178010,-0.471505
0.284000,-0.183668,1.460369,0.279188,0.992799,-0.063238,-0.000501,-0.101735,0.015366,0.516317,-0.040116,-0.108013,-0.196248,0.124206,-0.228784,-0.597457,-0.353065,0.215116,0.878656,-0.136499,-0.140991,-0.955979,0.421141,0.218251,0.856817,-0.317468,-0.263869,0.355993,-2.004436,1.874922,-5.820858,10.699722,-2.449353,3.296490,-6.160957,1.449611,0.172468,-0.544918
0.286000,-0.183636,1.461433,0.279101,0.992825,-0.062992,-0.000672,-0.101634,0.015990,0.532072,-0.043391,0.263769,-0.150830,0.092081,-0.229942,-0.597728,-0.353515,0.217726,0.866447,-0.112333,-0.143439,-0.948052,0.403681,0.221913,0.856856,-0.318149,-0.579130,-0.135644,-0.224976,1.305052,-6.104192,12.083204,-1.224103,3.963790,-8.729833,1.831165,0.019376,-0.340533
0.288000,-0.183608,1.462474,0.278988,0.992845,-0.062887,-0.000809,-0.101507,0.014050,0.520402,-0.056776,0.119380,-0.133195,0.119277,-0.231092,-0.597861,-0.353726,0.220107,0.854925,-0.091510,-0.146678,-0.940949,0.390490,0.225216,0.856926,-0.319005,-0.574717,-0.066420,-0.105717,1.190722,-5.761165,10.411546,-1.619094,3.551387,-6.595487,1.651541,0.035258,-0.428104
0.290000,-0.183581,1.463541,0.278879,0.992875,-0.062574,-0.000962,-0.101405,0.013370,0.533752,-0.054481,0.328533,-0.126746,0.095090,-0.233032,-0.597437,-0.354692,0.221594,0.843114,-0.068430,-0.148057,-0.932876,0.373237,0.228978,0.856856,-0.319638,-0.970124,0.212173,-0.482767,0.743587,-5.905512,11.540059,-0.689525,4.036597,-8.626864,1.881013,-0.035074,-0.316455
0.292000,-0.183553,1.464574,0.278764,0.992886,-0.062594,-0.001102,-0.101284,0.014246,0.516574,-0.057464,-0.004848,-0.148017,0.111807,-0.234568,-0.596430,-0.356732,0.222663,0.834082,-0.051030,-0.150535,-0.925611,0.359331,0.232043,0.857023,-0.320618,-0.767945,0.503493,-1.020069,0.534133,-4.516275,8.699836,-1.239241,3.632599,-6.952739,1.532432,0.083541,-0.489877
0.294000,-0.183524,1.465618,0.278665,0.992896,-0.062578,-0.001265,-0.101191,0.014169,0.521721,-0.049556,0.033145,-0.166365,0.083499,-0.236372,-0.594935,-0.359537,0.222801,0.827128,-0.037780,-0.151641,-0.917538,0.341731,0.235233,0.857197,-0.321528,-0.902256,0.747592,-1.402361,0.069046,-3.476750,6.625180,-0.553017,4.036132,-8.800071,1.595294,0.087122,-0.454854
0.296000,-0.183496,1.466637,0.278589,0.992901,-0.062629,-0.001519,-0.101106,0.013895,0.509531,-0.037950,-0.024672,-0.263112,0.069154,-0.238103,-0.593049,-0.363251,0.222458,0.821803,-0.027554,-0.152939,-0.910351,0.327318,0.238268,0.857685,-0.322644,-0.865106,0.942957,-1.857153,-0.171226,-2.662684,5.112872,-0.648904,3.593462,-7.206454,1.517159,0.243572,-0.557953
0.298000,-0.183471,1.467673,0.278557,0.992924,-0.062311,-0.001925,-0.101069,0.012617,0.517883,-0.015771,0.357899,-0.373086,0.013155,-0.240561,-0.590940,-0.367490,0.220911,0.817474,-0.019059,-0.152281,-0.902990,0.311565,0.242066,0.858279,-0.323542,-1.229223,1.054522,-2.119528,-0.773538,-2.164138,4.247576,0.328815,3.680610,-7.876408,1.898975,0.297096,-0.449064
0.300000,-0.183460,1.468656,0.278578,0.992936,-0.062123,-0.002425,-0.101060,0.005624,0.491719,0.010485,0.238585,-0.478193,-0.021747,-0.242282,-0.589309,-0.370428,0.219375,0.814039,-0.012094,-0.151995,-0.896247,0.297909,0.245506,0.859127,-0.324532,-0.860451,0.815597,-1.469164,-0.768115,-1.717720,3.482318,0.143079,3.371506,-6.828291,1.720100,0.423967,-0.495094
0.302000,-0.183469,1.469607,0.278659,0.992943,-0.061923,-0.003001,-0.101097,-0.004700,0.475636,0.040607,0.257097,-0.549337,-0.071569,-0.243527,-0.588184,-0.371826,0.217655,0.811186,-0.006168,-0.150993,-0.889136,0.282588,0.248885,0.859992,-0.325343,-0.622305,0.562317,-0.698770,-0.859949,-1.426696,2.963316,0.501120,3.555757,-7.660425,1.689334,0.432527,-0.405354
0.304000,-0.183510,1.470492,0.278810,0.992930,-0.061991,-0.003635,-0.101159,-0.020446,0.442229,0.075399,-0.004844,-0.632346,-0.102527,-0.243825,-0.587039,-0.373089,0.216410,0.808786,-0.001045,-0.150762,-0.882308,0.268439,0.251576,0.860968,-0.326162,-0.149053,0.572588,-0.631557,-0.622667,-1.199635,2.561332,0.115346,3.413807,-7.074560,1.345608,0.487967,-0.409553
0.306000,-0.183573,1.471346,0.279040,0.992914,-0.062071,-0.004402,-0.101236,-0.031526,0.427182,0.114739,-0.003018,-0.764703,-0.124986,-0.243163,-0.585375,-0.378252,0.215056,0.806575,0.003919,-0.150226,-0.875760,0.254937,0.254142,0.862095,-0.326891,0.330784,0.831601,-2.581553,-0.676794,-1.105828,2.481810,0.268271,3.274177,-6.750679,1.283066,0.563596,-0.364445
0.308000,-0.183660,1.472168,0.279335,0.992900,-0.062078,-0.005269,-0.101328,-0.043128,0.411016,0.147645,0.079965,-0.855787,-0.146213,-0.241632,-0.584191,-0.382460,0.213514,0.804439,0.008840,-0.149497,-0.869629,0.242724,0.256711,0.863229,-0.327412,0.765519,0.592116,-2.104095,-0.771036,-1.067819,2.460476,0.364452,3.065403,-6.106631,1.284727,0.567082,-0.260496
0.310000,-0.183759,1.473020,0.279673,0.992926,-0.061396,-0.006287,-0.101434,-0.049748,0.425875,0.169088,0.781415,-0.935683,-0.169411,-0.240923,-0.583943,-0.383392,0.210512,0.802096,0.014206,-0.146787,-0.864067,0.232345,0.260546,0.864140,-0.327348,0.354742,0.124152,-0.465879,-1.501046,-1.171472,2.683371,1.354878,2.780935,-5.189467,1.917183,0.455553,0.031673
0.312000,-0.183887,1.473849,0.280077,0.992955,-0.060602,-0.007380,-0.101554,-0.063773,0.414333,0.201820,0.900073,-0.997253,-0.188443,-0.239919,-0.583648,-0.384803,0.207299,0.799632,0.019815,-0.143648,-0.858531,0.221039,0.264451,0.864920,-0.326962,0.501714,0.147464,-0.705482,-1.606461,-1.232241,2.804108,1.569325,2.768038,-5.653091,1.952489,0.390175,0.193135
0.314000,-0.184038,1.474664,0.280540,0.992994,-0.059601,-0.008599,-0.101668,-0.075500,0.407713,0.231460,1.119448,-1.101116,-0.191189,-0.239136,-0.582762,-0.389115,0.203644,0.796952,0.025940,-0.140163,-0.853837,0.211886,0.268620,0.865704,-0.326355,0.391615,0.443197,-2.155821,-1.827407,-1.339725,3.062845,1.742709,2.346778,-4.576289,2.084433,0.392018,0.303350
0.316000,-0.184226,1.475413,0.281071,0.993014,-0.058864,-0.009838,-0.101796,-0.094272,0.374445,0.265496,0.857735,-1.147767,-0.204713,-0.237267,-0.581758,-0.393348,0.200637,0.794176,0.032245,-0.137527,-0.849197,0.201713,0.272059,0.866464,-0.325676,0.934506,0.501989,-2.116616,-1.503840,-1.388142,3.152331,1.317754,2.320009,-5.086888,1.719904,0.379699,0.339920
0.318000,-0.184434,1.476127,0.281634,0.993038,-0.057998,-0.011166,-0.101921,-0.103986,0.357129,0.281592,0.995071,-1.222478,-0.208917,-0.235764,-0.581343,-0.395362,0.197441,0.791253,0.038960,-0.135121,-0.845840,0.195508,0.275587,0.867296,-0.324943,0.751642,0.207287,-1.007089,-1.597558,-1.461642,3.357700,1.203300,1.678937,-3.102264,1.763986,0.415827,0.366434
0.320000,-0.184675,1.476786,0.282246,0.993046,-0.057306,-0.012504,-0.102071,-0.120665,0.329286,0.306150,0.821891,-1.249571,-0.233350,-0.234017,-0.580897,-0.396560,0.194741,0.788213,0.045907,-0.133130,-0.842368,0.187553,0.278612,0.868088,-0.324145,0.873256,0.223017,-0.598860,-1.350467,-1.519762,3.473468,0.995354,1.735973,-3.977698,1.512547,0.395999,0.398953
0.322000,-0.184927,1.477423,0.282887,0.993060,-0.056471,-0.013973,-0.102217,-0.125914,0.318656,0.320528,0.978396,-1.365296,-0.237568,-0.232759,-0.579854,-0.400178,0.191770,0.785015,0.053475,-0.131081,-0.840295,0.183633,0.281835,0.869137,-0.323450,0.629132,0.521297,-1.809249,-1.485215,-1.599125,3.783772,1.024312,1.036356,-1.959875,1.611385,0.524797,0.347238
0.324000,-0.185204,1.478021,0.283565,0.993061,-0.055734,-0.015462,-0.102394,-0.138173,0.299105,0.339002,0.881707,-1.392666,-0.270346,-0.231348,-0.578484,-0.404065,0.189120,0.781714,0.061329,-0.128841,-0.837831,0.176852,0.284778,0.870186,-0.322718,0.705436,0.685093,-1.943507,-1.325159,-1.650175,3.927308,1.120238,1.231723,-3.390309,1.471264,0.524431,0.366299
0.326000,-0.185490,1.478589,0.284202,0.993060,-0.055047,-0.016891,-0.102550,-0.143042,0.284005,0.318132,0.826106,-1.340538,-0.245441,-0.230244,-0.577450,-0.405810,0.187133,0.778715,0.067887,-0.127064,-0.836431,0.174654,0.287512,0.871175,-0.322128,0.551949,0.516914,-0.872065,-0.993633,-1.499878,3.278910,0.888286,0.700429,-1.098905,1.367310,0.494656,0.294950
0.328000,-0.185797,1.479123,0.284813,0.993046,-0.054579,-0.018189,-0.102716,-0.153577,0.266997,0.305731,0.594735,-1.231989,-0.245687,-0.229163,-0.576293,-0.406883,0.186234,0.775974,0.073025,-0.125345,-0.834365,0.169932,0.289733,0.871898,-0.321525,0.540684,0.578775,-0.536820,-0.449317,-1.370527,2.568846,0.859506,1.032844,-2.361428,1.110447,0.361383,0.301239
0.330000,-0.186100,1.479660,0.285342,0.993036,-0.054135,-0.019360,-0.102830,-0.151798,0.268285,0.264300,0.557904,-1.111357,-0.186505,-0.229086,-0.574752,-0.409529,0.184945,0.776084,0.065058,-0.123855,-0.833306,0.169771,0.291864,0.872430,-0.321070,0.038185,0.770390,-1.323003,-0.644333,0.055269,-3.983353,0.744991,0.529548,-0.080225,1.065360,0.265816,0.227715
0.332000,-0.186403,1.480213,0.285847,0.993037,-0.053449,-0.020520,-0.102952,-0.151192,0.276366,0.252639,0.798386,-1.074248,-0.196476,-0.230126,-0.572991,-0.413047,0.183452,0.775820,0.059324,-0.120951,-0.831943,0.167121,0.294488,0.872811,-0.320471,-0.519904,0.880447,-1.758933,-0.746561,-0.132138,-2.867069,1.452471,0.681582,-1.325070,1.312099,0.190750,0.299698
0.334000,-0.186683,1.480781,0.286301,0.993056,-0.052430,-0.021718,-0.103047,-0.139899,0.284321,0.226830,1.134332,-1.079925,-0.177357,-0.232272,-0.571712,-0.415481,0.181419,0.776106,0.055054,-0.117191,-0.832010,0.168942,0.297777,0.873311,-0.319978,-1.072701,0.639413,-1.217090,-1.016505,0.143130,-2.134935,1.879612,-0.033698,0.910629,1.644321,0.249802,0.246289
0.336000,-0.186962,1.481317,0.286754,0.993062,-0.051578,-0.022896,-0.103165,-0.139717,0.267944,0.226665,0.965371,-1.076000,-0.196622,-0.233873,-0.570735,-0.417029,0.179751,0.776323,0.052561,-0.113135,-0.831692,0.167189,0.300722,0.873926,-0.319636,-0.800544,0.488660,-0.773651,-0.834012,0.108299,-1.246410,2.027899,0.158823,-0.876668,1.472407,0.307543,0.170915
0.338000,-0.187235,1.481796,0.287180,0.993047,-0.051157,-0.024018,-0.103269,-0.136258,0.239469,0.213211,0.530941,-1.065470,-0.172544,-0.234430,-0.569768,-0.419584,0.179093,0.777719,0.049359,-0.110290,-0.832215,0.167749,0.302761,0.874842,-0.319797,-0.278460,0.483696,-1.277760,-0.328908,0.698006,-1.601192,1.422815,-0.261293,0.280126,1.019737,0.457851,-0.080415
0.340000,-0.187511,1.482227,0.287601,0.993012,-0.051087,-0.025067,-0.103384,-0.138365,0.215426,0.210474,0.172772,-1.029612,-0.173825,-0.234020,-0.568797,-0.422556,0.179662,0.779089,0.050172,-0.107982,-0.832420,0.166194,0.304059,0.875818,-0.320159,0.204685,0.485442,-1.486164,0.284445,0.685199,0.406624,1.153721,-0.102704,-0.777578,0.648738,0.488147,-0.181010
0.342000,-0.187781,1.482659,0.287981,0.992982,-0.051024,-0.026032,-0.103467,-0.134912,0.216028,0.189638,0.158739,-0.948241,-0.136149,-0.233777,-0.568020,-0.425119,0.179289,0.782703,0.042800,-0.105766,-0.832957,0.166340,0.305308,0.876622,-0.320507,0.121712,0.388277,-1.281313,-0.186656,1.806790,-3.686328,1.108116,-0.268270,0.073081,0.624728,0.402235,-0.174099
0.344000,-0.188049,1.483119,0.288345,0.992970,-0.050626,-0.026982,-0.103535,-0.134097,0.230122,0.181997,0.491090,-0.898494,-0.127441,-0.234391,-0.567417,-0.426978,0.178015,0.786151,0.037690,-0.102399,-0.833221,0.165597,0.307193,0.877119,-0.320506,-0.306904,0.301448,-0.929393,-0.637134,1.724059,-2.554675,1.683839,-0.131818,-0.371430,0.942628,0.248159,0.000770
0.346000,-0.188324,1.483611,0.288705,0.992978,-0.049862,-0.027924,-0.103580,-0.137134,0.246131,0.180250,0.855587,-0.854357,-0.111819,-0.235983,-0.566624,-0.429415,0.175840,0.788752,0.036571,-0.097982,-0.833121,0.164345,0.309744,0.877237,-0.320060,-0.796325,0.396753,-1.218428,-1.087313,1.300712,-0.559671,2.208324,0.049594,-0.626306,1.275505,0.059139,0.222718
0.348000,-0.188618,1.484084,0.289068,0.992982,-0.049222,-0.028783,-0.103608,-0.147341,0.236099,0.181449,0.723834,-0.785165,-0.088529,-0.237214,-0.565643,-0.432173,0.174106,0.790499,0.038171,-0.093996,-0.832468,0.162144,0.311932,0.877066,-0.319444,-0.615152,0.490666,-1.379092,-0.866840,0.873435,0.800128,1.993148,0.326908,-1.100470,1.093608,-0.085236,0.308180
0.350000,-0.188927,1.484806,0.289399,0.993063,-0.046829,-0.029514,-0.103738,-0.154160,0.361216,0.165564,2.451904,-0.468883,-0.225091,-0.243319,-0.565039,-0.428946,0.165583,0.794509,0.028409,-0.080432,-0.823169,0.133576,0.317887,0.874988,-0.316664,-3.052671,0.301866,1.613289,-4.261475,2.004940,-4.881210,6.781735,4.649443,-14.284104,2.977770,-1.039091,1.389772
0.352000,-0.189283,1.485548,0.289792,0.993137,-0.044590,-0.030032,-0.103868,-0.178311,0.371170,0.196403,2.277098,-0.273456,-0.212433,-0.249278,-0.563019,-0.429916,0.155687,0.798573,0.018194,-0.068469,-0.814114,0.109381,0.323243,0.871955,-0.313300,-2.979444,1.010033,-0.484780,-4.948092,2.031911,-5.107185,5.981357,4.527278,-12.097092,2.677931,-1.516755,1.682111
0.354000,-0.189681,1.486172,0.290249,0.993159,-0.043486,-0.030506,-0.103992,-0.199122,0.311910,0.228429,1.143145,-0.350095,-0.174815,-0.251874,-0.559927,-0.436358,0.147725,0.800890,0.018021,-0.060080,-0.806098,0.089154,0.325195,0.869778,-0.313326,-1.298354,1.545797,-3.221018,-3.981011,1.158611,-0.086778,4.194688,4.008080,-10.113560,0.975979,-1.088206,-0.013170
0.356000,-0.190101,1.486643,0.290710,0.993131,-0.043574,-0.030957,-0.104090,-0.209548,0.235399,0.230796,-0.044691,-0.453830,-0.117403,-0.250406,-0.558158,-0.438970,0.142017,0.802288,0.023215,-0.055315,-0.799463,0.072821,0.323663,0.869111,-0.317258,0.734064,0.884370,-1.305975,-2.854011,0.698988,2.596888,2.382536,3.317679,-8.166666,-0.766091,-0.333656,-1.965916
0.358000,-0.190522,1.487042,0.291140,0.993086,-0.044192,-0.031371,-0.104128,-0.210651,0.199351,0.214854,-0.573867,-0.474915,-0.040830,-0.247016,-0.557816,-0.437420,0.136184,0.804591,0.022692,-0.053066,-0.794339,0.064077,0.320771,0.869428,-0.322467,1.695297,0.171421,0.774954,-2.916510,1.151503,-0.261479,1.124258,2.561882,-4.371970,-1.445813,0.158265,-2.604262
0.360000,-0.190932,1.487481,0.291535,0.993069,-0.044415,-0.031809,-0.104061,-0.204886,0.219665,0.197306,-0.174592,-0.461733,0.052692,-0.244962,-0.557451,-0.437781,0.127914,0.807654,0.015626,-0.050293,-0.790228,0.059376,0.316586,0.868798,-0.315433,1.026660,0.182021,-0.180552,-4.134908,1.531584,-3.532877,1.386496,2.055370,-2.350597,-2.092504,-0.314633,3.516665
0.362000,-0.191327,1.488027,0.291909,0.993093,-0.043748,-0.032338,-0.103960,-0.197731,0.273172,0.186975,0.721336,-0.459648,0.058018,-0.245851,-0.556274,-0.442163,0.117071,0.809696,0.010786,-0.045601,-0.786922,0.057153,0.315052,0.868525,-0.309841,-0.444097,0.588981,-2.191070,-5.421794,1.020946,-2.419915,2.346443,1.653246,-1.111254,-0.767096,-0.136834,2.796020
0.364000,-0.191731,1.488597,0.292266,0.993119,-0.042939,-0.032803,-0.103897,-0.201710,0.284860,0.178619,0.855400,-0.380001,0.018301,-0.247451,-0.555118,-0.445593,0.106587,0.810121,0.011183,-0.040917,-0.783878,0.055404,0.314598,0.869288,-0.306443,-0.800166,0.577546,-1.714903,-5.241992,0.212602,0.198399,2.341557,1.521780,-0.874702,-0.226922,0.381653,1.699273
0.366000,-0.192168,1.489130,0.292600,0.993121,-0.042650,-0.033023,-0.103933,-0.218971,0.266222,0.167148,0.309109,-0.187098,-0.054056,-0.248049,-0.554226,-0.445633,0.098356,0.809805,0.012324,-0.037505,-0.780175,0.053033,0.313961,0.870929,-0.306845,-0.299205,0.446402,-0.019996,-4.115313,-0.158329,0.570659,1.706315,1.851663,-1.185518,-0.318650,0.820721,-0.201132
0.368000,-0.192649,1.489627,0.292911,0.993095,-0.042980,-0.032931,-0.104066,-0.240140,0.248720,0.155649,-0.342873,0.062839,-0.120759,-0.247718,-0.552841,-0.445390,0.092298,0.809764,0.009360,-0.035491,-0.775429,0.049624,0.312620,0.872620,-0.308308,0.165612,0.692350,0.121274,-3.028951,-0.020535,-1.482305,1.006935,2.372876,-1.704301,-0.670156,0.845406,-0.731510
0.370000,-0.193165,1.490135,0.293211,0.993061,-0.043550,-0.032570,-0.104275,-0.258071,0.253943,0.149723,-0.612027,0.306574,-0.176904,-0.247641,-0.550321,-0.448266,0.087336,0.809939,0.003227,-0.034028,-0.769706,0.045309,0.311266,0.873452,-0.309445,0.038764,1.260174,-1.437608,-2.480999,0.087886,-3.066092,0.731603,2.861634,-2.157440,-0.677329,0.416031,-0.568603
0.372000,-0.193696,1.490713,0.293505,0.993044,-0.043672,-0.032040,-0.104541,-0.265355,0.289022,0.147229,-0.185921,0.524662,-0.238763,-0.249235,-0.547621,-0.450935,0.082027,0.809454,-0.000339,-0.031646,-0.763328,0.040579,0.311442,0.872915,-0.309399,-0.796989,1.349661,-1.334909,-2.654723,-0.242845,-1.783335,1.190794,3.189070,-2.365066,0.088148,-0.268422,0.022923
0.374000,-0.194226,1.491366,0.293795,0.993051,-0.043231,-0.031394,-0.104858,-0.265316,0.326321,0.144727,0.360118,0.701838,-0.299804,-0.252489,-0.545370,-0.451631,0.076017,0.808359,0.000200,-0.028080,-0.756512,0.035640,0.313282,0.871142,-0.308114,-1.627278,1.125739,-0.347667,-3.004812,-0.547243,0.269768,1.782866,3.407606,-2.469627,0.920168,-0.886543,0.642879
0.376000,-0.194751,1.492030,0.294073,0.993053,-0.042842,-0.030615,-0.105233,-0.262189,0.332059,0.139290,0.293084,0.830895,-0.350648,-0.255711,-0.543459,-0.451946,0.070249,0.807930,0.000076,-0.024607,-0.749278,0.030248,0.315047,0.869220,-0.302986,-1.611041,0.955530,-0.157542,-2.884226,-0.214785,-0.061885,1.736536,3.617141,-2.696190,0.882438,-0.961008,2.564048
0.378000,-0.195266,1.492650,0.294334,0.993022,-0.043082,-0.029737,-0.105673,-0.257915,0.310114,0.130269,-0.345948,0.864440,-0.394591,-0.257382,-0.541423,-0.454883,0.065703,0.808954,-0.003264,-0.022398,-0.741815,0.024356,0.315733,0.868549,-0.299885,-0.835318,1.017732,-1.468585,-2.272757,0.512279,-1.670442,1.104729,3.731490,-2.945633,0.342854,-0.335488,1.550137
0.380000,-0.195763,1.493238,0.294572,0.992967,-0.043760,-0.028822,-0.106168,-0.248236,0.293947,0.119187,-0.786556,0.855972,-0.437920,-0.257702,-0.539997,-0.457595,0.061978,0.810979,-0.007395,-0.021037,-0.734392,0.018285,0.315929,0.869519,-0.300763,-0.160205,0.712948,-1.356121,-1.862698,1.012581,-2.065229,0.680575,3.711706,-3.035809,0.098247,0.484610,-0.438745
0.382000,-0.196234,1.493842,0.294797,0.992909,-0.044367,-0.027922,-0.106690,-0.235487,0.301922,0.112401,-0.715684,0.851121,-0.467688,-0.257922,-0.539333,-0.459255,0.057964,0.813174,-0.009273,-0.019464,-0.727160,0.012337,0.316434,0.871264,-0.302407,-0.109617,0.331945,-0.829750,-2.006623,1.097531,-0.939146,0.786470,3.615999,-2.973970,0.252374,0.872958,-0.821887
0.384000,-0.196680,1.494500,0.295012,0.992870,-0.044537,-0.027039,-0.107211,-0.223305,0.329408,0.107564,-0.279138,0.880629,-0.477419,-0.259115,-0.539251,-0.460098,0.052728,0.815210,-0.009039,-0.016934,-0.720100,0.006622,0.317575,0.872687,-0.300944,-0.596805,0.041442,-0.421597,-2.618235,1.017769,0.116928,1.264852,3.529750,-2.857554,0.570416,0.711464,0.731529
0.386000,-0.197113,1.495209,0.295216,0.992846,-0.044385,-0.026151,-0.107720,-0.216337,0.354081,0.101798,0.040182,0.919592,-0.472815,-0.261236,-0.539056,-0.462447,0.046455,0.817213,-0.008853,-0.013704,-0.713107,0.001009,0.318893,0.873453,-0.296538,-1.060353,0.097319,-1.174664,-3.136380,1.001557,0.093009,1.615224,3.496840,-2.806294,0.658971,0.382886,2.202882
0.388000,-0.197545,1.495915,0.295396,0.992813,-0.044406,-0.025216,-0.108232,-0.216001,0.353028,0.089886,-0.136523,0.948215,-0.470189,-0.262946,-0.538812,-0.465418,0.040375,0.819508,-0.011102,-0.010824,-0.706045,-0.004761,0.319490,0.874156,-0.293593,-0.854981,0.121817,-1.485581,-3.040057,1.147655,-1.124373,1.439838,3.530797,-2.884880,0.298473,0.351526,1.472264
0.390000,-0.197983,1.496598,0.295552,0.992765,-0.044755,-0.024231,-0.108757,-0.219143,0.341720,0.078065,-0.468433,0.962257,-0.473937,-0.263723,-0.538614,-0.468050,0.035214,0.821596,-0.014011,-0.008628,-0.698887,-0.010757,0.319144,0.875028,-0.293896,-0.388715,0.099041,-1.315943,-2.580579,1.043794,-1.454725,1.097785,3.579024,-2.998394,-0.172927,0.436037,-0.151349
0.392000,-0.198424,1.497284,0.295688,0.992713,-0.045147,-0.023215,-0.109291,-0.220304,0.343086,0.068348,-0.514270,0.988015,-0.480239,-0.264241,-0.538647,-0.469114,0.030525,0.822935,-0.015412,-0.006475,-0.691727,-0.016793,0.318395,0.875639,-0.295024,-0.258717,-0.016160,-0.531937,-2.344268,0.669620,-0.700136,1.076680,3.580164,-3.017647,-0.374375,0.305371,-0.564002
0.394000,-0.198864,1.498000,0.295813,0.992667,-0.045377,-0.022188,-0.109823,-0.219885,0.357792,0.062155,-0.355132,1.017932,-0.481551,-0.265233,-0.538225,-0.471261,0.025736,0.823488,-0.015470,-0.003866,-0.684661,-0.022726,0.317588,0.875559,-0.294213,-0.496322,0.210665,-1.073550,-2.394673,0.276412,-0.029038,1.304674,3.532621,-2.966598,-0.403665,-0.039941,0.405630
0.396000,-0.199296,1.498751,0.295915,0.992630,-0.045390,-0.021155,-0.110355,-0.215905,0.375770,0.051092,-0.140205,1.047079,-0.485464,-0.266837,-0.537506,-0.473817,0.020483,0.823779,-0.016345,-0.000603,-0.677836,-0.028376,0.317033,0.875013,-0.291697,-0.801690,0.359601,-1.277640,-2.626319,0.145608,-0.437480,1.631436,3.412770,-2.824822,-0.277506,-0.272894,1.257627
0.398000,-0.199716,1.499525,0.295989,0.992594,-0.045307,-0.020128,-0.110898,-0.210201,0.386674,0.036907,-0.044119,1.052164,-0.498126,-0.268670,-0.536618,-0.476277,0.015058,0.824027,-0.018279,0.003107,-0.671354,-0.033671,0.316760,0.874572,-0.289458,-0.916627,0.444153,-1.230158,-2.712928,0.123769,-0.966908,1.855019,3.240891,-2.647932,-0.136509,-0.220629,1.119805
0.400000,-0.200125,1.500292,0.296033,0.992549,-0.045358,-0.019102,-0.111465,-0.204719,0.383717,0.022302,-0.177277,1.037773,-0.519734,-0.269994,-0.535820,-0.477708,0.010124,0.824292,-0.020553,0.006739,-0.665154,-0.038762,0.316438,0.874728,-0.289150,-0.662020,0.398875,-0.715534,-2.466879,0.132558,-1.137294,1.815844,3.099787,-2.545335,-0.161147,0.077901,0.153985
0.402000,-0.200482,1.501275,0.296085,0.992557,-0.043947,-0.018370,-0.112076,-0.178457,0.491447,0.025632,1.307057,0.911878,-0.599496,-0.276962,-0.529663,-0.500057,0.001901,0.823093,-0.014713,0.013888,-0.659893,-0.042601,0.323283,0.877165,-0.297301,-3.484224,3.078730,-11.174444,-4.111258,-0.599239,2.920171,3.574511,2.630744,-1.919393,3.422654,1.218767,-4.075433
0.404000,-0.200831,1.502282,0.296081,0.992570,-0.042219,-0.017443,-0.112771,-0.174479,0.503360,-0.002022,1.599771,1.144898,-0.679079,-0.284325,-0.526250,-0.506494,-0.006302,0.822460,-0.012356,0.021473,-0.653773,-0.047063,0.332103,0.878928,-0.302297,-3.681523,1.706483,-3.218322,-4.101752,-0.316932,1.178539,3.792766,3.059974,-2.231061,4.410177,0.881335,-2.497918
0.406000,-0.201200,1.503132,0.296007,0.992531,-0.041599,-0.016125,-0.113539,-0.184345,0.424973,-0.036977,0.451586,1.409499,-0.721944,-0.287674,-0.528198,-0.488180,-0.010909,0.823346,-0.017244,0.026342,-0.646363,-0.053008,0.337846,0.879601,-0.301539,-1.674353,-0.974403,9.156879,-2.303233,0.443220,-2.444287,2.434173,3.704819,-2.972386,2.871426,0.336620,0.378674
0.408000,-0.201601,1.503810,0.295958,0.992413,-0.042870,-0.014676,-0.114294,-0.200271,0.339039,-0.024274,-1.443053,1.322842,-0.682161,-0.287176,-0.526213,-0.488226,-0.010951,0.824923,-0.023790,0.027016,-0.638459,-0.060320,0.338450,0.880388,-0.298301,0.248876,0.992851,-0.023169,-0.021190,0.788531,-3.272904,0.337206,3.952249,-3.656257,0.301993,0.393104,1.618887
0.410000,-0.201976,1.504418,0.295883,0.992265,-0.044743,-0.013289,-0.115028,-0.187763,0.304306,-0.037570,-2.034982,1.192460,-0.658605,-0.285104,-0.525365,-0.487975,-0.009438,0.826705,-0.030520,0.026299,-0.631008,-0.067501,0.338522,0.883296,-0.303601,1.036038,0.423761,0.125610,0.756380,0.890999,-3.364869,-0.358824,3.725582,-3.590499,0.035667,1.454046,-2.649543
0.412000,-0.202298,1.505137,0.295786,0.992166,-0.045555,-0.012103,-0.115694,-0.160903,0.359308,-0.048310,-0.955159,1.111202,-0.608289,-0.286169,-0.525276,-0.488930,-0.009946,0.827872,-0.036202,0.027872,-0.624574,-0.073407,0.341558,0.886512,-0.310195,-0.532515,0.044359,-0.477655,-0.253947,0.583462,-2.841179,0.786785,3.217068,-2.952916,1.518352,1.608315,-3.297461
0.414000,-0.202523,1.506014,0.295599,0.992166,-0.044203,-0.011143,-0.116308,-0.112509,0.438443,-0.093741,1.222377,1.137567,-0.581668,-0.291356,-0.533830,-0.458658,-0.014584,0.828272,-0.040650,0.034251,-0.619854,-0.076687,0.349940,0.889869,-0.317801,-2.593489,-4.276621,15.135895,-2.318982,0.200216,-2.223916,3.189501,2.359891,-1.640135,4.191075,1.678463,-3.802521
0.416000,-0.202721,1.506926,0.295468,0.992181,-0.042780,-0.010433,-0.116782,-0.099009,0.455980,-0.065380,1.325515,0.891112,-0.453058,-0.298249,-0.538110,-0.453762,-0.019504,0.828207,-0.043862,0.040568,-0.615954,-0.079532,0.357079,0.892792,-0.320945,-3.446144,-2.139935,2.448060,-2.460039,-0.032748,-1.606189,3.158419,1.949873,-1.422170,3.569309,1.461529,-1.572081
0.418000,-0.202889,1.507717,0.295323,0.992171,-0.042039,-0.009823,-0.117185,-0.083881,0.395479,-0.072495,0.659145,0.708326,-0.382575,-0.302216,-0.546984,-0.436600,-0.022871,0.828441,-0.047025,0.045117,-0.612731,-0.082069,0.361570,0.897130,-0.329044,-1.983707,-4.436996,8.581381,-1.683596,0.117026,-1.581175,2.274653,1.611706,-1.268613,2.245390,2.168880,-4.049783
0.420000,-0.203059,1.508387,0.295224,0.992124,-0.042419,-0.009304,-0.117488,-0.085042,0.335061,-0.049502,-0.443390,0.483203,-0.280530,-0.303521,-0.554776,-0.430039,-0.023980,0.828895,-0.050045,0.047046,-0.609805,-0.084998,0.361601,0.901673,-0.336233,-0.652711,-3.896182,3.280055,-0.554537,0.226817,-1.510043,0.964212,1.463039,-1.464319,0.015383,2.271287,-3.594523
0.422000,-0.203202,1.508955,0.295078,0.992065,-0.043093,-0.008798,-0.117781,-0.071504,0.284199,-0.073224,-0.732772,0.434757,-0.270370,-0.301905,-0.570406,-0.394365,-0.024236,0.829672,-0.053348,0.048081,-0.607159,-0.087677,0.360530,0.907532,-0.350200,0.808203,-7.814846,17.837061,-0.127999,0.388646,-1.651319,0.517777,1.322573,-1.339853,-0.535484,2.929451,-6.983417
0.424000,-0.203331,1.509585,0.294985,0.992026,-0.043509,-0.008473,-0.117978,-0.064847,0.314598,-0.046393,-0.454557,0.281032,-0.182166,-0.302441,-0.581979,-0.380129,-0.025218,0.830021,-0.055672,0.049597,-0.604872,-0.090210,0.359020,0.912696,-0.359874,-0.268037,-5.786746,7.118087,-0.490863,0.174625,-1.162242,0.757636,1.143726,-1.266204,-0.754587,2.582311,-4.836813
0.426000,-0.203419,1.510309,0.294857,0.992039,-0.042731,-0.008265,-0.118171,-0.043540,0.362328,-0.064032,0.746353,0.306756,-0.187411,-0.305418,-0.597588,-0.350513,-0.028540,0.829958,-0.057314,0.053551,-0.602931,-0.091924,0.360528,0.918057,-0.370963,-1.488191,-7.804690,14.808063,-1.660973,-0.031634,-0.821214,1.977240,0.970221,-0.857234,0.753661,2.680426,-5.544552
0.428000,-0.203495,1.511115,0.294766,0.992075,-0.041491,-0.008182,-0.118320,-0.038382,0.402866,-0.045487,1.220933,0.235522,-0.150625,-0.310958,-0.609983,-0.335965,-0.032933,0.829489,-0.058186,0.058491,-0.601097,-0.093574,0.362748,0.922922,-0.378840,-2.770051,-6.197167,7.274118,-2.196618,-0.234247,-0.435987,2.470181,0.917405,-0.824709,1.110339,2.432262,-3.938558
0.430000,-0.203567,1.511862,0.294634,0.992095,-0.040407,-0.008055,-0.118533,-0.035753,0.373367,-0.065835,1.058630,0.263561,-0.212408,-0.314481,-0.627547,-0.298531,-0.036751,0.829307,-0.059478,0.063025,-0.599087,-0.095325,0.365142,0.929188,-0.393589,-1.761443,-8.782160,18.716956,-1.908750,-0.091241,-0.645559,2.266718,1.004838,-0.875837,1.196981,3.133457,-7.374486
0.432000,-0.203663,1.512541,0.294552,0.992078,-0.040263,-0.007915,-0.118729,-0.047842,0.339800,-0.040878,0.124336,0.163438,-0.191867,-0.316528,-0.641745,-0.275846,-0.038726,0.829349,-0.060949,0.065571,-0.596760,-0.097942,0.364664,0.935656,-0.407115,-1.023847,-7.098929,11.342540,-0.987518,0.021056,-0.735925,1.273210,1.163538,-1.308489,-0.238936,3.233630,-6.762814
0.434000,-0.203774,1.513117,0.294462,0.992024,-0.040926,-0.007686,-0.118970,-0.055574,0.287636,-0.045367,-0.689274,0.158148,-0.231066,-0.315432,-0.658417,-0.241799,-0.038902,0.829846,-0.063106,0.066359,-0.594062,-0.101188,0.362220,0.943122,-0.424208,0.547917,-8.336146,17.023588,-0.088277,0.248667,-1.078268,0.393664,1.348851,-1.623065,-1.222154,3.733329,-8.546805
0.436000,-0.203890,1.513729,0.294409,0.991973,-0.041554,-0.007472,-0.119194,-0.058184,0.305971,-0.026110,-0.652340,0.146326,-0.214074,-0.315563,-0.672207,-0.219880,-0.039261,0.830167,-0.065032,0.067256,-0.591130,-0.104826,0.359215,0.949794,-0.435616,-0.065531,-6.895108,10.959054,-0.179133,0.160470,-0.963103,0.448775,1.465890,-1.818740,-1.502471,3.335684,-5.703701
0.438000,-0.203994,1.514383,0.294326,0.991940,-0.041583,-0.007252,-0.119470,-0.051980,0.327423,-0.041593,-0.057638,0.225624,-0.268768,-0.316316,-0.689072,-0.182884,-0.040710,0.830369,-0.066910,0.069436,-0.588088,-0.108246,0.358057,0.956714,-0.448452,-0.376455,-8.432366,18.498074,-0.724791,0.100885,-0.938721,1.089808,1.521043,-1.710034,-0.578928,3.460335,-6.418231
0.440000,-0.204087,1.515117,0.294261,0.991927,-0.041154,-0.007111,-0.119735,-0.046745,0.366735,-0.032480,0.405654,0.202486,-0.261540,-0.319301,-0.703796,-0.155106,-0.043210,0.830291,-0.068293,0.072662,-0.585117,-0.111536,0.358155,0.963515,-0.460292,-1.492485,-7.361664,13.889296,-1.249698,-0.039158,-0.691791,1.613049,1.485709,-1.644877,0.048699,3.400539,-5.919736
0.442000,-0.204181,1.515820,0.294185,0.991902,-0.040941,-0.006973,-0.120021,-0.047001,0.351532,-0.038049,0.192329,0.173822,-0.282286,-0.321005,-0.720094,-0.120276,-0.045221,0.830381,-0.069824,0.075441,-0.582167,-0.114847,0.357881,0.971141,-0.476527,-0.852045,-8.149029,17.414770,-1.005774,0.045121,-0.765377,1.389745,1.474900,-1.655381,-0.136784,3.812601,-8.117827
0.444000,-0.204281,1.516508,0.294140,0.991866,-0.041098,-0.006856,-0.120274,-0.049880,0.343976,-0.022800,-0.173929,0.107369,-0.249747,-0.322352,-0.734608,-0.094291,-0.046593,0.830520,-0.071304,0.077448,-0.579215,-0.118432,0.355956,0.978524,-0.490980,-0.673083,-7.257224,12.992363,-0.685759,0.069297,-0.739859,1.003098,1.475820,-1.792658,-0.962519,3.691864,-7.226542
0.446000,-0.204396,1.517107,0.294098,0.991799,-0.041986,-0.006683,-0.120525,-0.057595,0.299701,-0.020738,-0.905747,0.074235,-0.243934,-0.320661,-0.750770,-0.061402,-0.046440,0.830988,-0.073242,0.077850,-0.576144,-0.122407,0.351228,0.985870,-0.505750,0.845054,-8.080867,16.444660,0.076179,0.234028,-0.969260,0.201116,1.535913,-1.987364,-2.364232,3.673009,-7.385103
0.448000,-0.204508,1.517735,0.294075,0.991740,-0.042761,-0.006546,-0.120750,-0.055690,0.313788,-0.011598,-0.789040,0.051267,-0.218842,-0.319501,-0.766159,-0.032549,-0.046619,0.831326,-0.074946,0.078509,-0.573133,-0.126373,0.345962,0.992518,-0.517446,0.580406,-7.694794,14.426466,-0.089267,0.169210,-0.851768,0.329485,1.505497,-1.983438,-2.632662,3.323654,-5.848006
0.450000,-0.204617,1.518363,0.294052,0.991682,-0.043517,-0.006438,-0.120964,-0.054582,0.314324,-0.011531,-0.766651,0.025112,-0.209796,-0.317662,-0.782524,0.000464,-0.046867,0.831654,-0.076561,0.079212,-0.570238,-0.130231,0.340063,0.998912,-0.529400,0.919299,-8.182393,16.506531,-0.123933,0.163751,-0.807905,0.351714,1.447357,-1.928544,-2.949916,3.196902,-5.976535
0.452000,-0.204708,1.519074,0.294038,0.991649,-0.043730,-0.006436,-0.121155,-0.045597,0.355238,-0.006807,-0.213690,-0.015696,-0.192481,-0.317735,-0.797791,0.028134,-0.048359,0.831694,-0.077594,0.081150,-0.567630,-0.133686,0.335494,1.005148,-0.541671,-0.036316,-7.633659,13.835257,-0.746083,0.020415,-0.516279,0.968801,1.303823,-1.727842,-2.284276,3.118074,-6.135954
0.454000,-0.204802,1.519768,0.294036,0.991609,-0.044154,-0.006461,-0.121327,-0.047048,0.347226,-0.001303,-0.420431,-0.069235,-0.173785,-0.316577,-0.813371,0.057320,-0.049477,0.831782,-0.078572,0.082646,-0.565129,-0.137166,0.329487,1.011090,-0.553735,0.578607,-7.789804,14.592763,-0.558934,0.043571,-0.488820,0.748026,1.250861,-1.739850,-3.003374,2.971200,-6.031889
0.456000,-0.204891,1.520490,0.294047,0.991574,-0.044491,-0.006538,-0.121487,-0.044555,0.360945,0.005475,-0.327930,-0.110627,-0.164170,-0.315540,-0.828352,0.084434,-0.050855,0.831778,-0.079288,0.084379,-0.562739,-0.140578,0.323299,1.016827,-0.565233,0.518722,-7.490697,13.557185,-0.689057,-0.001937,-0.358203,0.866560,1.194813,-1.705982,-3.094190,2.868552,-5.748653
0.458000,-0.204999,1.521135,0.294084,0.991505,-0.045638,-0.006586,-0.121621,-0.054053,0.322507,0.018535,-1.134944,-0.181137,-0.136079,-0.311346,-0.843403,0.112525,-0.050640,0.832033,-0.080287,0.084373,-0.560268,-0.144460,0.313496,1.021962,-0.574409,2.097175,-7.525466,14.045239,0.107438,0.127609,-0.499528,-0.002739,1.235480,-1.940962,-4.901574,2.567160,-4.588036
0.460000,-0.205101,1.521820,0.294132,0.991443,-0.046613,-0.006690,-0.121754,-0.050904,0.342525,0.024144,-0.957576,-0.215870,-0.137095,-0.307407,-0.857792,0.139153,-0.050858,0.832171,-0.080991,0.084814,-0.557888,-0.148258,0.303986,1.026985,-0.583676,1.969256,-7.194512,13.314127,-0.109004,0.069095,-0.351983,0.220293,1.189915,-1.899289,-4.754940,2.511920,-4.633635
0.462000,-0.205211,1.522488,0.294204,0.991366,-0.047929,-0.006808,-0.121857,-0.055073,0.333620,0.036229,-1.294866,-0.273028,-0.108670,-0.301920,-0.871623,0.164529,-0.050481,0.832357,-0.081670,0.084549,-0.555525,-0.152268,0.292244,1.031190,-0.590118,2.743755,-6.915321,12.688077,0.188435,0.093209,-0.339355,-0.132487,1.181819,-2.004628,-5.870975,2.102513,-3.221113
0.464000,-0.205303,1.523250,0.294275,0.991320,-0.048575,-0.007029,-0.121967,-0.045718,0.381160,0.035346,-0.616488,-0.292939,-0.120786,-0.298125,-0.884766,0.189140,-0.051594,0.832270,-0.081827,0.085839,-0.553394,-0.155823,0.282621,1.035425,-0.598094,1.897278,-6.571687,12.305285,-0.556335,-0.043897,-0.078471,0.644796,1.065134,-1.777906,-4.811307,2.117157,-3.988081
0.466000,-0.205403,1.523994,0.294370,0.991260,-0.049568,-0.007266,-0.122040,-0.049840,0.372179,0.047543,-0.959447,-0.352611,-0.083707,-0.292683,-0.897260,0.212286,-0.052114,0.832232,-0.081965,0.086392,-0.551315,-0.159554,0.270455,1.038559,-0.602015,2.721238,-6.246694,11.573304,-0.259807,-0.019058,-0.069106,0.276753,1.039816,-1.865530,-6.083260,1.567237,-1.960541
0.468000,-0.205491,1.524793,0.294464,0.991214,-0.050253,-0.007579,-0.122117,-0.044043,0.399244,0.047111,-0.643208,-0.390430,-0.092648,-0.287570,-0.909327,0.235866,-0.053390,0.832127,-0.081851,0.087703,-0.549430,-0.163000,0.259283,1.041773,-0.607714,2.556196,-6.033467,11.790030,-0.638419,-0.052224,0.056821,0.655176,0.942566,-1.722535,-5.585654,1.607014,-2.849236
0.470000,-0.205596,1.525524,0.294593,0.991130,-0.051780,-0.007877,-0.122143,-0.052721,0.365477,0.064104,-1.482134,-0.481201,-0.039887,-0.279283,-0.920595,0.256465,-0.053074,0.832258,-0.081956,0.087202,-0.547537,-0.166895,0.243819,1.043729,-0.608522,4.143846,-5.634350,10.299169,0.158163,0.065377,-0.052334,-0.250139,0.946325,-1.947636,-7.732246,0.978133,-0.404179
0.472000,-0.205686,1.526317,0.294716,0.991061,-0.052931,-0.008263,-0.122179,-0.044860,0.396873,0.061837,-1.096900,-0.521917,-0.054329,-0.271426,-0.931496,0.277629,-0.053797,0.832544,-0.082049,0.087633,-0.545873,-0.170436,0.229740,1.045855,-0.611844,3.928213,-5.450248,10.582292,-0.361291,0.143307,-0.046719,0.215525,0.831682,-1.770459,-7.039673,1.062813,-1.660906
0.474000,-0.205784,1.527086,0.294870,0.990971,-0.054553,-0.008660,-0.122166,-0.049128,0.384082,0.076780,-1.564282,-0.592638,-0.006486,-0.261542,-0.941481,0.295228,-0.053753,0.832995,-0.082261,0.087058,-0.544254,-0.174235,0.212534,1.046528,-0.609752,4.942096,-4.992406,8.799314,0.021975,0.225180,-0.105917,-0.287512,0.809641,-1.899823,-8.602992,0.336457,1.046066
0.476000,-0.205860,1.527954,0.295011,0.990916,-0.055441,-0.009164,-0.122175,-0.037883,0.434122,0.070583,-0.821221,-0.608059,-0.035447,-0.253053,-0.951215,0.314421,-0.055499,0.833518,-0.082352,0.088214,-0.542881,-0.177502,0.198089,1.047409,-0.610779,4.244510,-4.867243,9.596645,-0.872965,0.261808,-0.045502,0.577803,0.686803,-1.633506,-7.222148,0.440286,-0.513388
0.478000,-0.205946,1.528802,0.295183,0.990842,-0.056745,-0.009672,-0.122141,-0.043022,0.423921,0.086268,-1.233618,-0.665897,0.008762,-0.242668,-0.960022,0.330072,-0.056448,0.833956,-0.082269,0.088468,-0.541503,-0.181057,0.180701,1.046691,-0.605586,5.192313,-4.403457,7.825590,-0.474741,0.218689,0.041458,0.127207,0.689032,-1.777232,-8.694305,-0.359016,2.596269
0.480000,-0.206019,1.529716,0.295348,0.990787,-0.057626,-0.010260,-0.122131,-0.036514,0.457031,0.082057,-0.803826,-0.691342,-0.021658,-0.232678,-0.968615,0.347367,-0.058344,0.834291,-0.081868,0.089762,-0.540278,-0.184293,0.165273,1.046309,-0.603945,4.995024,-4.296364,8.647185,-0.948158,0.167570,0.200471,0.646925,0.612259,-1.618052,-7.713853,-0.190744,0.820363
0.482000,-0.206108,1.530584,0.295547,0.990695,-0.059175,-0.010833,-0.122082,-0.044420,0.434023,0.099799,-1.470027,-0.760215,0.020586,-0.220125,-0.976176,0.360206,-0.058881,0.834599,-0.081365,0.089612,-0.538980,-0.187991,0.146288,1.044425,-0.596221,6.276779,-3.780685,6.419785,-0.268493,0.154017,0.251939,-0.075158,0.648823,-1.849106,-9.492375,-0.941936,3.862165
0.484000,-0.206184,1.531519,0.295734,0.990623,-0.060287,-0.011476,-0.122064,-0.038074,0.467520,0.093327,-1.027011,-0.774230,-0.017027,-0.208070,-0.983531,0.374920,-0.060403,0.834853,-0.080633,0.090534,-0.537799,-0.191387,0.129495,1.042972,-0.592402,6.027120,-3.677406,7.356962,-0.760830,0.127148,0.365985,0.460979,0.590558,-1.697847,-8.396726,-0.726775,1.909691
0.486000,-0.206270,1.532437,0.295946,0.990530,-0.061777,-0.012109,-0.122015,-0.042923,0.459221,0.106211,-1.403651,-0.812941,0.015487,-0.194475,-0.989860,0.385443,-0.061211,0.835077,-0.079833,0.090635,-0.536552,-0.195101,0.110283,1.040036,-0.582670,6.797532,-3.164457,5.261452,-0.403877,0.111659,0.399831,0.050474,0.623636,-1.856993,-9.605767,-1.467754,4.866056
0.488000,-0.206340,1.533435,0.296137,0.990465,-0.062688,-0.012807,-0.122001,-0.035093,0.498905,0.095603,-0.821408,-0.805015,-0.025897,-0.181886,-0.996060,0.398371,-0.063378,0.835344,-0.078973,0.092102,-0.535417,-0.198437,0.093790,1.037536,-0.576807,6.294685,-3.099829,6.463694,-1.083377,0.133562,0.430029,0.733729,0.567366,-1.668157,-8.246567,-1.249822,2.931123
0.490000,-0.206417,1.534425,0.296345,0.990387,-0.063846,-0.013493,-0.121961,-0.038477,0.495139,0.103917,-1.067782,-0.823835,0.001712,-0.168237,-1.001397,0.407897,-0.065105,0.835574,-0.078069,0.093016,-0.534236,-0.201981,0.075425,1.033619,-0.564949,6.824597,-2.668531,4.763455,-0.863814,0.115137,0.451702,0.456837,0.590614,-1.771678,-9.182336,-1.958827,5.929238
0.492000,-0.206483,1.535463,0.296531,0.990323,-0.064704,-0.014222,-0.121952,-0.033288,0.518666,0.092697,-0.764909,-0.827830,-0.034009,-0.154896,-1.006660,0.419407,-0.067540,0.835842,-0.077117,0.094665,-0.533161,-0.205241,0.058917,1.030248,-0.557008,6.670631,-2.631592,5.754770,-1.217494,0.134046,0.476194,0.824391,0.537649,-1.630285,-8.254140,-1.685369,3.970283
0.494000,-0.206559,1.536470,0.296726,0.990230,-0.065997,-0.014927,-0.121924,-0.037549,0.503691,0.097720,-1.200131,-0.859832,-0.010672,-0.140087,-1.011227,0.427329,-0.069060,0.836097,-0.076135,0.095362,-0.532047,-0.208747,0.040310,1.025850,-0.544800,7.404091,-2.283504,3.961020,-0.760174,0.127195,0.491236,0.348820,0.556660,-1.753137,-9.303620,-2.198821,6.104363
0.496000,-0.206617,1.537523,0.296901,0.990153,-0.066966,-0.015696,-0.121927,-0.029294,0.526694,0.087543,-0.871047,-0.880387,-0.048790,-0.125753,-1.015833,0.436919,-0.071634,0.836115,-0.071916,0.096844,-0.531122,-0.211897,0.023583,1.022085,-0.536282,7.167249,-2.302822,4.794826,-1.286923,0.009323,2.109221,0.740697,0.462530,-1.574989,-8.363550,-1.882844,4.258837
0.498000,-0.206678,1.538570,0.297060,0.990064,-0.068104,-0.016420,-0.121927,-0.030207,0.523492,0.079495,-1.044484,-0.856376,-0.041219,-0.110821,-1.020259,0.445621,-0.074201,0.836629,-0.069601,0.097952,-0.530108,-0.215165,0.005991,1.017579,-0.524815,7.465851,-2.213119,4.351245,-1.283424,0.256940,1.157368,0.554083,0.507222,-1.633732,-8.796019,-2.253104,5.733216
0.500000,-0.206729,1.539652,0.297178,0.989984,-0.069033,-0.017127,-0.121953,-0.025509,0.540568,0.058902,-0.838685,-0.812618,-0.068372,-0.096522,-1.024788,0.455890,-0.077664,0.837642,-0.069591,0.099560,-0.529077,-0.218261,-0.010148,1.013503,-0.515968,7.149477,-2.264794,5.134628,-1.731174,0.506298,0.005299,0.804055,0.515549,-1.547976,-8.069408,-2.037813,4.423515
0.502000,-0.206780,1.540730,0.297266,0.989901,-0.070002,-0.017781,-0.121982,-0.025729,0.539276,0.044236,-0.886495,-0.765511,-0.067458,-0.082048,-1.029668,0.467043,-0.080853,0.838605,-0.070030,0.101055,-0.527962,-0.221367,-0.026634,1.008921,-0.504376,7.236909,-2.439835,5.576046,-1.594864,0.481712,-0.219731,0.747361,0.557569,-1.552924,-8.243103,-2.290939,5.796133
0.504000,-0.206823,1.541825,0.297322,0.989821,-0.070877,-0.018439,-0.122030,-0.021292,0.547322,0.027505,-0.791698,-0.755733,-0.087475,-0.068213,-1.034645,0.477693,-0.083876,0.838998,-0.067996,0.102792,-0.526924,-0.224269,-0.042187,1.004893,-0.494795,6.917535,-2.488545,5.325272,-1.511613,0.196234,1.016944,0.868556,0.518910,-1.450951,-7.776484,-2.013903,4.790690
0.506000,-0.206872,1.542895,0.297366,0.989719,-0.072058,-0.019034,-0.122075,-0.024721,0.535040,0.022493,-1.104742,-0.731812,-0.077470,-0.053969,-1.039210,0.484656,-0.085987,0.839381,-0.066452,0.103846,-0.525730,-0.227420,-0.058833,1.000145,-0.481489,7.122044,-2.282314,3.481312,-1.055280,0.191617,0.771954,0.527264,0.596782,-1.575986,-8.322811,-2.374311,6.652910
0.508000,-0.206921,1.543973,0.297379,0.989612,-0.073238,-0.019595,-0.122145,-0.024232,0.539274,0.006108,-1.107944,-0.696244,-0.100659,-0.040083,-1.043643,0.491324,-0.087852,0.839757,-0.065308,0.104941,-0.524452,-0.230562,-0.074603,0.995724,-0.470247,6.943110,-2.216835,3.334346,-0.932280,0.187942,0.572377,0.547116,0.639073,-1.570906,-7.884976,-2.210468,5.621185
0.510000,-0.206976,1.545074,0.297385,0.989518,-0.074279,-0.020089,-0.122203,-0.027495,0.550224,0.003141,-0.978332,-0.613897,-0.083781,-0.027227,-1.047133,0.494590,-0.089828,0.839935,-0.064421,0.106270,-0.522932,-0.233887,-0.090124,0.989786,-0.453003,6.428063,-1.744778,1.632780,-0.988146,0.088963,0.443496,0.664740,0.760262,-1.662333,-7.760419,-2.968996,8.621952
0.512000,-0.207032,1.546195,0.297359,0.989430,-0.075170,-0.020555,-0.122293,-0.028385,0.560798,-0.013137,-0.833284,-0.565294,-0.117099,-0.014658,-1.050502,0.500470,-0.091924,0.840069,-0.063802,0.107954,-0.521307,-0.237149,-0.103950,0.984116,-0.439021,6.284432,-1.684395,2.939942,-1.048216,0.067146,0.309145,0.841953,0.812198,-1.630780,-6.913210,-2.834835,6.990932
0.514000,-0.207097,1.547337,0.297337,0.989351,-0.075970,-0.020980,-0.122364,-0.032398,0.570531,-0.010891,-0.746831,-0.514500,-0.095241,-0.003090,-1.052339,0.501331,-0.094120,0.840016,-0.063272,0.109778,-0.519539,-0.240542,-0.117385,0.976933,-0.420103,5.783800,-0.918427,0.430388,-1.097626,-0.026400,0.265370,0.912276,0.884241,-1.696679,-6.717496,-3.591670,9.458905
0.516000,-0.207168,1.548463,0.297294,0.989253,-0.076947,-0.021398,-0.122470,-0.035310,0.563486,-0.021605,-0.925401,-0.527308,-0.128448,0.009400,-1.053877,0.504145,-0.095820,0.840073,-0.062979,0.111273,-0.517798,-0.243888,-0.129995,0.970245,-0.405608,6.245410,-0.769121,1.407236,-0.850089,0.028379,0.146124,0.747017,0.870301,-1.673039,-6.305240,-3.343841,7.247411
0.518000,-0.207244,1.549605,0.297265,0.989164,-0.077866,-0.021797,-0.122539,-0.038210,0.570850,-0.014377,-0.868422,-0.504123,-0.089716,0.020806,-1.053485,0.500120,-0.097619,0.839941,-0.062629,0.112767,-0.516369,-0.246849,-0.142398,0.961865,-0.385314,5.702601,0.195786,-2.012459,-0.899423,-0.065683,0.175096,0.747386,0.714345,-1.480335,-6.201323,-4.190081,10.147302
0.520000,-0.207324,1.550738,0.297216,0.989065,-0.078858,-0.022200,-0.122637,-0.039990,0.566359,-0.024380,-0.941697,-0.514251,-0.118854,0.033156,-1.053002,0.499699,-0.099163,0.839878,-0.062407,0.114101,-0.515249,-0.249370,-0.153751,0.953843,-0.368532,6.175019,0.241605,-0.210343,-0.771998,-0.031572,0.111310,0.666975,0.560004,-1.260697,-5.676292,-4.010738,8.390931
0.522000,-0.207406,1.551920,0.297179,0.989002,-0.079443,-0.022592,-0.122695,-0.040942,0.590962,-0.018664,-0.536516,-0.456613,-0.083596,0.043368,-1.050601,0.493724,-0.101531,0.839467,-0.061935,0.116193,-0.514294,-0.251566,-0.163686,0.944064,-0.345499,5.106237,1.200346,-2.987671,-1.184217,-0.205592,0.235686,1.045974,0.477567,-1.097779,-4.967543,-4.889552,11.516550
0.524000,-0.207493,1.553087,0.297122,0.988921,-0.080167,-0.022983,-0.122801,-0.043720,0.583389,-0.028488,-0.676453,-0.468890,-0.129151,0.054761,-1.048250,0.491972,-0.103508,0.839176,-0.061621,0.118043,-0.513306,-0.253784,-0.172530,0.935013,-0.327146,5.696469,1.175586,-0.876211,-0.988244,-0.145757,0.157147,0.925069,0.494213,-1.108986,-4.422304,-4.525857,9.176331
0.526000,-0.207584,1.554291,0.297080,0.988864,-0.080640,-0.023366,-0.122876,-0.045478,0.602432,-0.020862,-0.427600,-0.431735,-0.101295,0.063968,-1.043704,0.482304,-0.106007,0.838619,-0.061094,0.120384,-0.512149,-0.256200,-0.180252,0.924556,-0.303755,4.603369,2.273193,-4.833684,-1.249766,-0.278410,0.263695,1.170255,0.578613,-1.208002,-3.860715,-5.228217,11.695549
0.528000,-0.207683,1.555460,0.297020,0.988773,-0.081449,-0.023738,-0.123004,-0.049360,0.584249,-0.030139,-0.764758,-0.459061,-0.148274,0.074766,-1.039329,0.476315,-0.107724,0.838297,-0.060839,0.122080,-0.510805,-0.258927,-0.187649,0.914919,-0.284791,5.399154,2.187490,-2.994681,-0.858432,-0.161034,0.127046,0.848169,0.671948,-1.363731,-3.698473,-4.818354,9.482138
0.530000,-0.207782,1.556671,0.296965,0.988714,-0.081928,-0.024104,-0.123093,-0.049359,0.605292,-0.027264,-0.435666,-0.415035,-0.114170,0.083099,-1.033117,0.463811,-0.110142,0.837720,-0.060394,0.124415,-0.509391,-0.261697,-0.193872,0.903854,-0.260341,4.166329,3.105774,-6.252204,-1.209102,-0.288536,0.222654,1.167607,0.707051,-1.384991,-3.111653,-5.532720,12.224534
0.532000,-0.207883,1.557850,0.296881,0.988629,-0.082639,-0.024465,-0.123224,-0.050484,0.589779,-0.042006,-0.668351,-0.436383,-0.151733,0.092747,-1.027534,0.456651,-0.112008,0.837382,-0.060234,0.126286,-0.508042,-0.264408,-0.199721,0.893565,-0.239770,4.824205,2.791450,-3.579939,-0.932958,-0.168853,0.079988,0.935491,0.674485,-1.355712,-2.924268,-5.144514,10.285907
0.534000,-0.207976,1.559077,0.296793,0.988582,-0.082963,-0.024845,-0.123307,-0.046839,0.613512,-0.044314,-0.279428,-0.409564,-0.111609,0.099543,-1.020320,0.443008,-0.114720,0.836816,-0.059849,0.128908,-0.506908,-0.266784,-0.204243,0.882157,-0.214946,3.397673,3.607018,-6.821255,-1.355848,-0.282944,0.192619,1.310911,0.566674,-1.187748,-2.261068,-5.704181,12.411628
0.536000,-0.208070,1.560265,0.296673,0.988503,-0.083611,-0.025229,-0.123427,-0.046545,0.593834,-0.060019,-0.602182,-0.451835,-0.143903,0.107566,-1.013727,0.433425,-0.116717,0.836556,-0.059778,0.130869,-0.505942,-0.269018,-0.208782,0.871703,-0.194395,4.011705,3.296569,-4.791378,-0.998600,-0.130061,0.035386,0.980620,0.483319,-1.116851,-2.269831,-5.226845,10.275901
0.538000,-0.208156,1.561491,0.296546,0.988453,-0.083969,-0.025633,-0.123503,-0.043134,0.613024,-0.063243,-0.310468,-0.438020,-0.106897,0.112867,-1.005606,0.417236,-0.119366,0.836128,-0.059530,0.133402,-0.505076,-0.271100,-0.212311,0.860327,-0.170140,2.650621,4.060750,-8.094950,-1.324459,-0.214158,0.123924,1.266157,0.432909,-1.041238,-1.764530,-5.688110,12.127130
0.540000,-0.208241,1.562672,0.296407,0.988358,-0.084772,-0.025950,-0.123650,-0.042740,0.590426,-0.069463,-0.766805,-0.402702,-0.162448,0.119621,-0.998110,0.405630,-0.121022,0.836025,-0.059826,0.134610,-0.503583,-0.281873,-0.215356,0.851986,-0.152438,3.377025,3.747656,-5.802914,-0.828165,-0.051234,-0.147850,0.604259,0.746293,-5.386655,-1.522214,-4.170423,8.851240
0.542000,-0.208301,1.563915,0.296241,0.988330,-0.084902,-0.026343,-0.123700,-0.029690,0.621775,-0.083032,-0.082980,-0.400549,-0.083084,0.122824,-0.989713,0.389425,-0.124161,0.835647,-0.059722,0.136676,-0.504451,-0.286414,-0.215985,0.845534,-0.139226,1.601300,4.198941,-8.102304,-1.569212,-0.189108,0.051937,1.033001,-0.433683,-2.270364,-0.314646,-3.225691,6.605933
0.544000,-0.208363,1.565146,0.296061,0.988329,-0.084851,-0.026669,-0.123672,-0.031097,0.615329,-0.089878,0.091391,-0.318613,-0.001593,0.125792,-0.982265,0.377843,-0.127674,0.835174,-0.059831,0.138090,-0.507280,-0.284567,-0.215633,0.840387,-0.129481,1.484211,3.723645,-5.791260,-1.756615,-0.236529,-0.054241,0.706995,-1.414692,0.923578,0.175867,-2.573732,4.872313
0.546000,-0.208458,1.566398,0.295909,0.988362,-0.084546,-0.026862,-0.123574,-0.047725,0.625911,-0.076033,0.330210,-0.160272,0.077179,0.126563,-0.973582,0.361413,-0.131716,0.834301,-0.060037,0.140098,-0.509433,-0.283042,-0.214239,0.835661,-0.121917,0.385313,4.341561,-8.214740,-2.021247,-0.436409,-0.103333,1.003842,-1.076513,0.762658,0.697392,-2.362774,3.782331
0.548000,-0.208626,1.567570,0.295806,0.988350,-0.084855,-0.026758,-0.123486,-0.083917,0.586113,-0.051868,-0.316452,0.056900,0.101720,0.129286,-0.965121,0.347945,-0.134362,0.833409,-0.061166,0.140881,-0.509387,-0.284060,-0.213823,0.831227,-0.116293,1.361765,4.230421,-6.733930,-1.322759,-0.446099,-0.564565,0.391308,0.023056,-0.509219,0.207837,-2.217001,2.812029
