QPZ-918/AT_DOG_AMP/temp/gmr_data_csv/R0.25.csv
time_sec,root_pos_x,root_pos_y,root_pos_z,root_quat_w,root_quat_x,root_quat_y,root_quat_z,base_lin_vel_x,base_lin_vel_y,base_lin_vel_z,base_ang_vel_x,base_ang_vel_y,base_ang_vel_z,FR_hip_joint,FR_thigh_joint,FR_calf_joint,FL_hip_joint,FL_thigh_joint,FL_calf_joint,RR_hip_joint,RR_thigh_joint,RR_calf_joint,RL_hip_joint,RL_thigh_joint,RL_calf_joint,FR_hip_joint_vel,FR_thigh_joint_vel,FR_calf_joint_vel,FL_hip_joint_vel,FL_thigh_joint_vel,FL_calf_joint_vel,RR_hip_joint_vel,RR_thigh_joint_vel,RR_calf_joint_vel,RL_hip_joint_vel,RL_thigh_joint_vel,RL_calf_joint_vel
0.002000,-1.218079,-0.510715,0.297532,0.996541,0.043336,-0.011581,0.069954,-0.033652,-0.329301,-0.028214,0.363585,-0.339222,-0.096385,0.014014,-0.829533,0.051925,-0.027402,0.919671,-0.232401,0.141575,-0.823594,0.114638,-0.118075,0.672319,0.149788,0.687658,-0.156764,0.268048,-0.454078,-4.196803,7.978689,-0.175470,4.325260,-8.842385,-0.489735,-0.089844,0.389231
0.004000,-1.218146,-0.511357,0.297459,0.996521,0.043855,-0.011900,0.069868,-0.033823,-0.320923,-0.036390,0.494486,-0.358042,-0.076464,0.015076,-0.829957,0.052555,-0.028679,0.911825,-0.218660,0.141327,-0.815408,0.098281,-0.118814,0.672165,0.150540,0.530739,-0.211656,0.314740,-0.638282,-3.922781,6.870373,-0.123811,4.092650,-8.178287,-0.369323,-0.077168,0.375908
0.006000,-1.218212,-0.512009,0.297376,0.996502,0.044314,-0.012243,0.069790,-0.032728,-0.326126,-0.041359,0.433998,-0.377794,-0.066035,0.016262,-0.830374,0.053100,-0.029212,0.903870,-0.203719,0.140635,-0.807636,0.082860,-0.119723,0.672085,0.151191,0.593085,-0.208792,0.272920,-0.266558,-3.977700,7.470730,-0.346102,3.886040,-7.710423,-0.454582,-0.039994,0.325495
0.008000,-1.218278,-0.512648,0.297284,0.996476,0.044894,-0.012594,0.069726,-0.033341,-0.319062,-0.046242,0.553011,-0.393698,-0.053679,0.017174,-0.830866,0.053708,-0.029923,0.896309,-0.189888,0.140196,-0.800096,0.067573,-0.120405,0.672007,0.151855,0.456290,-0.245900,0.303975,-0.355653,-3.780551,6.915178,-0.219183,3.770200,-7.643797,-0.341185,-0.038597,0.332250
0.010000,-1.218338,-0.513289,0.297172,0.996447,0.045481,-0.012980,0.069689,-0.029703,-0.320976,-0.056069,0.558723,-0.427259,-0.025042,0.018055,-0.831452,0.054300,-0.030280,0.889070,-0.176665,0.139601,-0.794870,0.056864,-0.121158,0.672044,0.152380,0.440247,-0.292895,0.295889,-0.178525,-3.619197,6.611507,-0.297746,2.612730,-5.354126,-0.376029,0.018274,0.262253
0.012000,-1.218400,-0.513934,0.297055,0.996419,0.046035,-0.013349,0.069660,-0.031334,-0.322082,-0.058404,0.527641,-0.408514,-0.017289,0.018984,-0.832020,0.054933,-0.030334,0.882222,-0.164471,0.138909,-0.791229,0.049372,-0.121986,0.671986,0.152974,0.464568,-0.283873,0.316473,-0.026914,-3.424268,6.097344,-0.346176,1.820862,-3.746209,-0.414268,-0.029124,0.297363
0.014000,-1.218470,-0.514607,0.296935,0.996406,0.046277,-0.013675,0.069618,-0.034530,-0.336634,-0.059782,0.218704,-0.343148,-0.029810,0.020565,-0.832405,0.055539,-0.029299,0.875958,-0.154108,0.137563,-0.788521,0.044084,-0.123435,0.671779,0.153599,0.790373,-0.192886,0.303100,0.517335,-3.132035,5.181222,-0.672683,1.353808,-2.643990,-0.724324,-0.103516,0.312485
0.016000,-1.218561,-0.515288,0.296845,0.996405,0.046360,-0.013888,0.069535,-0.045980,-0.340751,-0.045471,0.066366,-0.222377,-0.072996,0.022481,-0.832506,0.056228,-0.027500,0.869768,-0.143100,0.135991,-0.786077,0.040069,-0.125069,0.671096,0.154680,0.958154,-0.050055,0.344397,0.899562,-3.094717,5.504194,-0.786083,1.221947,-2.007601,-0.817247,-0.341606,0.540168
0.018000,-1.218676,-0.515968,0.296777,0.996415,0.046304,-0.013971,0.069415,-0.057232,-0.339714,-0.033563,-0.063060,-0.083691,-0.116419,0.024660,-0.832354,0.057099,-0.025383,0.864367,-0.134493,0.134263,-0.783675,0.036919,-0.126816,0.669910,0.156222,1.089699,0.075667,0.435472,1.058614,-2.700496,4.303344,-0.863849,1.200959,-1.574818,-0.873231,-0.592855,0.771076
0.020000,-1.218821,-0.516610,0.296758,0.996421,0.046434,-0.013905,0.069245,-0.072579,-0.320905,-0.009722,0.130849,0.048609,-0.174790,0.026432,-0.831994,0.058240,-0.023636,0.859046,-0.124591,0.133113,-0.781164,0.034362,-0.127936,0.668090,0.158514,0.885706,0.180139,0.570330,0.873625,-2.660813,4.950921,-0.575167,1.255453,-1.278522,-0.560148,-0.909734,1.145895
0.022000,-1.218985,-0.517222,0.296764,0.996433,0.046562,-0.013714,0.069026,-0.081827,-0.305956,0.003130,0.137385,0.171149,-0.229794,0.028160,-0.831453,0.059603,-0.022390,0.855083,-0.118870,0.132159,-0.778504,0.032186,-0.128818,0.665896,0.161171,0.863937,0.270232,0.681861,0.622640,-1.981423,2.860788,-0.476936,1.330036,-1.088284,-0.440823,-1.096967,1.328901
0.024000,-1.219164,-0.517794,0.296811,0.996444,0.046832,-0.013446,0.068739,-0.089604,-0.286444,0.023483,0.282613,0.235882,-0.302357,0.029597,-0.830748,0.061041,-0.021449,0.851285,-0.111095,0.131717,-0.775776,0.030363,-0.129104,0.663661,0.163913,0.718417,0.352904,0.718692,0.470700,-1.899188,3.887602,-0.220927,1.363839,-0.911516,-0.143364,-1.117515,1.370646
0.026000,-1.219341,-0.518359,0.296870,0.996473,0.046840,-0.013135,0.068381,-0.088465,-0.282248,0.029562,0.023682,0.292436,-0.373748,0.031569,-0.829836,0.062384,-0.020378,0.849082,-0.107667,0.130939,-0.772916,0.028635,-0.129597,0.662080,0.165789,0.986104,0.455743,0.671554,0.535550,-1.101511,1.713896,-0.388952,1.430328,-0.863777,-0.246351,-0.790764,0.938200
0.028000,-1.219517,-0.518904,0.296962,0.996508,0.046804,-0.012815,0.067944,-0.087995,-0.272371,0.045957,-0.021734,0.301971,-0.451957,0.033667,-0.828746,0.063539,-0.018964,0.846863,-0.101103,0.130267,-0.770023,0.027048,-0.129795,0.661312,0.166633,1.049290,0.544984,0.577316,0.707021,-1.109218,3.281858,-0.336022,1.446202,-0.793334,-0.098844,-0.383787,0.422084
0.030000,-1.219681,-0.519437,0.297054,0.996556,0.046562,-0.012498,0.067471,-0.081907,-0.266885,0.045746,-0.227432,0.310148,-0.485982,0.036151,-0.827581,0.064550,-0.017611,0.846262,-0.099783,0.129291,-0.767278,0.025719,-0.130239,0.661117,0.166803,1.241827,0.582504,0.505486,0.676208,-0.300613,0.659928,-0.487925,1.372662,-0.664758,-0.222333,-0.097415,0.084601
0.032000,-1.219844,-0.519944,0.297176,0.996601,0.046411,-0.012180,0.066969,-0.081495,-0.253045,0.061347,-0.137835,0.304502,-0.516900,0.038426,-0.826344,0.065414,-0.016199,0.845347,-0.095391,0.128613,-0.764639,0.024576,-0.130383,0.660903,0.167159,1.137498,0.618732,0.432402,0.706213,-0.457297,2.196179,-0.339213,1.319657,-0.571455,-0.071737,-0.107288,0.178301
0.034000,-1.219992,-0.520411,0.297290,0.996635,0.046423,-0.011893,0.066497,-0.074175,-0.233792,0.056819,0.023863,0.264254,-0.485759,0.040258,-0.825299,0.066301,-0.015693,0.845670,-0.095791,0.128269,-0.762649,0.024232,-0.130275,0.660473,0.167922,0.915865,0.522141,0.443152,0.252827,0.161394,-0.199979,-0.171829,0.994813,-0.171934,0.054033,-0.215070,0.381515
0.036000,-1.220132,-0.520851,0.297420,0.996659,0.046624,-0.011646,0.066038,-0.069845,-0.220017,0.065046,0.210694,0.211565,-0.472787,0.041655,-0.824340,0.067053,-0.015190,0.845384,-0.092699,0.128316,-0.761129,0.024424,-0.129838,0.659816,0.169183,0.698493,0.479479,0.376347,0.251711,-0.143114,1.545801,0.023455,0.760183,0.095929,0.218510,-0.328151,0.630390
0.038000,-1.220245,-0.521281,0.297523,0.996680,0.046801,-0.011474,0.065631,-0.056662,-0.214922,0.051643,0.181528,0.140659,-0.417559,0.043012,-0.823598,0.067697,-0.014887,0.846165,-0.094318,0.128094,-0.760862,0.026003,-0.129621,0.659243,0.170435,0.678777,0.371250,0.321733,0.151374,0.390374,-0.809442,-0.111313,0.133302,0.789527,0.108177,-0.286843,0.626165
0.040000,-1.220341,-0.521717,0.297624,0.996702,0.046897,-0.011380,0.065238,-0.048074,-0.218152,0.050464,0.096851,0.068902,-0.398915,0.044524,-0.822905,0.068064,-0.013733,0.846348,-0.092944,0.127669,-0.760970,0.027916,-0.129683,0.658763,0.171700,0.755909,0.346570,0.183617,0.576870,0.091543,0.686828,-0.212263,-0.053732,0.956504,-0.030916,-0.239773,0.632136
0.042000,-1.220409,-0.522167,0.297695,0.996729,0.046799,-0.011363,0.064899,-0.034151,-0.224658,0.035539,-0.101936,0.008176,-0.339246,0.046363,-0.822360,0.068245,-0.012130,0.847270,-0.095276,0.126298,-0.762613,0.031573,-0.130327,0.658461,0.172756,0.919546,0.272264,0.090639,0.801926,0.460972,-1.166047,-0.685484,-0.821592,1.828431,-0.321732,-0.150981,0.528357
0.044000,-1.220467,-0.522609,0.297765,0.996752,0.046754,-0.011399,0.064575,-0.028759,-0.221363,0.034725,-0.051856,-0.048147,-0.321585,0.048075,-0.821908,0.068305,-0.010048,0.847511,-0.094637,0.125104,-0.764355,0.035246,-0.130929,0.658202,0.173867,0.855860,0.226388,0.030037,1.040630,0.120929,0.319658,-0.597131,-0.871067,1.836594,-0.301143,-0.129756,0.555393
0.046000,-1.220515,-0.523031,0.297821,0.996765,0.046853,-0.011462,0.064288,-0.024180,-0.210642,0.028220,0.090517,-0.081793,-0.284995,0.049426,-0.821640,0.068447,-0.008291,0.847921,-0.095538,0.124212,-0.766351,0.039164,-0.131302,0.657898,0.175084,0.675378,0.133876,0.070781,0.878585,0.204627,-0.450603,-0.445857,-0.997841,1.958791,-0.186674,-0.151882,0.608643
0.048000,-1.220564,-0.523432,0.297881,0.996770,0.047106,-0.011525,0.064017,-0.024089,-0.200481,0.030051,0.244923,-0.091946,-0.270366,0.050423,-0.821458,0.068659,-0.006604,0.847853,-0.094956,0.123710,-0.768231,0.042921,-0.131365,0.657445,0.176538,0.498680,0.091130,0.106092,0.843741,-0.033939,0.291248,-0.251243,-0.940355,1.878507,-0.031457,-0.226665,0.727007
0.050000,-1.220577,-0.524037,0.297934,0.996837,0.045941,-0.011809,0.063763,-0.006674,-0.302695,0.026457,-1.185608,-0.220098,-0.230703,0.054532,-0.820765,0.067471,0.002604,0.841889,-0.069118,0.118170,-0.772536,0.051200,-0.135102,0.657711,0.176437,2.054300,0.346398,-0.593980,4.603932,-2.981882,12.919127,-2.769791,-2.152149,4.139855,-1.868191,0.133344,-0.050632
0.052000,-1.220588,-0.524706,0.297967,0.996925,0.044238,-0.012095,0.063544,-0.005307,-0.334480,0.016260,-1.722515,-0.184918,-0.191173,0.059620,-0.820210,0.066376,0.013985,0.834286,-0.039529,0.111283,-0.776894,0.059065,-0.139999,0.657982,0.176165,2.543956,0.277192,-0.547779,5.690523,-3.801381,14.794534,-3.443308,-2.179022,3.932428,-2.448747,0.135117,-0.136047
0.054000,-1.220633,-0.525273,0.297947,0.996986,0.043015,-0.012105,0.063423,-0.022559,-0.283358,-0.010033,-1.223914,0.062857,-0.109303,0.062576,-0.820427,0.068246,0.021396,0.830488,-0.033721,0.105863,-0.779963,0.065364,-0.143669,0.657208,0.176790,1.478364,-0.108568,0.935337,3.705484,-1.899198,2.903626,-2.710322,-1.534639,3.149202,-1.834865,-0.387025,0.312523
0.056000,-1.220723,-0.525658,0.297915,0.996994,0.042973,-0.011742,0.063398,-0.044986,-0.192527,-0.015700,-0.019122,0.362998,-0.040835,0.061888,-0.821388,0.073470,0.022725,0.830776,-0.052082,0.103390,-0.781763,0.070328,-0.143186,0.654869,0.182190,-0.344289,-0.480286,2.611984,0.664231,0.144195,-9.180449,-1.236555,-0.900008,2.482066,0.241670,-1.169299,2.700089
0.058000,-1.220818,-0.525942,0.297943,0.996965,0.043778,-0.011407,0.063352,-0.047801,-0.142302,0.013993,0.824055,0.280976,-0.067120,0.059597,-0.822437,0.078074,0.022163,0.828950,-0.058098,0.103094,-0.783316,0.074670,-0.140098,0.653731,0.183334,-1.145431,-0.524556,2.301603,-0.280947,-0.912962,-3.008122,-0.147658,-0.776300,2.171379,1.543670,-0.568843,0.571921
0.060000,-1.220901,-0.526269,0.298042,0.996952,0.044302,-0.011249,0.063223,-0.041435,-0.163176,0.049505,0.531597,0.118216,-0.140765,0.058295,-0.822745,0.080660,0.023986,0.823333,-0.040717,0.102479,-0.784449,0.077922,-0.137260,0.653930,0.181309,-0.650704,-0.153825,1.293031,0.911539,-2.808866,8.690490,-0.307841,-0.566946,1.625927,1.418902,0.099134,-1.012418
0.062000,-1.220962,-0.526730,0.298161,0.997004,0.043370,-0.011227,0.063061,-0.030226,-0.230601,0.059162,-0.932025,0.074309,-0.155906,0.058985,-0.820299,0.066350,0.029306,0.817764,-0.019884,0.098952,-0.784638,0.079367,-0.137972,0.654436,0.179136,0.344541,1.222923,-7.154656,2.660063,-2.784217,10.416884,-1.763545,-0.094412,0.722286,-0.356023,0.253128,-1.086645
0.064000,-1.221022,-0.527255,0.298205,0.997091,0.041565,-0.011025,0.062926,-0.030336,-0.262601,0.022251,-1.791649,0.310257,-0.128436,0.061654,-0.818869,0.056791,0.034917,0.816143,-0.017674,0.093700,-0.783600,0.079325,-0.140881,0.654227,0.177589,1.334532,0.714862,-4.779765,2.805451,-0.810817,1.104903,-2.625948,0.519211,-0.021145,-1.454286,-0.104261,-0.773279
0.066000,-1.221093,-0.527732,0.298172,0.997158,0.040161,-0.010564,0.062853,-0.035566,-0.238675,-0.016648,-1.375304,0.546101,-0.080336,0.064081,-0.820610,0.062690,0.038329,0.817039,-0.027362,0.089347,-0.782038,0.078975,-0.143253,0.652831,0.177478,1.213481,-0.870408,2.949570,1.706085,0.448116,-4.844266,-2.176382,0.781104,-0.174785,-1.186181,-0.698011,-0.055842
0.068000,-1.221163,-0.528110,0.298136,0.997176,0.039875,-0.010059,0.062839,-0.034954,-0.188755,-0.017750,-0.253481,0.520970,-0.032627,0.063793,-0.823630,0.072430,0.039493,0.816164,-0.026319,0.087347,-0.781103,0.079421,-0.143582,0.650782,0.178724,-0.143759,-1.509836,4.870197,0.582163,-0.437175,0.521595,-1.000217,0.467449,0.222899,-0.164434,-1.024780,0.622916
0.070000,-1.221211,-0.528444,0.298137,0.997164,0.040196,-0.009706,0.062875,-0.024028,-0.166801,0.000320,0.343023,0.332995,0.019207,0.062507,-0.826435,0.080339,0.039860,0.812796,-0.010251,0.086194,-0.781894,0.081623,-0.142979,0.648835,0.180504,-0.643112,-1.402488,3.954574,0.183426,-1.684184,8.033897,-0.576085,-0.395752,1.101157,0.301499,-0.973334,0.890260
0.072000,-1.221229,-0.528823,0.298139,0.997174,0.039862,-0.009514,0.062957,-0.008744,-0.189934,0.000830,-0.320533,0.216214,0.077133,0.060850,-0.826071,0.069734,0.041106,0.810216,0.003125,0.083180,-0.783907,0.084823,-0.144012,0.647446,0.181725,-0.828361,0.182071,-5.302806,0.623037,-1.289897,6.688211,-1.507298,-1.006619,1.599852,-0.516399,-0.694682,0.610286
0.074000,-1.221230,-0.529283,0.298078,0.997221,0.038584,-0.009316,0.063050,-0.000492,-0.229655,-0.030229,-1.262934,0.282257,0.094290,0.061754,-0.825627,0.061416,0.043541,0.810366,0.002521,0.077976,-0.785925,0.087892,-0.147177,0.646345,0.182286,0.452171,0.221587,-4.158770,1.217313,0.074624,-0.301757,-2.601965,-1.008556,1.534821,-1.582596,-0.550295,0.280827
0.076000,-1.221234,-0.529741,0.297960,0.997266,0.037327,-0.009021,0.063129,-0.001873,-0.228974,-0.059373,-1.236650,0.376529,0.076012,0.063206,-0.826504,0.061518,0.045964,0.811031,-0.001889,0.073076,-0.787270,0.090280,-0.150303,0.645203,0.182765,0.725975,-0.438509,0.051006,1.211370,0.332552,-2.205291,-2.449745,-0.672587,1.193943,-1.562835,-0.570828,0.239255
0.078000,-1.221244,-0.530153,0.297822,0.997291,0.036657,-0.008676,0.063180,-0.005214,-0.206233,-0.068767,-0.646233,0.388858,0.042163,0.063738,-0.828392,0.067832,0.048094,0.809619,0.002771,0.069677,-0.788308,0.092426,-0.152116,0.644174,0.183255,0.265676,-0.943926,3.156686,1.065301,-0.705899,2.330143,-1.699789,-0.519358,1.072680,-0.906679,-0.514765,0.244888
0.080000,-1.221249,-0.530540,0.297694,0.997307,0.036242,-0.008351,0.063207,-0.002545,-0.193427,-0.063748,-0.394014,0.351814,0.017387,0.063986,-0.830119,0.073649,0.050341,0.806530,0.014883,0.067361,-0.788722,0.085883,-0.153321,0.643454,0.183554,0.124099,-0.863464,2.908720,1.123365,-1.544329,6.055855,-1.157794,-0.206835,-3.271343,-0.602503,-0.360130,0.149622
0.082000,-1.221244,-0.530899,0.297551,0.997312,0.036030,-0.008103,0.063281,0.002511,-0.179286,-0.071817,-0.195231,0.262967,0.066724,0.064036,-0.831755,0.078582,0.051597,0.803865,0.023757,0.064941,-0.790728,0.082859,-0.154237,0.642878,0.183807,0.025189,-0.818115,2.466526,0.628026,-1.332718,4.437154,-1.210101,-1.002763,-1.511950,-0.457632,-0.287973,0.126731
0.084000,-1.221228,-0.531260,0.297383,0.997318,0.035665,-0.007939,0.063424,0.008226,-0.180876,-0.084144,-0.352833,0.192069,0.138814,0.064500,-0.833155,0.082488,0.052300,0.802724,0.023941,0.060892,-0.794714,0.086282,-0.155658,0.642471,0.183842,0.231635,-0.699775,1.952728,0.351365,-0.570563,0.091918,-2.024286,-1.992910,1.711419,-0.710844,-0.203484,0.017486
0.086000,-1.221209,-0.531638,0.297216,0.997329,0.035081,-0.007869,0.063580,0.009101,-0.188654,-0.083218,-0.577319,0.112804,0.157811,0.065508,-0.834061,0.085108,0.053379,0.801800,0.022325,0.056030,-0.799181,0.091493,-0.157640,0.642272,0.183667,0.504368,-0.452927,1.309982,0.539712,-0.461702,-0.808087,-2.431250,-2.233808,2.605360,-0.990731,-0.099363,-0.087504
0.088000,-1.221203,-0.532010,0.297082,0.997339,0.034551,-0.007881,0.063705,0.003128,-0.186182,-0.067034,-0.528381,0.026056,0.128589,0.066527,-0.834457,0.086568,0.054985,0.799439,0.027399,0.051828,-0.802960,0.095958,-0.159507,0.642169,0.183561,0.509479,-0.197871,0.730394,0.802855,-1.180568,2.537297,-2.100773,-1.889563,2.232767,-0.933858,-0.051451,-0.053191
0.090000,-1.221217,-0.532355,0.296981,0.997347,0.034125,-0.007891,0.063810,-0.006784,-0.172334,-0.050314,-0.425227,0.020288,0.107258,0.065176,-0.831407,0.070331,0.056732,0.796215,0.036183,0.048352,-0.805863,0.099498,-0.161076,0.641849,0.183802,-0.675564,1.524787,-8.118737,0.873750,-1.612053,4.391974,-1.738196,-1.451569,1.769918,-0.784158,-0.159782,0.120597
0.092000,-1.221261,-0.532670,0.296843,0.997350,0.033951,-0.007673,0.063880,-0.022052,-0.157626,-0.069010,-0.158511,0.230926,0.064058,0.063498,-0.829400,0.060493,0.058097,0.793606,0.040755,0.045837,-0.807484,0.102068,-0.161980,0.640734,0.184783,-0.838963,1.003715,-4.918878,0.682548,-1.304267,2.286043,-1.257695,-0.810414,1.285014,-0.452112,-0.557671,0.490307
0.094000,-1.221332,-0.532974,0.296636,0.997352,0.033978,-0.007163,0.063899,-0.035377,-0.151966,-0.103936,0.058966,0.507767,0.001005,0.062969,-0.830621,0.068860,0.059393,0.791904,0.040208,0.044092,-0.807765,0.103720,-0.162334,0.638783,0.186436,-0.264842,-0.610527,4.183256,0.647947,-0.851483,-0.273618,-0.872364,-0.140452,0.825798,-0.177171,-0.975788,0.826436
0.096000,-1.221404,-0.533304,0.296401,0.997365,0.033790,-0.006575,0.063857,-0.036116,-0.165041,-0.117494,-0.150450,0.596839,-0.061516,0.063528,-0.832566,0.080470,0.061837,0.790094,0.041512,0.042181,-0.807226,0.104596,-0.163061,0.636821,0.187944,0.279876,-0.972608,5.805396,1.221573,-0.904758,0.651629,-0.955462,0.269793,0.438020,-0.363427,-0.980919,0.754351
0.098000,-1.221462,-0.533675,0.296174,0.997396,0.033168,-0.006082,0.063758,-0.029045,-0.185427,-0.113107,-0.590583,0.529083,-0.113137,0.065237,-0.834018,0.089863,0.065713,0.787886,0.047463,0.039586,-0.806368,0.104928,-0.164653,0.635554,0.188633,0.854308,-0.726204,4.696146,1.938367,-1.104079,2.975883,-1.297587,0.428748,0.166120,-0.795678,-0.633275,0.344189
0.100000,-1.221502,-0.534055,0.295971,0.997434,0.032287,-0.005746,0.063637,-0.019860,-0.189971,-0.101901,-0.859305,0.387359,-0.128767,0.067559,-0.834964,0.096938,0.069762,0.786085,0.054259,0.036623,-0.805659,0.105132,-0.166761,0.635117,0.188451,1.161212,-0.472855,3.537400,2.024597,-0.900200,3.397896,-1.481502,0.354282,0.102077,-1.054185,-0.218596,-0.091045
0.102000,-1.221510,-0.534506,0.295805,0.997498,0.030514,-0.005604,0.063527,-0.004406,-0.225685,-0.082533,-1.761706,0.250644,-0.107810,0.070811,-0.832819,0.084067,0.074744,0.785079,0.061189,0.031864,-0.804868,0.104652,-0.170979,0.635283,0.187572,1.625878,1.072711,-6.435264,2.490902,-0.503398,3.465165,-2.379549,0.395701,-0.240107,-2.109254,0.083190,-0.439257
0.104000,-1.221519,-0.534899,0.295628,0.997541,0.029251,-0.005395,0.063466,-0.004482,-0.196418,-0.088878,-1.248805,0.287169,-0.063709,0.073241,-0.831499,0.074810,0.077151,0.785123,0.064454,0.028212,-0.804211,0.104421,-0.174194,0.634964,0.187342,1.214939,0.659949,-4.628341,1.203473,0.021944,1.632382,-1.826051,0.328502,-0.115389,-1.607113,-0.159494,-0.114923
0.106000,-1.221530,-0.535176,0.295390,0.997546,0.029187,-0.005025,0.063446,-0.005502,-0.138634,-0.118741,-0.040818,0.372744,-0.030654,0.074464,-0.834275,0.084051,0.075871,0.785504,0.066375,0.027092,-0.804033,0.105176,-0.174920,0.634027,0.187957,0.611750,-1.387970,4.620442,-0.639979,0.190828,0.960562,-0.559850,0.089276,0.377667,-0.363348,-0.468625,0.307332
0.108000,-1.221531,-0.535421,0.295125,0.997539,0.029476,-0.004649,0.063451,-0.000485,-0.122453,-0.132489,0.312542,0.357102,-0.006189,0.075304,-0.838316,0.097517,0.073457,0.785401,0.070655,0.026693,-0.804241,0.106436,-0.174989,0.633070,0.188653,0.419757,-2.020647,6.732898,-1.207130,-0.051806,2.139892,-0.199458,-0.104384,0.629739,-0.034591,-0.478647,0.348264
0.110000,-1.221485,-0.535730,0.294810,0.997558,0.028978,-0.004487,0.063396,0.023129,-0.154359,-0.157675,-0.487415,0.191912,-0.058708,0.077998,-0.842252,0.108726,0.072929,0.785137,0.077219,0.024756,-0.804883,0.107857,-0.176545,0.635731,0.178894,1.347179,-1.967882,5.604507,-0.264030,-0.131663,3.281760,-0.968422,-0.320727,0.710311,-0.777759,1.330478,-4.879591
0.112000,-1.221416,-0.536111,0.294489,0.997596,0.027654,-0.004462,0.063385,0.034350,-0.190432,-0.160480,-1.319573,0.108400,-0.007999,0.081042,-0.843839,0.105173,0.074134,0.784839,0.082555,0.021024,-0.805590,0.108983,-0.180857,0.638174,0.174085,1.521839,-0.793473,-1.776405,0.602699,-0.149309,2.668270,-1.865858,-0.353870,0.563369,-2.155945,1.221575,-2.404741
0.114000,-1.221321,-0.536489,0.294087,0.997640,0.026173,-0.004441,0.063326,0.047427,-0.189342,-0.200926,-1.477906,0.113538,-0.055863,0.084726,-0.847265,0.108674,0.075724,0.784933,0.084791,0.017112,-0.806434,0.110352,-0.184759,0.643640,0.160426,1.841904,-1.713091,1.750413,0.794914,0.047217,1.118054,-1.956057,-0.421807,0.684586,-1.951047,2.732973,-6.829287
0.116000,-1.221246,-0.536790,0.293657,0.997657,0.025528,-0.004215,0.063328,0.037787,-0.150188,-0.215016,-0.630119,0.265894,-0.002693,0.086043,-0.852064,0.118773,0.075562,0.784101,0.087191,0.014900,-0.807199,0.112043,-0.186924,0.647304,0.156377,0.658356,-2.399409,5.049438,-0.081130,-0.416239,1.199848,-1.106216,-0.382504,0.845175,-1.082297,1.832232,-2.024514
0.118000,-1.221152,-0.537037,0.293149,0.997671,0.025241,-0.003944,0.063249,0.046780,-0.123673,-0.253983,-0.269079,0.286489,-0.084622,0.086940,-0.859397,0.139829,0.075075,0.782586,0.091806,0.013653,-0.808178,0.114249,-0.186808,0.654689,0.139932,0.448922,-3.666881,10.527981,-0.243498,-0.757281,2.307397,-0.623472,-0.489570,1.103293,0.057836,3.692269,-8.222541
0.120000,-1.221057,-0.537308,0.292639,0.997689,0.024622,-0.003675,0.063215,0.047436,-0.135590,-0.255085,-0.601182,0.307375,-0.039694,0.086814,-0.864979,0.150138,0.075554,0.780484,0.096943,0.011675,-0.808967,0.116142,-0.187994,0.661199,0.129756,-0.063332,-2.790745,5.154403,0.239543,-1.050792,2.568591,-0.989068,-0.394238,0.946540,-0.592880,3.255134,-5.088051
0.122000,-1.220931,-0.537623,0.292060,0.997729,0.023304,-0.003478,0.063108,0.063044,-0.157278,-0.289334,-1.304430,0.277422,-0.109528,0.088001,-0.871170,0.160589,0.077811,0.778894,0.100222,0.008425,-0.809701,0.117881,-0.189939,0.671274,0.107628,0.593452,-3.095352,5.225565,1.128288,-0.795396,1.639675,-1.624830,-0.367318,0.869177,-0.972584,5.037458,-11.064057
0.124000,-1.220817,-0.537938,0.291474,0.997762,0.021987,-0.003159,0.063071,0.057092,-0.157648,-0.293303,-1.295046,0.400481,-0.042068,0.088105,-0.877029,0.168012,0.080028,0.777128,0.102323,0.005094,-0.810066,0.119315,-0.192739,0.678911,0.097033,0.051941,-2.929689,3.711725,1.108935,-0.882706,1.050446,-1.665798,-0.182551,0.717165,-1.399984,3.818492,-5.297501
0.126000,-1.220686,-0.538226,0.290804,0.997797,0.020772,-0.002764,0.062952,0.065671,-0.143723,-0.334783,-1.188271,0.468316,-0.125448,0.088820,-0.885728,0.187999,0.082399,0.776719,0.102110,0.002187,-0.810398,0.120980,-0.194020,0.689580,0.074966,0.357883,-4.349560,9.993275,1.185221,-0.204411,-0.106505,-1.453267,-0.165678,0.832529,-0.640469,5.334269,-11.033510
0.128000,-1.220564,-0.538479,0.290135,0.997821,0.019873,-0.002273,0.062879,0.061014,-0.126923,-0.334514,-0.866930,0.545056,-0.082326,0.087879,-0.894245,0.205180,0.084271,0.776925,0.100495,-0.000095,-0.810619,0.122657,-0.194989,0.698673,0.060151,-0.470667,-4.258722,8.590740,0.935865,0.102876,-0.807385,-1.140834,-0.110778,0.838253,-0.484496,4.546764,-7.407395
0.130000,-1.220422,-0.538703,0.289433,0.997846,0.019099,-0.001844,0.062729,0.070683,-0.111946,-0.351220,-0.745621,0.473769,-0.157325,0.086844,-0.903939,0.225018,0.086141,0.777897,0.098004,-0.001932,-0.811181,0.124749,-0.194526,0.710945,0.033286,-0.517569,-4.846535,9.919009,0.935306,0.486138,-1.245492,-0.918461,-0.280802,1.046316,0.231405,6.135993,-13.432670
0.132000,-1.220288,-0.538927,0.288778,0.997865,0.018451,-0.001442,0.062632,0.067400,-0.111672,-0.327283,-0.622557,0.439956,-0.104859,0.084595,-0.912526,0.236520,0.087864,0.779005,0.095240,-0.003619,-0.811815,0.126813,-0.194805,0.721215,0.015903,-1.124407,-4.293848,5.750721,0.861406,0.553755,-1.382279,-0.843631,-0.316894,1.031812,-0.139625,5.134761,-8.691490
0.134000,-1.220144,-0.539153,0.288129,0.997886,0.017879,-0.001130,0.062470,0.071830,-0.113033,-0.324708,-0.551642,0.344206,-0.167873,0.083202,-0.922454,0.253103,0.089693,0.780384,0.092430,-0.005075,-0.812719,0.129147,-0.194503,0.733220,-0.007903,-0.696323,-4.963683,8.291789,0.914510,0.689684,-1.404843,-0.728177,-0.452328,1.166780,0.151327,6.002441,-11.902609
0.136000,-1.220012,-0.539407,0.287531,0.997906,0.017309,-0.000863,0.062322,0.066246,-0.126938,-0.299021,-0.552294,0.298882,-0.153265,0.082189,-0.932278,0.269001,0.091682,0.781707,0.089735,-0.006632,-0.813592,0.131348,-0.195152,0.743701,-0.025136,-0.506878,-4.912293,7.948639,0.994377,0.661241,-1.347366,-0.778482,-0.436356,1.100912,-0.324675,5.240506,-8.616709
0.138000,-1.219877,-0.539678,0.286944,0.997931,0.016663,-0.000705,0.062087,0.067256,-0.135717,-0.293506,-0.635800,0.194052,-0.238357,0.082566,-0.943172,0.290813,0.094071,0.783209,0.087175,-0.008243,-0.814610,0.133657,-0.195271,0.756435,-0.052327,0.188941,-5.447020,10.906304,1.194757,0.751319,-1.280199,-0.805501,-0.508980,1.154482,-0.059411,6.367240,-13.595648
0.140000,-1.219763,-0.539960,0.286424,0.997954,0.016109,-0.000589,0.061873,0.057176,-0.141063,-0.260022,-0.545530,0.146929,-0.216510,0.082329,-0.952972,0.307876,0.096346,0.784462,0.085019,-0.009748,-0.815562,0.135793,-0.195968,0.767701,-0.073978,-0.118687,-4.900086,8.531504,1.137250,0.626467,-1.078203,-0.752607,-0.475898,1.067920,-0.348453,5.633190,-10.825595
0.142000,-1.219666,-0.540216,0.285944,0.997973,0.015903,-0.000505,0.061623,0.048375,-0.127905,-0.239689,-0.201607,0.092188,-0.252091,0.081282,-0.962639,0.325655,0.098019,0.785489,0.083395,-0.010487,-0.816584,0.138047,-0.195429,0.779659,-0.099523,-0.523310,-4.833293,8.889237,0.836764,0.513553,-0.812023,-0.369443,-0.511275,1.126958,0.269420,5.978770,-12.772244
0.144000,-1.219595,-0.540471,0.285533,0.997987,0.015914,-0.000424,0.061395,0.035343,-0.127691,-0.205539,0.016271,0.077233,-0.229728,0.079286,-0.971353,0.340341,0.099286,0.786170,0.082243,-0.010865,-0.817462,0.140114,-0.195103,0.790025,-0.119102,-0.998192,-4.357168,7.343155,0.633205,0.340118,-0.575815,-0.188623,-0.438966,1.033466,0.163007,5.183091,-9.789639
0.146000,-1.219540,-0.540725,0.285157,0.998001,0.016069,-0.000382,0.061117,0.027794,-0.126844,-0.187866,0.156908,0.027988,-0.278828,0.077368,-0.980259,0.358223,0.100380,0.786704,0.081507,-0.010904,-0.818317,0.142173,-0.193944,0.801299,-0.143466,-0.959048,-4.452948,8.940771,0.547097,0.267364,-0.367927,-0.019708,-0.427409,1.029566,0.579287,5.636993,-12.181726
0.148000,-1.219498,-0.541019,0.284836,0.998019,0.016053,-0.000397,0.060831,0.021052,-0.146756,-0.160660,-0.017769,-0.018769,-0.286287,0.076042,-0.988739,0.375416,0.101912,0.787097,0.081080,-0.011371,-0.819022,0.143942,-0.193707,0.811975,-0.165581,-0.662838,-4.239805,8.596654,0.766088,0.196284,-0.213677,-0.233651,-0.352333,0.884599,0.118772,5.337720,-11.057523
0.150000,-1.219466,-0.541323,0.284559,0.998038,0.016056,-0.000469,0.060512,0.015688,-0.152303,-0.138534,-0.001375,-0.077471,-0.318197,0.074696,-0.996981,0.392489,0.103488,0.787330,0.081106,-0.011798,-0.819709,0.145628,-0.193152,0.823190,-0.190261,-0.673069,-4.121096,8.536371,0.788115,0.116662,0.013182,-0.213459,-0.343351,0.842867,0.277495,5.607984,-12.340156
0.152000,-1.219448,-0.541649,0.284341,0.998057,0.016062,-0.000577,0.060200,0.009130,-0.162712,-0.109051,-0.001138,-0.112956,-0.311100,0.073137,-1.004703,0.407229,0.105103,0.787311,0.081591,-0.012309,-0.820303,0.147114,-0.193091,0.833572,-0.211115,-0.779539,-3.861222,7.370041,0.807342,-0.009571,0.242243,-0.255304,-0.297265,0.743085,0.030317,5.190951,-10.426768
0.154000,-1.219446,-0.541949,0.284174,0.998070,0.016439,-0.000685,0.059875,0.000754,-0.150434,-0.083560,0.369342,-0.135430,-0.322976,0.070215,-1.012021,0.420739,0.105991,0.786932,0.082730,-0.012071,-0.820908,0.148648,-0.191789,0.843926,-0.231982,-1.461216,-3.658991,6.755183,0.444195,-0.189450,0.569921,0.118766,-0.302253,0.766844,0.650936,5.176931,-10.433938
0.156000,-1.219455,-0.542269,0.284054,0.998084,0.016831,-0.000824,0.059539,-0.004287,-0.159841,-0.059875,0.382613,-0.168533,-0.334901,0.067376,-1.019275,0.434542,0.106914,0.786340,0.084311,-0.011862,-0.821445,0.150047,-0.190492,0.854025,-0.251787,-1.419123,-3.626822,6.901720,0.461365,-0.295976,0.790357,0.104492,-0.268582,0.699549,0.648374,5.049182,-9.902517
0.158000,-1.219476,-0.542583,0.283981,0.998095,0.017415,-0.000977,0.059186,-0.010758,-0.157126,-0.036352,0.573111,-0.192802,-0.350777,0.063669,-1.026057,0.447224,0.107489,0.785473,0.086427,-0.011286,-0.821948,0.151404,-0.188290,0.864150,-0.272115,-1.853570,-3.391166,6.340550,0.287206,-0.433538,1.057890,0.288215,-0.251483,0.678352,1.101209,5.062866,-10.163535
0.160000,-1.219502,-0.542947,0.283945,0.998111,0.017696,-0.001176,0.058819,-0.012970,-0.182076,-0.018184,0.267553,-0.221806,-0.363740,0.060918,-1.032738,0.460290,0.108755,0.784587,0.088653,-0.011407,-0.822290,0.152458,-0.186871,0.874070,-0.291906,-1.375466,-3.340319,6.533463,0.633293,-0.443150,1.113235,-0.060731,-0.171153,0.527075,0.709395,4.959804,-9.895677
0.162000,-1.219543,-0.543312,0.283952,0.998125,0.018070,-0.001353,0.058464,-0.020437,-0.182251,0.003358,0.363023,-0.204559,-0.352755,0.056899,-1.038341,0.469517,0.109819,0.783501,0.091104,-0.011394,-0.822465,0.153321,-0.184986,0.883318,-0.309628,-2.009730,-2.801240,4.613360,0.531832,-0.543179,1.225525,0.006838,-0.087437,0.431444,0.942811,4.624201,-8.861137
0.164000,-1.219592,-0.543709,0.283982,0.998142,0.018264,-0.001525,0.058105,-0.024512,-0.198412,0.015055,0.181972,-0.190005,-0.356318,0.053293,-1.043764,0.479538,0.111287,0.782420,0.093476,-0.011814,-0.822432,0.153919,-0.183351,0.892193,-0.326851,-1.803170,-2.711926,5.010250,0.734344,-0.540527,1.185897,-0.210214,0.016370,0.299267,0.817187,4.437374,-8.611571
0.166000,-1.219662,-0.544076,0.284045,0.998152,0.018802,-0.001616,0.057769,-0.034602,-0.183594,0.031757,0.531360,-0.127691,-0.334765,0.047495,-1.047971,0.486035,0.111994,0.781093,0.095997,-0.011568,-0.822225,0.154438,-0.180335,0.900184,-0.341701,-2.898548,-2.103457,3.248820,0.353459,-0.663182,1.260221,0.122899,0.103632,0.259587,1.508234,3.995467,-7.424890
0.168000,-1.219735,-0.544475,0.284116,0.998165,0.019132,-0.001698,0.057423,-0.036893,-0.199390,0.035370,0.323599,-0.107347,-0.345380,0.042456,-1.052233,0.494945,0.113161,0.779871,0.098286,-0.011791,-0.821843,0.154754,-0.177280,0.908145,-0.357938,-2.519617,-2.130916,4.455001,0.583298,-0.611265,1.144449,-0.111577,0.190977,0.157974,1.527326,3.980656,-8.118525
0.170000,-1.219822,-0.544860,0.284213,0.998174,0.019634,-0.001720,0.057106,-0.043175,-0.192692,0.048572,0.499688,-0.057158,-0.316807,0.035729,-1.055182,0.499385,0.113910,0.778512,0.100585,-0.011722,-0.821326,0.154969,-0.173352,0.915199,-0.371298,-3.363408,-1.474538,2.219617,0.374356,-0.679361,1.149937,0.034751,0.258365,0.107176,1.964278,3.527024,-6.679894
0.172000,-1.219904,-0.545294,0.284310,0.998189,0.019757,-0.001766,0.056784,-0.041107,-0.216988,0.048401,0.118829,-0.058979,-0.321843,0.030443,-1.058263,0.505818,0.115468,0.777361,0.102559,-0.012493,-0.820712,0.154991,-0.169927,0.922274,-0.385709,-2.643340,-1.540290,3.216524,0.779182,-0.575607,0.986649,-0.385467,0.306997,0.010950,1.712200,3.537429,-7.205435
0.174000,-1.219994,-0.545712,0.284431,0.998199,0.020070,-0.001762,0.056505,-0.045217,-0.208952,0.060682,0.311869,-0.019328,-0.280256,0.023383,-1.059897,0.506523,0.116550,0.776068,0.104578,-0.012951,-0.820057,0.154988,-0.165730,0.928271,-0.395964,-3.529677,-0.816935,0.352459,0.541192,-0.646556,1.009736,-0.228933,0.327464,-0.001188,2.098719,2.998535,-5.127481
0.176000,-1.220079,-0.546161,0.284546,0.998213,0.020160,-0.001779,0.056220,-0.042457,-0.224615,0.057365,0.088879,-0.027643,-0.285201,0.017574,-1.061814,0.510174,0.118111,0.774932,0.106392,-0.013909,-0.819425,0.154966,-0.161466,0.934418,-0.407892,-2.904522,-0.958795,1.825679,0.780351,-0.567831,0.907042,-0.478944,0.315926,-0.011187,2.131868,3.073440,-5.963898
0.178000,-1.220173,-0.546575,0.284681,0.998217,0.020621,-0.001737,0.055979,-0.046767,-0.207016,0.067691,0.461113,0.010342,-0.242508,0.009659,-1.062323,0.508830,0.118821,0.773582,0.108388,-0.014170,-0.818847,0.155072,-0.155876,0.939505,-0.415834,-3.957796,-0.254303,-0.671916,0.354697,-0.675147,0.997996,-0.130578,0.289061,0.053235,2.795078,2.543442,-3.971448
0.180000,-1.220258,-0.547023,0.284805,0.998227,0.020831,-0.001736,0.055730,-0.042639,-0.223630,0.061890,0.209221,-0.015103,-0.249508,0.003274,-1.063147,0.510935,0.120070,0.772408,0.110210,-0.014984,-0.818358,0.155215,-0.150273,0.944853,-0.426181,-3.192415,-0.411946,1.052561,0.624869,-0.586928,0.910695,-0.407304,0.244768,0.071384,2.801251,2.673756,-5.173381
0.182000,-1.220347,-0.547456,0.284948,0.998231,0.021189,-0.001709,0.055526,-0.044516,-0.216923,0.071492,0.358349,0.002928,-0.204284,-0.004553,-1.062418,0.507304,0.120928,0.771106,0.112125,-0.015586,-0.817937,0.155421,-0.144156,0.949080,-0.432280,-3.913632,0.364300,-1.815746,0.428649,-0.651119,0.957704,-0.301053,0.210384,0.102960,3.058407,2.113643,-3.049467
0.184000,-1.220427,-0.547930,0.285078,0.998242,0.021217,-0.001732,0.055318,-0.039756,-0.236975,0.065063,0.026424,-0.029226,-0.208540,-0.010630,-1.061904,0.506746,0.122486,0.770006,0.113835,-0.016901,-0.817586,0.155607,-0.138387,0.953471,-0.440524,-3.038412,0.257270,-0.279082,0.779036,-0.549954,0.854771,-0.657113,0.175519,0.093072,2.884662,2.195744,-4.122052
0.186000,-1.220511,-0.548385,0.285225,0.998246,0.021436,-0.001722,0.055153,-0.042336,-0.227237,0.073220,0.219003,-0.005408,-0.164710,-0.018212,-1.059878,0.500886,0.123561,0.768762,0.115644,-0.017872,-0.817244,0.155807,-0.132055,0.956697,-0.444524,-3.791139,1.012756,-2.929762,0.537576,-0.621889,0.904899,-0.485408,0.171087,0.099636,3.166152,1.612988,-1.999731
0.188000,-1.220590,-0.548860,0.285355,0.998254,0.021493,-0.001738,0.054982,-0.039279,-0.237602,0.065266,0.055430,-0.023652,-0.170788,-0.024510,-1.058147,0.498719,0.124986,0.767657,0.117314,-0.019179,-0.816967,0.156045,-0.125559,0.960096,-0.450994,-3.148682,0.865486,-1.083589,0.712797,-0.552668,0.834692,-0.653820,0.138558,0.119271,3.247784,1.699486,-3.235305
0.190000,-1.220672,-0.549310,0.285495,0.998256,0.021775,-0.001722,0.054850,-0.041175,-0.225183,0.069989,0.282009,-0.001786,-0.133007,-0.032211,-1.055204,0.492360,0.125866,0.766421,0.119084,-0.020054,-0.816726,0.156348,-0.118406,0.962529,-0.453995,-3.850805,1.471493,-3.179444,0.439679,-0.617740,0.885020,-0.437271,0.120346,0.151324,3.576525,1.216418,-1.500208
0.192000,-1.220745,-0.549783,0.285616,0.998261,0.021853,-0.001743,0.054712,-0.036527,-0.236493,0.060514,0.076635,-0.028544,-0.137580,-0.038564,-1.052638,0.489140,0.127176,0.765355,0.120693,-0.021347,-0.816575,0.156693,-0.111346,0.965215,-0.459363,-3.176182,1.282976,-1.609754,0.655359,-0.533034,0.804669,-0.646763,0.075441,0.172757,3.530011,1.342855,-2.684124
0.194000,-1.220815,-0.550245,0.285739,0.998264,0.022003,-0.001760,0.054608,-0.035035,-0.230942,0.061212,0.148452,-0.027653,-0.104405,-0.045711,-1.049207,0.482139,0.128267,0.764261,0.122317,-0.022519,-0.816500,0.157092,-0.104191,0.967244,-0.461963,-3.573429,1.715609,-3.500930,0.545407,-0.546775,0.811942,-0.585827,0.037561,0.199328,3.577714,1.014769,-1.299813
0.196000,-1.220874,-0.550725,0.285840,0.998270,0.021975,-0.001815,0.054502,-0.029445,-0.239934,0.050534,-0.031184,-0.055530,-0.104693,-0.051710,-1.046240,0.477705,0.129727,0.763337,0.123784,-0.024055,-0.816542,0.157563,-0.097263,0.969549,-0.466335,-2.999909,1.483676,-2.216907,0.729958,-0.462088,0.733293,-0.768020,-0.020777,0.235492,3.463755,1.152507,-2.186154
0.198000,-1.220927,-0.551190,0.285931,0.998273,0.022043,-0.001870,0.054418,-0.026559,-0.232312,0.045416,0.064950,-0.060046,-0.082462,-0.058305,-1.042965,0.471514,0.130933,0.762428,0.125240,-0.025394,-0.816709,0.158170,-0.090117,0.971662,-0.469565,-3.297094,1.637145,-3.095447,0.602890,-0.454723,0.728107,-0.669565,-0.083858,0.303759,3.573080,1.056266,-1.615048
0.200000,-1.220970,-0.551658,0.285998,0.998277,0.022056,-0.001946,0.054338,-0.021572,-0.234019,0.033789,0.007779,-0.078007,-0.078749,-0.064316,-1.040216,0.467512,0.132246,0.761642,0.126579,-0.026839,-0.817010,0.158909,-0.083029,0.974058,-0.474054,-3.005443,1.374675,-2.000717,0.656553,-0.392968,0.669733,-0.722520,-0.150313,0.369376,3.544110,1.198117,-2.244673
0.202000,-1.221005,-0.552109,0.286045,0.998278,0.022164,-0.002031,0.054268,-0.017167,-0.225668,0.023255,0.103527,-0.093246,-0.068482,-0.070729,-1.037693,0.463568,0.133327,0.760911,0.127902,-0.028065,-0.817491,0.159862,-0.075648,0.976823,-0.479399,-3.206482,1.261584,-1.972174,0.540334,-0.365541,0.661459,-0.612759,-0.240792,0.476258,3.690391,1.382441,-2.672366
0.204000,-1.221029,-0.552564,0.286070,0.998280,0.022202,-0.002139,0.054210,-0.011877,-0.227434,0.012739,0.031918,-0.110719,-0.056002,-0.076868,-1.035602,0.460317,0.134532,0.760291,0.129109,-0.029436,-0.818095,0.160916,-0.068715,0.979792,-0.484800,-3.069979,1.045550,-1.625722,0.602693,-0.310118,0.603196,-0.685938,-0.301823,0.527083,3.466764,1.484532,-2.700683
0.206000,-1.221051,-0.553009,0.286097,0.998280,0.022277,-0.002232,0.054177,-0.011032,-0.222458,0.013522,0.069624,-0.097603,-0.030161,-0.083676,-1.032975,0.453622,0.135602,0.759634,0.130302,-0.030735,-0.818664,0.161909,-0.062056,0.982277,-0.487281,-3.403977,1.313317,-3.347434,0.535104,-0.328249,0.596884,-0.649026,-0.284548,0.496442,3.329254,1.242237,-1.240425
0.208000,-1.221071,-0.553460,0.286117,0.998282,0.022258,-0.002319,0.054151,-0.010317,-0.225777,0.009978,-0.023285,-0.086070,-0.025040,-0.090104,-1.030399,0.447337,0.136853,0.759021,0.131379,-0.032210,-0.819143,0.162785,-0.055754,0.984616,-0.489406,-3.213707,1.288110,-3.142468,0.625191,-0.306334,0.538144,-0.737557,-0.239233,0.438231,3.151170,1.169672,-1.062255
0.210000,-1.221101,-0.553910,0.286155,0.998283,0.022215,-0.002367,0.054145,-0.014691,-0.224731,0.018804,-0.046255,-0.045773,-0.004657,-0.096943,-1.026769,0.437255,0.138103,0.758308,0.132431,-0.033729,-0.819361,0.163356,-0.049820,0.985937,-0.487936,-3.419618,1.814862,-5.040748,0.625119,-0.356891,0.526311,-0.759602,-0.109238,0.285236,2.967020,0.660277,0.734906
0.212000,-1.221137,-0.554365,0.286189,0.998287,0.022101,-0.002392,0.054119,-0.018186,-0.227321,0.017277,-0.115503,-0.019945,-0.024994,-0.102948,-1.023204,0.430116,0.139520,0.757600,0.133401,-0.035334,-0.819371,0.163733,-0.043555,0.987265,-0.488899,-3.002584,1.782555,-3.569672,0.708678,-0.353780,0.485022,-0.802619,-0.005160,0.188629,3.132355,0.663999,-0.481583
0.214000,-1.221187,-0.554817,0.286252,0.998290,0.021976,-0.002375,0.054112,-0.025129,-0.226162,0.031280,-0.123489,0.023915,-0.006914,-0.109196,-1.018324,0.419101,0.140907,0.756732,0.134422,-0.036952,-0.819075,0.163754,-0.037584,0.987248,-0.485925,-3.124037,2.440017,-5.507333,0.693160,-0.434204,0.510320,-0.808740,0.148195,0.010807,2.985283,-0.008285,1.487256
0.216000,-1.221245,-0.555269,0.286317,0.998295,0.021835,-0.002344,0.054086,-0.028785,-0.226106,0.032699,-0.139235,0.037754,-0.027274,-0.114590,-1.013405,0.410655,0.142342,0.755826,0.135474,-0.038546,-0.818638,0.163651,-0.031107,0.987155,-0.485231,-2.696967,2.459374,-4.223106,0.717765,-0.452974,0.526032,-0.797439,0.218493,-0.051796,3.238761,-0.046637,0.346670
0.218000,-1.221313,-0.555722,0.286418,0.998298,0.021662,-0.002295,0.054092,-0.033980,-0.226366,0.050169,-0.170664,0.058555,0.005901,-0.120119,-1.006978,0.396628,0.143767,0.754746,0.136654,-0.040233,-0.818003,0.163253,-0.025403,0.985366,-0.478560,-2.764148,3.213676,-7.013451,0.712357,-0.539975,0.589831,-0.843370,0.317371,-0.198729,2.851796,-0.894471,3.335686
0.220000,-1.221383,-0.556172,0.286516,0.998303,0.021493,-0.002261,0.054079,-0.034964,-0.225126,0.049412,-0.166588,0.042818,-0.014453,-0.124575,-1.000723,0.385619,0.145194,0.753654,0.137935,-0.041861,-0.817399,0.162898,-0.019145,0.983721,-0.474789,-2.228405,3.127558,-5.504403,0.713440,-0.545653,0.640496,-0.814152,0.302336,-0.177480,3.129331,-0.822164,1.885257
0.222000,-1.221457,-0.556624,0.286642,0.998306,0.021283,-0.002240,0.054101,-0.037135,-0.225860,0.062664,-0.208226,0.032983,0.021933,-0.128845,-0.993239,0.369853,0.146623,0.752445,0.139359,-0.043615,-0.816777,0.162426,-0.013812,0.980560,-0.465596,-2.134699,3.741638,-7.883267,0.714847,-0.604568,0.712036,-0.877005,0.310852,-0.236114,2.666515,-1.580573,4.596672
0.224000,-1.221529,-0.557064,0.286754,0.998309,0.021152,-0.002251,0.054102,-0.035864,-0.220232,0.056302,-0.131820,-0.003994,0.001370,-0.132102,-0.986209,0.358059,0.147900,0.751265,0.140906,-0.045162,-0.816360,0.162207,-0.007696,0.977865,-0.460472,-1.628746,3.515390,-5.896915,0.638058,-0.590267,0.773404,-0.773379,0.208436,-0.109832,3.057580,-1.347684,2.561833
0.226000,-1.221602,-0.557504,0.286887,0.998310,0.020990,-0.002285,0.054149,-0.036455,-0.219771,0.066199,-0.163037,-0.024242,0.048671,-0.135296,-0.977974,0.341103,0.149131,0.750019,0.142532,-0.046831,-0.816022,0.161970,-0.002776,0.973583,-0.449257,-1.596799,4.117528,-8.477816,0.615792,-0.622962,0.813143,-0.834400,0.169158,-0.118483,2.460428,-2.141093,5.607649
0.228000,-1.221670,-0.557927,0.287000,0.998309,0.020933,-0.002352,0.054184,-0.034332,-0.211703,0.056841,-0.060574,-0.062855,0.036461,-0.137783,-0.970131,0.327441,0.150124,0.748858,0.144185,-0.048248,-0.815941,0.162051,0.002793,0.969740,-0.441629,-1.243808,3.921117,-6.830998,0.496351,-0.580321,0.826579,-0.708450,0.040640,0.040592,2.784165,-1.921514,3.814044
0.230000,-1.221740,-0.558355,0.287128,0.998307,0.020781,-0.002438,0.054269,-0.034886,-0.214075,0.063904,-0.156752,-0.075825,0.086309,-0.140145,-0.961093,0.308659,0.151202,0.747698,0.145775,-0.049923,-0.815891,0.162063,0.006840,0.964267,-0.427722,-1.180666,4.518989,-9.391376,0.539143,-0.580073,0.795090,-0.837584,0.024707,0.006010,2.023596,-2.736485,6.953328
0.232000,-1.221806,-0.558767,0.287231,0.998305,0.020719,-0.002545,0.054334,-0.033194,-0.205956,0.051521,-0.066605,-0.101900,0.067866,-0.141860,-0.952531,0.293754,0.152059,0.746767,0.147182,-0.051356,-0.816040,0.162354,0.011579,0.959377,-0.418130,-0.857755,4.281315,-7.452495,0.428307,-0.465339,0.703281,-0.716680,-0.074232,0.145418,2.369357,-2.444651,4.796164
0.234000,-1.221876,-0.559184,0.287343,0.998302,0.020560,-0.002657,0.054441,-0.034689,-0.208313,0.056007,-0.165322,-0.101538,0.110073,-0.143447,-0.942935,0.274653,0.153027,0.745863,0.148456,-0.053037,-0.816154,0.162534,0.014905,0.953010,-0.403131,-0.793158,4.798065,-9.550145,0.483908,-0.452115,0.637211,-0.840415,-0.057024,0.090086,1.663416,-3.183809,7.499615
0.236000,-1.221944,-0.559581,0.287431,0.998297,0.020523,-0.002775,0.054528,-0.034135,-0.198284,0.043708,-0.042428,-0.113794,0.089372,-0.144645,-0.933813,0.259175,0.153732,0.745097,0.149625,-0.054400,-0.816405,0.162951,0.019023,0.947254,-0.392351,-0.599306,4.560960,-7.739369,0.352678,-0.383027,0.584153,-0.681395,-0.125641,0.208615,2.058633,-2.878035,5.389852
0.238000,-1.222017,-0.559982,0.287528,0.998293,0.020390,-0.002888,0.054656,-0.036379,-0.200850,0.048845,-0.138482,-0.103185,0.130778,-0.145806,-0.923704,0.239309,0.154575,0.744261,0.150753,-0.056003,-0.816564,0.163204,0.021689,0.939994,-0.375751,-0.580605,5.054472,-9.932946,0.421292,-0.417973,0.564261,-0.801483,-0.079605,0.126548,1.333206,-3.629941,8.299888
0.240000,-1.222089,-0.560366,0.287604,0.998287,0.020360,-0.003002,0.054763,-0.036058,-0.192070,0.037578,-0.035550,-0.109592,0.109623,-0.146629,-0.914089,0.222617,0.155230,0.743447,0.151899,-0.057329,-0.816814,0.163639,0.025040,0.933356,-0.362989,-0.411232,4.807325,-8.346008,0.327566,-0.406970,0.573027,-0.663057,-0.125081,0.217420,1.675176,-3.319157,6.381005
0.242000,-1.222164,-0.560759,0.287685,0.998282,0.020213,-0.003111,0.054901,-0.037687,-0.196145,0.040568,-0.152495,-0.098334,0.140090,-0.147213,-0.903822,0.202772,0.156095,0.742584,0.152999,-0.058925,-0.816959,0.163905,0.027079,0.925545,-0.345672,-0.291992,5.133689,-9.922191,0.432566,-0.431637,0.549869,-0.797687,-0.072153,0.132764,1.019535,-3.905500,8.658441
0.244000,-1.222238,-0.561134,0.287743,0.998277,0.020167,-0.003219,0.055014,-0.036868,-0.187476,0.029033,-0.051279,-0.102913,0.115577,-0.147486,-0.894175,0.186180,0.156786,0.741748,0.154117,-0.060242,-0.817185,0.164344,0.029824,0.918495,-0.332431,-0.136743,4.823498,-8.296205,0.345482,-0.417841,0.559199,-0.658870,-0.113464,0.219696,1.372948,-3.524889,6.620548
0.246000,-1.222313,-0.561517,0.287804,0.998272,0.020008,-0.003323,0.055152,-0.037619,-0.191531,0.030452,-0.164576,-0.092237,0.141226,-0.147497,-0.884108,0.167038,0.157687,0.740887,0.155172,-0.061818,-0.817321,0.164637,0.031367,0.910507,-0.315322,-0.005398,5.033386,-9.571180,0.450618,-0.430481,0.527236,-0.787819,-0.067693,0.146397,0.771052,-3.993867,8.554618
0.248000,-1.222386,-0.561881,0.287845,0.998266,0.019965,-0.003421,0.055273,-0.036570,-0.181973,0.020407,-0.047541,-0.093232,0.123233,-0.147426,-0.874583,0.150175,0.158371,0.740041,0.156250,-0.063095,-0.817537,0.165095,0.033489,0.903164,-0.301284,0.035649,4.762502,-8.431290,0.342181,-0.423129,0.539358,-0.638516,-0.107917,0.229008,1.061096,-3.671741,7.019220
0.250000,-1.222460,-0.562249,0.287884,0.998260,0.019852,-0.003511,0.055416,-0.036783,-0.184063,0.019946,-0.117028,-0.080310,0.144468,-0.147169,-0.864895,0.131663,0.159180,0.739184,0.157254,-0.064535,-0.817685,0.165455,0.034607,0.895083,-0.284001,0.128442,4.843907,-9.256021,0.404207,-0.428547,0.501548,-0.720223,-0.074074,0.180242,0.559117,-4.040306,8.641474
0.252000,-1.222531,-0.562599,0.287905,0.998253,0.019847,-0.003595,0.055542,-0.035349,-0.174973,0.010206,-0.009213,-0.080821,0.128608,-0.146900,-0.855751,0.115130,0.159785,0.738353,0.158261,-0.065702,-0.817914,0.165975,0.036204,0.887655,-0.269576,0.134349,4.572299,-8.266272,0.302570,-0.415341,0.503665,-0.583297,-0.114564,0.259766,0.798581,-3.714088,7.212392
0.254000,-1.222599,-0.562955,0.287918,0.998246,0.019753,-0.003679,0.055682,-0.034024,-0.178255,0.006513,-0.097999,-0.075906,0.141636,-0.146284,-0.846766,0.098239,0.160566,0.737561,0.159163,-0.067065,-0.818121,0.166450,0.036920,0.879890,-0.253500,0.307985,4.492547,-8.445907,0.390640,-0.396312,0.450946,-0.681503,-0.103611,0.237545,0.357749,-3.882155,8.037859
0.256000,-1.222663,-0.563296,0.287914,0.998239,0.019747,-0.003760,0.055811,-0.032196,-0.170210,-0.001817,-0.009868,-0.078402,0.131359,-0.145744,-0.838216,0.082503,0.161174,0.736797,0.160062,-0.068207,-0.818413,0.167069,0.037916,0.872696,-0.239610,0.270238,4.274573,-7.867935,0.303810,-0.381656,0.449846,-0.570771,-0.145809,0.309585,0.498028,-3.597410,6.945316
0.258000,-1.222723,-0.563641,0.287900,0.998233,0.019670,-0.003841,0.055948,-0.030043,-0.172797,-0.007165,-0.080081,-0.074379,0.138465,-0.144850,-0.830079,0.067387,0.161929,0.736087,0.160855,-0.069499,-0.818708,0.167686,0.038173,0.865400,-0.224817,0.447006,4.068565,-7.557815,0.377458,-0.355070,0.396092,-0.646224,-0.147738,0.308447,0.128717,-3.647728,7.396160
0.260000,-1.222780,-0.563969,0.287874,0.998224,0.019695,-0.003916,0.056080,-0.028548,-0.164105,-0.013068,0.020684,-0.073331,0.133208,-0.144211,-0.822239,0.052551,0.162474,0.735384,0.161662,-0.070551,-0.819073,0.168424,0.038599,0.858506,-0.211179,0.319280,3.919960,-7.418120,0.272492,-0.351790,0.403661,-0.525771,-0.182104,0.368945,0.213085,-3.446859,6.818949
0.262000,-1.222831,-0.564301,0.287832,0.998217,0.019670,-0.003991,0.056208,-0.025405,-0.166035,-0.020681,-0.027940,-0.070420,0.130639,-0.143157,-0.815167,0.039849,0.163139,0.734750,0.162365,-0.071699,-0.819462,0.169200,0.038531,0.851869,-0.197979,0.526909,3.536388,-6.350739,0.332663,-0.316598,0.351509,-0.574044,-0.194889,0.388284,-0.034192,-3.318695,6.600357
0.264000,-1.222879,-0.564618,0.287784,0.998209,0.019727,-0.004060,0.056335,-0.023865,-0.158312,-0.024311,0.053249,-0.070255,0.128132,-0.142423,-0.808261,0.026588,0.163629,0.734115,0.163095,-0.072652,-0.819904,0.170060,0.038513,0.845580,-0.185450,0.367381,3.452749,-6.630910,0.244906,-0.317909,0.365105,-0.476546,-0.220608,0.429683,-0.009055,-3.144541,6.264327
0.266000,-1.222917,-0.564941,0.287717,0.998202,0.019719,-0.004134,0.056450,-0.019201,-0.161209,-0.033361,-0.011653,-0.070747,0.116348,-0.141137,-0.802415,0.016572,0.164288,0.733577,0.163714,-0.073724,-0.820385,0.170970,0.038144,0.839917,-0.174711,0.643010,2.923160,-5.007731,0.329769,-0.268720,0.309337,-0.536295,-0.240941,0.454922,-0.184554,-2.831338,5.369672
0.268000,-1.222953,-0.565248,0.287650,0.998194,0.019784,-0.004199,0.056568,-0.017894,-0.153988,-0.033428,0.062252,-0.066096,0.119593,-0.140287,-0.796554,0.004897,0.164778,0.733011,0.164377,-0.074627,-0.820884,0.171904,0.037675,0.834397,-0.163490,0.424700,2.930277,-5.837691,0.244711,-0.283020,0.331581,-0.451266,-0.249540,0.467250,-0.234387,-2.760071,5.610132
0.270000,-1.222978,-0.565561,0.287563,0.998187,0.019812,-0.004263,0.056667,-0.012558,-0.156086,-0.043653,0.024884,-0.063556,0.100045,-0.138856,-0.792081,-0.002190,0.165396,0.732547,0.164936,-0.075584,-0.821426,0.172909,0.037060,0.829746,-0.154905,0.715486,2.236762,-3.543325,0.309156,-0.231992,0.279538,-0.478815,-0.270957,0.502591,-0.307453,-2.325528,4.292602
0.272000,-1.223002,-0.565859,0.287478,0.998179,0.019936,-0.004304,0.056771,-0.011781,-0.149265,-0.042214,0.122085,-0.046461,0.104553,-0.137813,-0.788652,-0.007542,0.165804,0.732028,0.165541,-0.076336,-0.821939,0.173902,0.036326,0.825066,-0.145029,0.521798,1.714129,-2.676233,0.204007,-0.259423,0.302539,-0.375522,-0.256539,0.496156,-0.366893,-2.340104,4.938141
0.274000,-1.223013,-0.566163,0.287380,0.998174,0.019937,-0.004380,0.056853,-0.005498,-0.152111,-0.049467,-0.003142,-0.073704,0.084074,-0.136604,-0.786145,-0.011511,0.166495,0.731638,0.166090,-0.077300,-0.822546,0.174950,0.035392,0.821672,-0.139269,0.604598,1.253816,-1.984356,0.345536,-0.195053,0.274596,-0.482260,-0.303255,0.524441,-0.467212,-1.697071,2.879896
0.276000,-1.223024,-0.566464,0.287301,0.998169,0.019903,-0.004470,0.056948,-0.005419,-0.150156,-0.039422,-0.038180,-0.086217,0.096561,-0.135474,-0.784218,-0.014616,0.167212,0.731175,0.166774,-0.078330,-0.823118,0.175878,0.033917,0.818174,-0.131519,0.564524,0.963402,-1.552453,0.358539,-0.231646,0.341649,-0.515125,-0.285846,0.463998,-0.737434,-1.749079,3.874874
0.278000,-1.223024,-0.566766,0.287219,0.998167,0.019743,-0.004614,0.057021,-0.000066,-0.151169,-0.040839,-0.167346,-0.133023,0.076386,-0.134144,-0.782863,-0.016958,0.168194,0.730801,0.167519,-0.079565,-0.823805,0.176846,0.032337,0.816074,-0.128152,0.665421,0.677435,-1.170761,0.490961,-0.187119,0.372794,-0.617548,-0.343604,0.483848,-0.790212,-1.049839,1.683771
0.280000,-1.223029,-0.567051,0.287169,0.998163,0.019657,-0.004764,0.057112,-0.002553,-0.142647,-0.024761,-0.094037,-0.143738,0.094554,-0.133108,-0.781838,-0.018830,0.168951,0.730262,0.168525,-0.080637,-0.824449,0.177694,0.030490,0.813614,-0.121780,0.517673,0.512316,-0.936276,0.378197,-0.269155,0.502638,-0.535830,-0.321887,0.423964,-0.923064,-1.229860,3.185682
0.282000,-1.223026,-0.567324,0.287118,0.998160,0.019563,-0.004951,0.057178,0.001259,-0.136289,-0.025631,-0.104062,-0.179675,0.070216,-0.132098,-0.781244,-0.020118,0.169718,0.729779,0.169625,-0.081648,-0.825203,0.178623,0.029041,0.812611,-0.120344,0.505001,0.297273,-0.643999,0.383833,-0.241449,0.550037,-0.505531,-0.377007,0.464478,-0.724907,-0.501618,0.718281
0.284000,-1.223031,-0.567576,0.287096,0.998154,0.019579,-0.005120,0.057260,-0.002458,-0.125898,-0.011166,0.006109,-0.168424,0.085623,-0.131432,-0.780863,-0.021045,0.170191,0.729146,0.170897,-0.082414,-0.825851,0.179408,0.027499,0.811148,-0.115930,0.332948,0.190325,-0.463256,0.236462,-0.316935,0.636396,-0.383072,-0.324035,0.392326,-0.770691,-0.731675,2.206730
0.286000,-1.223029,-0.567820,0.287064,0.998151,0.019552,-0.005300,0.057312,0.001079,-0.122214,-0.016163,-0.036543,-0.176972,0.056219,-0.130649,-0.780921,-0.021318,0.170766,0.728627,0.172089,-0.083188,-0.826518,0.180213,0.026322,0.811067,-0.116615,0.391803,-0.028714,-0.136523,0.287566,-0.259474,0.595971,-0.387037,-0.333774,0.402839,-0.588683,-0.040403,-0.342483
0.288000,-1.223035,-0.568055,0.287050,0.998146,0.019568,-0.005434,0.057378,-0.002740,-0.117298,-0.006994,0.008639,-0.133378,0.068387,-0.130039,-0.781109,-0.021249,0.171213,0.728031,0.173233,-0.083864,-0.826971,0.180795,0.024819,0.810317,-0.113849,0.304664,-0.094121,0.034490,0.223346,-0.297882,0.571820,-0.338085,-0.226293,0.290975,-0.751566,-0.374843,1.383056
0.290000,-1.223032,-0.568296,0.287017,0.998145,0.019469,-0.005556,0.057412,0.001399,-0.120819,-0.016129,-0.105354,-0.115243,0.036636,-0.128636,-0.782527,-0.017042,0.171946,0.727609,0.174120,-0.084719,-0.827353,0.181326,0.023404,0.810713,-0.115506,0.701797,-0.709223,2.103142,0.366350,-0.210991,0.443559,-0.427483,-0.191244,0.265095,-0.707444,0.197909,-0.828513
0.292000,-1.223035,-0.568531,0.287001,0.998144,0.019377,-0.005641,0.057460,-0.001879,-0.117484,-0.008216,-0.097043,-0.078670,0.050000,-0.127426,-0.783773,-0.013459,0.172623,0.727135,0.174936,-0.085556,-0.827554,0.181655,0.021578,0.810485,-0.114006,0.604939,-0.622913,1.791873,0.338863,-0.236828,0.408157,-0.418369,-0.100153,0.164999,-0.913156,-0.113968,0.750119
0.294000,-1.223033,-0.568763,0.286977,0.998144,0.019227,-0.005732,0.057490,0.001085,-0.115622,-0.011902,-0.154749,-0.081267,0.032627,-0.126033,-0.785363,-0.009847,0.173423,0.726762,0.175649,-0.086462,-0.827769,0.181994,0.019897,0.811167,-0.115973,0.696598,-0.794867,1.805737,0.399899,-0.186531,0.356192,-0.452740,-0.107909,0.169296,-0.840374,0.340796,-0.983637
0.296000,-1.223038,-0.568977,0.286970,0.998142,0.019177,-0.005795,0.057536,-0.002309,-0.107055,-0.003290,-0.053094,-0.059286,0.047293,-0.125019,-0.786726,-0.006797,0.173964,0.726288,0.176421,-0.087156,-0.827904,0.182253,0.018135,0.811304,-0.115271,0.506892,-0.681627,1.525005,0.270400,-0.237271,0.386327,-0.347279,-0.067351,0.129543,-0.880775,0.068745,0.351028
0.298000,-1.223043,-0.569177,0.286965,0.998140,0.019188,-0.005848,0.057573,-0.002537,-0.100002,-0.002972,0.008494,-0.052668,0.038151,-0.124196,-0.788057,-0.004006,0.174368,0.725811,0.177202,-0.087689,-0.828045,0.182544,0.016697,0.811810,-0.116150,0.411431,-0.665596,1.395561,0.201972,-0.238218,0.390263,-0.266354,-0.070252,0.145437,-0.718968,0.253208,-0.439380
0.300000,-1.223054,-0.569366,0.286971,0.998136,0.019254,-0.005880,0.057618,-0.005285,-0.094504,0.003261,0.064587,-0.034831,0.045652,-0.123596,-0.789190,-0.001628,0.174626,0.725268,0.178013,-0.088103,-0.828115,0.182766,0.015212,0.811919,-0.115419,0.300149,-0.566475,1.188841,0.129217,-0.271728,0.405340,-0.206918,-0.034941,0.111144,-0.742860,0.054307,0.365663
0.302000,-1.223070,-0.569552,0.286988,0.998132,0.019306,-0.005895,0.057662,-0.008136,-0.093316,0.008545,0.051170,-0.017629,0.043779,-0.123027,-0.790123,0.000389,0.174905,0.724685,0.178819,-0.088533,-0.828080,0.182877,0.013674,0.811734,-0.114075,0.284225,-0.466101,1.008456,0.139062,-0.291143,0.403123,-0.215084,0.017424,0.055329,-0.768647,-0.092413,0.671882
0.304000,-1.223091,-0.569742,0.287016,0.998130,0.019285,-0.005909,0.057702,-0.010332,-0.094703,0.013819,-0.021295,-0.011790,0.040752,-0.122353,-0.790839,0.002008,0.175322,0.724092,0.179612,-0.089098,-0.827958,0.182868,0.011987,0.811366,-0.112624,0.337114,-0.358219,0.809540,0.208825,-0.296777,0.396535,-0.282595,0.060784,-0.004537,-0.843687,-0.184380,0.725369
0.306000,-1.223136,-0.570071,0.287071,0.998139,0.018391,-0.005778,0.057859,-0.022720,-0.164588,0.027776,-0.884542,0.185659,0.158951,-0.119130,-0.792163,0.005650,0.177579,0.723581,0.179245,-0.091795,-0.826797,0.181637,0.004296,0.803618,-0.085226,1.611387,-0.662247,1.820936,1.128433,-0.255194,-0.183448,-1.348269,0.580597,-0.615581,-3.845634,-3.873957,13.699128
0.308000,-1.223186,-0.570429,0.287133,0.998152,0.017264,-0.005623,0.057995,-0.025086,-0.179124,0.030994,-1.114774,0.222378,0.138217,-0.115300,-0.793543,0.009165,0.180361,0.723146,0.178648,-0.094940,-0.825399,0.180149,-0.002940,0.796804,-0.062959,1.915230,-0.689694,1.757904,1.391122,-0.217705,-0.298411,-1.572516,0.698970,-0.744018,-3.617629,-3.406942,11.133249
0.310000,-1.223221,-0.570748,0.287164,0.998165,0.016286,-0.005634,0.058057,-0.017380,-0.159403,0.015404,-0.977254,0.046350,0.067207,-0.111853,-0.794701,0.011744,0.182848,0.722857,0.178544,-0.097507,-0.825056,0.179766,-0.007882,0.793227,-0.056908,1.723455,-0.579164,1.289461,1.243127,-0.144493,-0.052037,-1.283505,0.171730,-0.191512,-2.471435,-1.788303,3.025954
0.312000,-1.223246,-0.570972,0.287176,0.998168,0.015988,-0.005764,0.058062,-0.012545,-0.112038,0.006090,-0.304949,-0.112547,0.009027,-0.109941,-0.795844,0.013769,0.183891,0.722442,0.179340,-0.098354,-0.826012,0.180858,-0.009321,0.792399,-0.063816,0.956133,-0.571541,1.012152,0.521832,-0.207652,0.397688,-0.423478,-0.478436,0.546008,-0.719165,-0.414290,-3.454075
0.314000,-1.223280,-0.571108,0.287202,0.998157,0.016529,-0.005866,0.058087,-0.017212,-0.067968,0.012852,0.534441,-0.132594,0.023944,-0.109955,-0.796996,0.015650,0.183126,0.721623,0.180876,-0.097436,-0.827458,0.182669,-0.008968,0.791453,-0.068760,-0.007143,-0.575651,0.940881,-0.382490,-0.409161,0.768329,0.458840,-0.722848,0.905606,0.176262,-0.472949,-2.472204
0.316000,-1.223327,-0.571233,0.287276,0.998141,0.017251,-0.005891,0.058155,-0.023155,-0.062264,0.036785,0.720256,-0.065500,0.064851,-0.110004,-0.797456,0.011021,0.181924,0.720520,0.182590,-0.096271,-0.828464,0.184006,-0.008316,0.789930,-0.071673,-0.024553,-0.230336,-2.314774,-0.601050,-0.551492,0.857083,0.582572,-0.503145,0.668659,0.326360,-0.761102,-1.456635
0.318000,-1.223393,-0.571407,0.287372,0.998129,0.017739,-0.005734,0.058236,-0.033257,-0.087352,0.048347,0.496438,0.129381,0.076201,-0.108902,-0.798633,0.010488,0.181289,0.719380,0.183673,-0.095704,-0.828406,0.184284,-0.008259,0.787492,-0.072675,0.550883,-0.588347,-0.266221,-0.317571,-0.570432,0.541115,0.283473,0.029366,0.138986,0.028041,-1.219232,-0.500619
0.320000,-1.223473,-0.571668,0.287487,0.998126,0.017671,-0.005424,0.058326,-0.039922,-0.130627,0.057293,-0.049149,0.314582,0.084286,-0.105535,-0.800672,0.015014,0.181910,0.718355,0.183900,-0.096401,-0.827237,0.183355,-0.009556,0.784147,-0.071991,1.683640,-1.019707,2.262693,0.310673,-0.512122,0.113690,-0.348642,0.584133,-0.464569,-0.648049,-1.672446,0.341734
0.322000,-1.223559,-0.572013,0.287614,0.998129,0.017111,-0.005014,0.058490,-0.043143,-0.172202,0.063473,-0.533665,0.444893,0.159698,-0.101254,-0.802626,0.020104,0.183567,0.717414,0.183383,-0.098355,-0.825369,0.181592,-0.014900,0.775929,-0.047624,2.140745,-0.976636,2.545290,0.828401,-0.470872,-0.258511,-0.976921,0.934199,-0.881351,-2.672334,-4.109059,12.183822
0.324000,-1.223628,-0.572370,0.287725,0.998136,0.016328,-0.004703,0.058619,-0.034187,-0.178793,0.055369,-0.762950,0.358581,0.126848,-0.096952,-0.804008,0.023920,0.185707,0.716695,0.182880,-0.100720,-0.823810,0.180033,-0.020021,0.769462,-0.028517,2.150845,-0.691166,1.907817,1.069951,-0.359473,-0.251315,-1.182342,0.779268,-0.779500,-2.560269,-3.233397,9.553388
0.326000,-1.223655,-0.572684,0.287789,0.998145,0.015628,-0.004669,0.058662,-0.013526,-0.156519,0.032104,-0.697321,0.076216,0.044722,-0.093148,-0.805110,0.026344,0.187660,0.716293,0.183036,-0.102521,-0.824124,0.180228,-0.023095,0.767960,-0.026742,1.902046,-0.551226,1.212138,0.976225,-0.200986,0.077770,-0.900496,-0.156536,0.097425,-1.537200,-0.751014,0.887242
0.328000,-1.223659,-0.572914,0.287831,0.998146,0.015468,-0.004797,0.058665,-0.002039,-0.115229,0.021004,-0.167268,-0.118874,0.006454,-0.090824,-0.806106,0.027915,0.188419,0.715875,0.184023,-0.102918,-0.825979,0.181992,-0.023755,0.769245,-0.033658,1.161912,-0.497647,0.785232,0.379542,-0.208752,0.493568,-0.198875,-0.927651,0.881711,-0.329825,0.642455,-3.458045
0.330000,-1.223667,-0.573069,0.287893,0.998135,0.015943,-0.004929,0.058716,-0.003865,-0.077388,0.031055,0.466946,-0.158333,0.050480,-0.090720,-0.805622,0.019874,0.187729,0.715123,0.185647,-0.102037,-0.828214,0.184216,-0.023208,0.770134,-0.038795,0.052145,0.242048,-4.020236,-0.344904,-0.376065,0.811970,0.440786,-1.117643,1.112304,0.273630,0.444306,-2.568186
0.332000,-1.223702,-0.573204,0.287971,0.998116,0.016822,-0.004850,0.058805,-0.017515,-0.067671,0.039177,0.883405,0.028491,0.084735,-0.091044,-0.805900,0.016254,0.186226,0.714059,0.187095,-0.100499,-0.829535,0.185749,-0.022000,0.769665,-0.041523,-0.162336,-0.138996,-1.810154,-0.751192,-0.532276,0.724152,0.768982,-0.660208,0.766271,0.603757,-0.234439,-1.364066
0.334000,-1.223759,-0.573405,0.288062,0.998101,0.017411,-0.004547,0.058911,-0.028783,-0.100210,0.045452,0.606268,0.269529,0.099291,-0.089165,-0.807803,0.021813,0.185453,0.712976,0.187714,-0.099729,-0.829465,0.185932,-0.021596,0.767920,-0.042322,0.939742,-0.951920,2.779422,-0.386756,-0.541357,0.309310,0.385106,0.034579,0.091757,0.202243,-0.872466,-0.399620
0.336000,-1.223835,-0.573692,0.288173,0.998096,0.017412,-0.004080,0.059037,-0.037808,-0.143579,0.055490,0.029061,0.467586,0.117951,-0.085576,-0.809852,0.029866,0.186021,0.712017,0.187414,-0.100314,-0.828075,0.184678,-0.022591,0.765189,-0.041697,1.794282,-1.024449,4.026397,0.284062,-0.479577,-0.150090,-0.292747,0.694962,-0.627278,-0.497880,-1.365176,0.312597
0.338000,-1.223925,-0.574046,0.288313,0.998097,0.016910,-0.003523,0.059195,-0.044949,-0.177079,0.070137,-0.467998,0.588523,0.149844,-0.081563,-0.811065,0.036303,0.187645,0.711083,0.186554,-0.102066,-0.825751,0.182309,-0.024787,0.761752,-0.039980,2.006803,-0.606244,3.218820,0.811986,-0.466609,-0.429933,-0.875890,1.162415,-1.184469,-1.098067,-1.718799,0.858539
0.340000,-1.224021,-0.574413,0.288491,0.998095,0.016368,-0.002950,0.059409,-0.048236,-0.183713,0.088807,-0.505935,0.607906,0.205382,-0.078034,-0.811630,0.041159,0.189273,0.709953,0.185832,-0.104052,-0.823244,0.179609,-0.027217,0.757840,-0.037297,1.764350,-0.282634,2.428011,0.814211,-0.565264,-0.360719,-0.992957,1.253299,-1.349991,-1.214770,-1.956152,1.341515
0.342000,-1.224115,-0.574741,0.288704,0.998081,0.016263,-0.002421,0.059695,-0.046760,-0.164003,0.106742,-0.071781,0.538378,0.278599,-0.075943,-0.811809,0.044593,0.189854,0.708452,0.185854,-0.105261,-0.821845,0.177944,-0.028890,0.753675,-0.033761,1.045281,-0.089337,1.716975,0.290500,-0.750636,0.010617,-0.604709,0.699291,-0.832234,-0.836635,-2.082103,1.768030
0.344000,-1.224186,-0.575022,0.288958,0.998055,0.016555,-0.002005,0.060073,-0.035789,-0.140135,0.126652,0.317557,0.403990,0.371265,-0.076087,-0.809466,0.029829,0.189405,0.706648,0.186743,-0.105839,-0.822152,0.177805,-0.029893,0.749575,-0.029704,-0.071873,1.171544,-7.382118,-0.224528,-0.901893,0.444500,-0.288917,-0.153422,-0.069712,-0.501194,-2.050238,2.028607
0.346000,-1.224238,-0.575270,0.289190,0.998017,0.017381,-0.001555,0.060480,-0.025829,-0.124397,0.116192,0.852177,0.405955,0.399006,-0.076589,-0.808931,0.021263,0.187880,0.704714,0.187933,-0.105257,-0.823671,0.176828,-0.029903,0.745297,-0.025049,-0.250989,0.267397,-4.282892,-0.762647,-0.966918,0.595146,0.291256,-0.759146,-0.488663,-0.005194,-2.139014,2.327508
0.348000,-1.224260,-0.575557,0.289376,0.997979,0.018202,-0.001060,0.060872,-0.011042,-0.143110,0.093044,0.850622,0.451423,0.383186,-0.074585,-0.812037,0.028881,0.186512,0.703152,0.188623,-0.104810,-0.825814,0.174666,-0.030030,0.741067,-0.020280,1.002218,-1.552912,3.808997,-0.684060,-0.780994,0.344889,0.223415,-1.071914,-1.080672,-0.063320,-2.114823,2.384109
0.350000,-1.224249,-0.575925,0.289531,0.997953,0.018413,-0.000635,0.061242,0.005663,-0.184056,0.077176,0.237615,0.417899,0.363858,-0.070118,-0.816156,0.040634,0.186645,0.702145,0.188746,-0.106005,-0.828301,0.173610,-0.031617,0.737513,-0.016221,2.233347,-2.059666,5.876207,0.066371,-0.503403,0.061615,-0.597703,-1.243465,-0.528295,-0.793837,-1.777291,2.029412
0.352000,-1.224220,-0.576335,0.289676,0.997936,0.018194,-0.000322,0.061590,0.014496,-0.205144,0.072466,-0.199278,0.331939,0.342234,-0.065582,-0.819314,0.049638,0.187659,0.701520,0.188650,-0.108027,-0.830756,0.173015,-0.034220,0.734724,-0.012909,2.268177,-1.578767,4.501998,0.507392,-0.312748,-0.047885,-1.011044,-1.227498,-0.297173,-1.301502,-1.394465,1.656057
0.354000,-1.224178,-0.576844,0.289843,0.997933,0.017149,-0.000194,0.061933,0.020683,-0.254538,0.083969,-1.034343,0.199048,0.340382,-0.059954,-0.821256,0.055534,0.190649,0.700995,0.188773,-0.113350,-0.834306,0.181023,-0.038555,0.732568,-0.010253,2.813972,-0.971386,2.948375,1.494770,-0.262598,0.061241,-2.661339,-1.774868,4.003762,-2.167299,-1.077888,1.328295
0.356000,-1.224153,-0.577353,0.290062,0.997932,0.016074,-0.000130,0.062241,0.012566,-0.254338,0.109442,-1.068493,0.135847,0.306343,-0.054860,-0.822092,0.059030,0.193714,0.700043,0.189720,-0.118167,-0.836463,0.186518,-0.042792,0.730431,-0.007399,2.547028,-0.417739,1.747832,1.532251,-0.475975,0.473687,-2.408302,-1.078500,2.747328,-2.118695,-1.068341,1.426940
0.358000,-1.224146,-0.577757,0.290322,0.997920,0.015684,-0.000075,0.062533,0.003383,-0.201982,0.129907,-0.385374,0.083250,0.291887,-0.054158,-0.818515,0.039340,0.195171,0.698732,0.191487,-0.119968,-0.837130,0.187453,-0.045354,0.728098,-0.003981,0.350802,1.788572,-9.845128,0.728766,-0.655216,0.883711,-0.900759,-0.333452,0.467912,-1.280861,-1.166587,1.709039
0.360000,-1.224158,-0.578064,0.290562,0.997895,0.016245,0.000119,0.062778,-0.005773,-0.153845,0.119995,0.571701,0.162385,0.242242,-0.055258,-0.816056,0.024779,0.194701,0.697443,0.193278,-0.118319,-0.836373,0.184932,-0.045734,0.725230,0.000252,-0.549984,1.229343,-7.280439,-0.234957,-0.644655,0.895422,0.824469,0.378302,-1.260594,-0.189953,-1.434021,2.116325
0.362000,-1.224154,-0.578336,0.290679,0.997863,0.017328,0.000491,0.063006,0.001947,-0.135838,0.058493,1.104960,0.307343,0.224324,-0.055625,-0.817850,0.030273,0.192871,0.699427,0.183296,-0.116192,-0.837119,0.191570,-0.044994,0.722130,0.004608,-0.183548,-0.897221,2.747130,-0.915030,0.992094,-4.991013,1.063623,-0.372780,3.318679,0.369946,-1.549818,2.178337
0.364000,-1.224116,-0.578701,0.290748,0.997842,0.017806,0.000845,0.063189,0.019242,-0.182381,0.034516,0.499014,0.325892,0.177440,-0.052851,-0.821517,0.043637,0.193673,0.701366,0.177758,-0.116043,-0.838423,0.200125,-0.045554,0.719473,0.008323,1.387105,-1.833149,6.682028,0.400771,0.969455,-2.769275,0.074209,-0.651963,4.277554,-0.279701,-1.328660,1.857016
0.366000,-1.224029,-0.579173,0.290766,0.997843,0.017129,0.001096,0.063365,0.043395,-0.236277,0.009087,-0.659098,0.296363,0.171165,-0.048217,-0.824364,0.054005,0.197296,0.706024,0.165322,-0.119459,-0.841162,0.211506,-0.048533,0.717678,0.010751,2.316917,-1.423847,5.184036,1.811602,2.328888,-6.217929,-1.707662,-1.369551,5.690925,-1.489638,-0.897349,1.214246
0.368000,-1.223891,-0.579666,0.290750,0.997850,0.015926,0.001183,0.063564,0.068941,-0.246133,-0.008054,-1.195257,0.166434,0.194555,-0.043072,-0.826604,0.061607,0.201200,0.714662,0.141483,-0.124662,-0.846341,0.227160,-0.052593,0.716839,0.012050,2.572612,-1.119880,3.801030,1.952335,4.318920,-11.919359,-2.601614,-2.589746,7.827000,-2.030332,-0.419600,0.649251
0.370000,-1.223743,-0.580075,0.290807,0.997848,0.015542,0.001114,0.063689,0.073921,-0.204445,0.028139,-0.388504,-0.042517,0.125846,-0.039941,-0.828304,0.066888,0.204181,0.720422,0.137089,-0.126168,-0.851278,0.233812,-0.054819,0.716379,0.013545,1.565613,-0.849939,2.640587,1.490101,2.880413,-2.196834,-0.753081,-2.468217,3.325591,-1.112645,-0.230062,0.747782
0.372000,-1.223602,-0.580371,0.290945,0.997834,0.016093,0.000961,0.063778,0.070516,-0.148265,0.069075,0.540492,-0.186347,0.092523,-0.041345,-0.825640,0.048819,0.205614,0.723457,0.148402,-0.123611,-0.855237,0.230608,-0.054951,0.715880,0.015643,-0.702409,1.331861,-9.034841,0.716848,1.517255,5.656410,1.278584,-1.979718,-1.601865,-0.066264,-0.249442,1.049141
0.374000,-1.223449,-0.580589,0.290985,0.997804,0.017133,0.000915,0.063970,0.076556,-0.108835,0.020154,1.035633,-0.109303,0.195685,-0.043788,-0.824335,0.035598,0.203690,0.732587,0.132608,-0.121520,-0.862292,0.241745,-0.054137,0.715136,0.017820,-1.221111,0.652815,-6.610546,-0.962106,4.564828,-7.897102,1.045734,-3.527243,5.568345,0.407189,-0.371891,1.088490
0.376000,-1.223300,-0.580861,0.290937,0.997778,0.017811,0.001083,0.064199,0.074480,-0.136213,-0.023944,0.687117,0.128760,0.227859,-0.043706,-0.825683,0.036340,0.202448,0.744510,0.102306,-0.121403,-0.869696,0.258145,-0.054169,0.713803,0.020155,0.040988,-0.674080,0.371246,-0.621192,5.961664,-15.150981,0.058149,-3.701945,8.200060,-0.016075,-0.666741,1.167334
0.378000,-1.223141,-0.581238,0.290834,0.997763,0.017791,0.001334,0.064432,0.079508,-0.188248,-0.051549,-0.003322,0.255722,0.229152,-0.040264,-0.828783,0.046161,0.203767,0.756938,0.070063,-0.123944,-0.877622,0.278722,-0.055776,0.712367,0.022218,1.720752,-1.550301,4.910636,0.659668,6.213984,-16.121483,-1.270290,-3.962910,10.288405,-0.803366,-0.718115,1.031713
0.380000,-1.222999,-0.581678,0.290789,0.997757,0.017607,0.001600,0.064568,0.070752,-0.220124,-0.022621,-0.167237,0.279510,0.131031,-0.036701,-0.831252,0.054325,0.208518,0.763821,0.064258,-0.125465,-0.883076,0.287950,-0.057693,0.710714,0.024636,1.781374,-1.234019,4.082033,2.375525,3.441718,-2.902567,-0.760714,-2.727417,4.614288,-0.958750,-0.826573,1.208744
0.382000,-1.222859,-0.582097,0.290743,0.997748,0.017530,0.001845,0.064719,0.070174,-0.209603,-0.022749,-0.060674,0.252096,0.146030,-0.033865,-0.833430,0.061121,0.212709,0.771608,0.055265,-0.126584,-0.889014,0.298509,-0.059381,0.709110,0.027015,1.418122,-1.089135,3.397772,2.095634,3.893524,-4.496301,-0.559432,-2.968843,5.279562,-0.844072,-0.801940,1.189348
0.384000,-1.222728,-0.582465,0.290714,0.997732,0.017717,0.002065,0.064900,0.065446,-0.183807,-0.014749,0.200251,0.210790,0.178265,-0.032086,-0.835296,0.066622,0.215243,0.780833,0.039226,-0.126662,-0.895079,0.309005,-0.060485,0.707475,0.029494,0.889419,-0.933012,2.750640,1.266593,4.612343,-8.019735,-0.039124,-3.032593,5.247756,-0.552003,-0.817137,1.239791
0.386000,-1.222595,-0.582736,0.290656,0.997702,0.018423,0.002232,0.065169,0.066423,-0.135681,-0.028856,0.715353,0.125257,0.269691,-0.031966,-0.837224,0.071264,0.213976,0.794420,0.003277,-0.126269,-0.903590,0.329903,-0.060528,0.706012,0.031828,0.060044,-0.963852,2.320835,-0.633121,6.793681,-17.974676,0.196451,-4.255190,10.448906,-0.021448,-0.731824,1.166739
0.388000,-1.222465,-0.582998,0.290659,0.997670,0.019322,0.002265,0.065399,0.064980,-0.131025,0.001481,0.899442,-0.020748,0.232200,-0.032364,-0.838737,0.074484,0.213054,0.805573,-0.019190,-0.124563,-0.911827,0.347611,-0.060151,0.704857,0.034123,-0.199016,-0.756616,1.609993,-0.461384,5.576384,-11.233216,0.853424,-4.118771,8.854256,0.188634,-0.577246,1.147774
0.390000,-1.222328,-0.583298,0.290695,0.997646,0.019840,0.002176,0.065609,0.068533,-0.149931,0.017860,0.510442,-0.119097,0.213942,-0.032085,-0.839752,0.076299,0.213261,0.816351,-0.037387,-0.123320,-0.920041,0.363610,-0.060571,0.704141,0.035971,0.139817,-0.507457,0.907553,0.103657,5.388913,-9.098568,0.621292,-4.106851,7.999673,-0.210087,-0.358097,0.923824
0.392000,-1.222192,-0.583676,0.290777,0.997639,0.019625,0.002004,0.065788,0.068169,-0.189128,0.040979,-0.225270,-0.153307,0.182625,-0.030331,-0.840071,0.076715,0.215892,0.826074,-0.049583,-0.123022,-0.926962,0.373281,-0.062499,0.703677,0.037457,0.876711,-0.159725,0.207766,1.315533,4.861696,-6.097976,0.148944,-3.460776,4.835434,-0.963905,-0.231940,0.743090
0.394000,-1.222057,-0.584055,0.290849,0.997633,0.019123,0.001793,0.066024,0.067322,-0.189513,0.036080,-0.515130,-0.173307,0.238915,-0.028259,-0.840163,0.076394,0.217488,0.838786,-0.076526,-0.123739,-0.934581,0.387207,-0.065044,0.703357,0.038608,1.036380,-0.046054,-0.160157,0.798165,6.355710,-13.471742,-0.358238,-3.809148,6.962912,-1.272301,-0.159885,0.575531
0.396000,-1.221934,-0.584393,0.290947,0.997619,0.019013,0.001528,0.066272,0.061787,-0.168631,0.049306,-0.127893,-0.252489,0.252501,-0.027116,-0.840219,0.075621,0.217771,0.851273,-0.102674,-0.123266,-0.942496,0.403396,-0.066776,0.703039,0.039939,0.571136,-0.027898,-0.386559,0.141390,6.243408,-13.073978,0.236259,-3.957824,8.094330,-0.866047,-0.159382,0.665321
0.398000,-1.221824,-0.584639,0.291067,0.997588,0.019796,0.001232,0.066522,0.054950,-0.123090,0.059551,0.761709,-0.341667,0.258896,-0.027916,-0.840534,0.074887,0.215388,0.863547,-0.127387,-0.120146,-0.950909,0.422687,-0.066632,0.702614,0.041715,-0.399726,-0.157521,-0.367026,-1.191399,6.137080,-12.356490,1.560302,-4.206137,9.645417,0.071808,-0.212493,0.888291
0.400000,-1.221726,-0.584900,0.291223,0.997557,0.020607,0.000939,0.066739,0.048937,-0.130681,0.078104,0.789763,-0.342671,0.225339,-0.028699,-0.840679,0.073889,0.213908,0.873964,-0.143200,-0.116011,-0.958100,0.437126,-0.066416,0.702029,0.043766,-0.391745,-0.072678,-0.499293,-0.740334,5.208467,-7.906100,2.067348,-3.595491,7.219539,0.108285,-0.292081,1.025133
0.402000,-1.221638,-0.585199,0.291379,0.997533,0.021052,0.000699,0.066961,0.043909,-0.149460,0.078025,0.428965,-0.264055,0.228311,-0.028744,-0.840654,0.072814,0.213098,0.884906,-0.162937,-0.112312,-0.964281,0.448553,-0.066956,0.701241,0.045845,-0.022281,0.012695,-0.537312,-0.404990,5.471337,-9.868788,1.849608,-3.090614,5.713773,-0.270025,-0.394027,1.039476
0.404000,-1.221555,-0.585568,0.291527,0.997520,0.020908,0.000501,0.067198,0.041461,-0.184761,0.074221,-0.156777,-0.183186,0.241689,-0.027548,-0.840424,0.071604,0.213902,0.895912,-0.184883,-0.110375,-0.970007,0.459553,-0.068775,0.700324,0.047793,0.597931,0.114897,-0.605191,0.401969,5.502573,-10.972687,0.968542,-2.862954,5.499890,-0.909471,-0.458761,0.974365
0.406000,-1.221478,-0.585929,0.291663,0.997504,0.020911,0.000328,0.067449,0.038610,-0.180028,0.067720,-0.009315,-0.167402,0.254448,-0.026664,-0.840355,0.070644,0.213885,0.907275,-0.209739,-0.108173,-0.975953,0.472513,-0.070311,0.699314,0.049813,0.441760,0.034410,-0.479746,-0.008056,5.681585,-12.428449,1.100912,-2.973085,6.479908,-0.768388,-0.504867,1.009953
0.408000,-1.221402,-0.586273,0.291798,0.997480,0.021257,0.000149,0.067689,0.037929,-0.172148,0.067824,0.333908,-0.196815,0.245495,-0.026415,-0.840509,0.069931,0.213363,0.917623,-0.229696,-0.105180,-0.982295,0.487009,-0.071160,0.698296,0.051968,0.124554,-0.076740,-0.356355,-0.261353,5.174373,-9.978403,1.496352,-3.171001,7.247867,-0.424429,-0.508964,1.077340
0.410000,-1.221333,-0.586557,0.291940,0.997443,0.022292,-0.000010,0.067899,0.034544,-0.141993,0.070900,1.022349,-0.223874,0.214626,-0.027514,-0.840998,0.069714,0.210934,0.927339,-0.246118,-0.099479,-0.988197,0.498843,-0.070527,0.697176,0.054476,-0.549363,-0.244564,-0.108488,-1.214617,4.857548,-8.210765,2.850266,-2.951197,5.916985,0.316694,-0.560100,1.254192
0.412000,-1.221262,-0.586876,0.292074,0.997411,0.023087,-0.000150,0.068098,0.035433,-0.159596,0.066834,0.784315,-0.189615,0.204582,-0.027963,-0.841591,0.069726,0.208994,0.936930,-0.262672,-0.094210,-0.993681,0.508507,-0.070409,0.696070,0.056862,-0.224539,-0.296744,0.005637,-0.970020,4.795617,-8.277372,2.634885,-2.741641,4.832081,0.058793,-0.553081,1.192771
0.414000,-1.221194,-0.587217,0.292202,0.997384,0.023713,-0.000268,0.068278,0.034076,-0.170300,0.063875,0.616961,-0.155709,0.183782,-0.027938,-0.842240,0.069941,0.206888,0.946707,-0.281228,-0.088683,-0.998206,0.514450,-0.070620,0.694973,0.059146,0.012388,-0.324011,0.107881,-1.052695,4.888764,-9.277544,2.763340,-2.262506,2.971711,-0.105492,-0.548571,1.142031
0.416000,-1.221121,-0.587613,0.292314,0.997367,0.023934,-0.000412,0.068460,0.036662,-0.198013,0.056130,0.210702,-0.154367,0.186258,-0.026957,-0.842854,0.070083,0.205522,0.956413,-0.300647,-0.084810,-1.002977,0.523002,-0.071739,0.694074,0.061052,0.490502,-0.307144,0.070678,-0.682827,4.852833,-9.709534,1.936513,-2.385895,4.275916,-0.559393,-0.449399,0.953296
0.418000,-1.221052,-0.587990,0.292436,0.997344,0.024453,-0.000582,0.068601,0.034166,-0.188827,0.061320,0.506605,-0.201964,0.145626,-0.026515,-0.843498,0.070233,0.203115,0.965261,-0.316200,-0.079333,-1.006991,0.529485,-0.072200,0.693286,0.062988,0.221344,-0.322245,0.075291,-1.203817,4.424014,-7.776780,2.738289,-2.006888,3.241579,-0.230722,-0.394184,0.967793
0.420000,-1.220985,-0.588379,0.292557,0.997322,0.024993,-0.000790,0.068729,0.033827,-0.194542,0.060472,0.525772,-0.240964,0.133962,-0.026063,-0.844116,0.070267,0.200308,0.973585,-0.330319,-0.073923,-1.011021,0.537646,-0.072644,0.692656,0.064774,0.225810,-0.308881,0.016854,-1.403653,4.161867,-7.059504,2.705282,-2.014997,4.080262,-0.222043,-0.314575,0.893017
0.422000,-1.220930,-0.588731,0.292698,0.997291,0.025966,-0.000995,0.068811,0.027447,-0.175819,0.070456,0.956920,-0.270144,0.087905,-0.026465,-0.844749,0.070371,0.195836,0.981083,-0.341677,-0.065967,-1.013570,0.540539,-0.072114,0.691977,0.066807,-0.200958,-0.316494,0.052091,-2.235629,3.749008,-5.678852,3.977718,-1.274477,1.446643,0.265110,-0.339722,1.016269
0.424000,-1.220878,-0.589126,0.292832,0.997268,0.026599,-0.001216,0.068899,0.026083,-0.197384,0.066585,0.616349,-0.261737,0.094937,-0.026135,-0.845218,0.070266,0.191498,0.988579,-0.355985,-0.059271,-1.015932,0.544679,-0.072340,0.691380,0.068603,0.164764,-0.234314,-0.052363,-2.168911,3.747901,-7.154250,3.348313,-1.180758,2.070264,-0.112691,-0.298313,0.898273
0.426000,-1.220835,-0.589528,0.292981,0.997246,0.027257,-0.001442,0.068952,0.021305,-0.201019,0.074900,0.641773,-0.268802,0.059766,-0.025791,-0.845558,0.070052,0.186692,0.995160,-0.367994,-0.051571,-1.016917,0.544306,-0.072476,0.690772,0.070463,0.172066,-0.170251,-0.107249,-2.403065,3.290775,-6.004231,3.850090,-0.492463,-0.186944,-0.068297,-0.304395,0.929880
0.428000,-1.220791,-0.589978,0.293123,0.997232,0.027589,-0.001707,0.069017,0.021993,-0.225286,0.070693,0.312850,-0.285055,0.072106,-0.024718,-0.845775,0.069594,0.182288,1.001351,-0.380713,-0.045600,-1.018280,0.547584,-0.073375,0.690318,0.072037,0.536429,-0.108515,-0.228801,-2.202117,3.095493,-6.359518,2.985271,-0.681807,1.639033,-0.449467,-0.226997,0.787049
0.430000,-1.220756,-0.590413,0.293286,0.997213,0.028201,-0.001983,0.069039,0.017687,-0.217374,0.081422,0.591889,-0.317222,0.030262,-0.024153,-0.845975,0.069124,0.177009,1.006253,-0.388460,-0.037855,-1.018414,0.546132,-0.073646,0.689848,0.073794,0.282515,-0.100135,-0.235077,-2.639596,2.450819,-3.873400,3.872579,-0.066736,-0.725810,-0.135622,-0.234750,0.878421
0.432000,-1.220721,-0.590869,0.293439,0.997196,0.028704,-0.002282,0.069074,0.017347,-0.228155,0.076737,0.481709,-0.331842,0.042913,-0.023345,-0.846158,0.068579,0.171358,1.010995,-0.397905,-0.030997,-1.018855,0.547136,-0.074202,0.689457,0.075407,0.404178,-0.091359,-0.272514,-2.825321,2.371142,-4.722809,3.429078,-0.220861,0.502146,-0.277903,-0.195622,0.806559
0.434000,-1.220696,-0.591301,0.293609,0.997171,0.029535,-0.002573,0.069070,0.012416,-0.215554,0.085052,0.808665,-0.347501,0.004627,-0.023162,-0.846376,0.068149,0.164513,1.014807,-0.404127,-0.022140,-1.017970,0.542683,-0.074020,0.688985,0.077261,0.091285,-0.108987,-0.215139,-3.422674,1.905883,-3.111067,4.428144,0.442840,-2.226528,0.091032,-0.235690,0.927023
0.436000,-1.220670,-0.591768,0.293761,0.997153,0.030096,-0.002880,0.069084,0.012951,-0.233856,0.076134,0.538905,-0.345219,0.022433,-0.022398,-0.846556,0.067653,0.157705,1.018718,-0.413249,-0.014791,-1.017471,0.541281,-0.074466,0.688609,0.078873,0.381989,-0.090017,-0.247941,-3.403886,1.955549,-4.560644,3.674829,0.249590,-0.701022,-0.222853,-0.188398,0.805750
0.438000,-1.220649,-0.592241,0.293922,0.997135,0.030708,-0.003189,0.069060,0.010467,-0.236475,0.080503,0.589859,-0.350626,-0.014892,-0.021660,-0.846698,0.067174,0.150758,1.021683,-0.418549,-0.006492,-1.015809,0.535430,-0.074769,0.688243,0.080524,0.369152,-0.070857,-0.239514,-3.473385,1.482440,-2.649972,4.149296,0.830930,-2.925656,-0.151772,-0.183070,0.825847
0.440000,-1.220625,-0.592751,0.294063,0.997123,0.031061,-0.003519,0.069048,0.012046,-0.255080,0.070225,0.329099,-0.353804,-0.002255,-0.020352,-0.846818,0.066638,0.144115,1.024632,-0.425348,0.000308,-1.014615,0.533007,-0.075680,0.688009,0.081902,0.653865,-0.060236,-0.267899,-3.321863,1.474637,-3.399649,3.400039,0.596836,-1.211256,-0.455229,-0.116918,0.689103
0.442000,-1.220606,-0.593256,0.294208,0.997110,0.031547,-0.003843,0.069000,0.009528,-0.252374,0.072599,0.462220,-0.358250,-0.038778,-0.019270,-0.846942,0.066179,0.137175,1.026786,-0.428573,0.008325,-1.012321,0.526156,-0.076270,0.687768,0.083355,0.541136,-0.062013,-0.229583,-3.469895,1.076786,-1.612524,4.008361,1.146959,-3.425878,-0.294999,-0.120448,0.726274
0.444000,-1.220586,-0.593786,0.294342,0.997106,0.031762,-0.004134,0.068944,0.009919,-0.265169,0.067141,0.194750,-0.307424,-0.046595,-0.017640,-0.846968,0.065729,0.130460,1.029182,-0.434269,0.016063,-1.009343,0.513696,-0.077400,0.687482,0.084724,0.815049,-0.012911,-0.225052,-3.357449,1.197965,-2.847993,3.869206,1.488920,-6.229753,-0.565290,-0.142779,0.684398
0.446000,-1.220569,-0.594281,0.294463,0.997085,0.032480,-0.004467,0.068894,0.008897,-0.247115,0.060166,0.693742,-0.382347,-0.040829,-0.017051,-0.847268,0.065487,0.122336,1.031053,-0.437392,0.024460,-1.007181,0.507553,-0.077539,0.687307,0.086128,0.294638,-0.149905,-0.121195,-4.062102,0.935658,-1.561429,4.198594,1.080907,-3.071447,-0.069168,-0.087548,0.702186
0.448000,-1.220548,-0.594788,0.294549,0.997061,0.033198,-0.004836,0.068876,0.010486,-0.253849,0.043398,0.690971,-0.418741,-0.007399,-0.016483,-0.847704,0.065296,0.113955,1.033076,-0.442270,0.031391,-1.006460,0.510522,-0.077788,0.687296,0.087281,0.283932,-0.217866,-0.095486,-4.190413,1.011557,-2.439269,3.465393,0.360692,1.484474,-0.124845,-0.005780,0.576618
0.450000,-1.220530,-0.595321,0.294627,0.997046,0.033696,-0.005173,0.068825,0.008694,-0.266086,0.038917,0.473259,-0.372218,-0.040961,-0.015428,-0.848019,0.065137,0.106374,1.034902,-0.446285,0.038624,-1.004476,0.508172,-0.078447,0.687252,0.088368,0.527291,-0.157603,-0.079312,-3.790478,0.913213,-2.007316,3.616389,0.992153,-1.175177,-0.329252,-0.021715,0.543359
0.452000,-1.220514,-0.595892,0.294690,0.997046,0.033800,-0.005467,0.068750,0.008077,-0.285696,0.031364,0.083248,-0.302906,-0.065401,-0.013546,-0.848165,0.064979,0.099958,1.036888,-0.451417,0.045513,-1.001412,0.500197,-0.079884,0.687163,0.089324,0.941199,-0.073114,-0.078916,-3.207899,0.992928,-2.565799,3.444488,1.531910,-3.987176,-0.718726,-0.044698,0.477739
0.454000,-1.220498,-0.596459,0.294736,0.997046,0.033946,-0.005744,0.068663,0.008167,-0.283336,0.022805,0.126044,-0.288818,-0.078988,-0.011761,-0.848366,0.064977,0.093390,1.039228,-0.457289,0.053019,-0.998027,0.489727,-0.081213,0.687078,0.090247,0.892693,-0.100453,-0.000847,-3.284319,1.170035,-2.936122,3.753101,1.692434,-5.235129,-0.664269,-0.042197,0.461793
0.456000,-1.220476,-0.597007,0.294755,0.997034,0.034366,-0.006050,0.068597,0.010833,-0.274118,0.009902,0.398111,-0.336190,-0.056203,-0.010570,-0.848804,0.065154,0.086164,1.041788,-0.462926,0.060461,-0.995994,0.484892,-0.082044,0.687106,0.091101,0.595463,-0.218761,0.088527,-3.612711,1.279600,-2.818321,3.720904,1.016392,-2.417798,-0.415646,0.013884,0.427161
0.458000,-1.220456,-0.597528,0.294771,0.997008,0.035158,-0.006363,0.068539,0.009999,-0.260370,0.007834,0.768449,-0.368595,-0.050088,-0.010155,-0.849413,0.065507,0.078237,1.043950,-0.465400,0.068585,-0.994417,0.481900,-0.082132,0.687092,0.092128,0.207128,-0.304535,0.176224,-3.963430,1.081391,-1.237120,4.061941,0.788689,-1.495693,-0.043993,-0.007275,0.513178
0.460000,-1.220438,-0.598073,0.294777,0.996988,0.035771,-0.006657,0.068490,0.009066,-0.272591,0.003034,0.591079,-0.336901,-0.041751,-0.009380,-0.849946,0.065845,0.070980,1.046030,-0.467900,0.075883,-0.992854,0.478733,-0.082622,0.686999,0.093145,0.387644,-0.266542,0.168882,-3.628723,1.039794,-1.249901,3.649058,0.781394,-1.583752,-0.244886,-0.046388,0.508587
0.462000,-1.220432,-0.598659,0.294802,0.996984,0.036013,-0.006882,0.068407,0.002853,-0.292950,0.012432,0.225987,-0.244213,-0.075504,-0.007807,-0.850150,0.066064,0.065324,1.047158,-0.467296,0.082951,-0.989308,0.466689,-0.083811,0.686624,0.094355,0.786545,-0.102073,0.109452,-2.827938,0.564079,0.301889,3.534132,1.772921,-6.021958,-0.594320,-0.187471,0.604908
0.464000,-1.220447,-0.599271,0.294864,0.996989,0.036063,-0.007035,0.068287,-0.007538,-0.306365,0.030982,0.038115,-0.159558,-0.114889,-0.005795,-0.850018,0.066167,0.061067,1.046441,-0.460556,0.090188,-0.983338,0.445481,-0.085314,0.685859,0.095964,1.006184,0.066039,0.051576,-2.128314,-0.358459,3.369953,3.618374,2.984871,-10.603981,-0.751565,-0.382547,0.804402
0.466000,-1.220478,-0.599860,0.294916,0.996979,0.036410,-0.007183,0.068237,-0.015259,-0.294125,0.026148,0.336286,-0.173267,-0.046100,-0.004516,-0.850035,0.066421,0.055032,1.045756,-0.458993,0.096279,-0.978582,0.433460,-0.086296,0.684896,0.097780,0.639499,-0.008433,0.127363,-3.017722,-0.342502,0.781478,3.045381,2.378490,-6.010377,-0.491070,-0.481152,0.908432
0.468000,-1.220515,-0.600412,0.294939,0.996947,0.037136,-0.007367,0.068282,-0.018743,-0.276315,0.011516,0.712607,-0.231456,0.047767,-0.004167,-0.850353,0.066857,0.046439,1.045949,-0.465947,0.100946,-0.976260,0.435273,-0.086638,0.683940,0.099581,0.174142,-0.159216,0.217749,-4.296286,0.096294,-3.476883,2.333961,1.160544,0.906605,-0.170813,-0.478282,0.900198
0.470000,-1.220562,-0.600979,0.294998,0.996923,0.037787,-0.007540,0.068267,-0.023518,-0.283284,0.029516,0.638060,-0.218159,-0.011426,-0.003573,-0.850434,0.067092,0.039240,1.044101,-0.463388,0.106324,-0.971797,0.428106,-0.087030,0.682931,0.101514,0.296931,-0.040191,0.117409,-3.599448,-0.923735,1.279370,2.689013,2.231733,-3.583503,-0.196094,-0.504676,0.966472
0.472000,-1.220612,-0.601573,0.295073,0.996912,0.038144,-0.007710,0.068201,-0.024924,-0.296924,0.037483,0.343316,-0.196340,-0.061541,-0.002306,-0.850269,0.067099,0.033367,1.041354,-0.456562,0.111744,-0.965564,0.412554,-0.087940,0.682003,0.103312,0.633706,0.082046,0.003484,-2.936582,-1.373729,3.412900,2.709917,3.116519,-7.776216,-0.455022,-0.463665,0.899026
0.474000,-1.220669,-0.602212,0.295176,0.996923,0.038072,-0.007869,0.068068,-0.028415,-0.319644,0.051405,-0.083148,-0.158494,-0.126471,-0.000058,-0.849738,0.066774,0.029748,1.036802,-0.442256,0.116859,-0.956944,0.387003,-0.089627,0.681105,0.105016,1.124086,0.265499,-0.162210,-1.809522,-2.275796,7.153137,2.557228,4.309739,-12.775562,-0.843597,-0.448857,0.852006
0.476000,-1.220728,-0.602825,0.295245,0.996920,0.038222,-0.008072,0.068005,-0.029438,-0.306405,0.034661,0.134580,-0.215261,-0.056405,0.001614,-0.849468,0.066582,0.024084,1.033197,-0.436417,0.120666,-0.950186,0.371940,-0.090957,0.680359,0.106503,0.835753,0.135289,-0.096195,-2.831881,-1.802367,2.919680,1.903408,3.379459,-7.531602,-0.665016,-0.373411,0.743461
0.478000,-1.220793,-0.603424,0.295313,0.996909,0.038551,-0.008304,0.067955,-0.032772,-0.299782,0.033750,0.312634,-0.254972,-0.042167,0.002897,-0.849287,0.066412,0.018085,1.028636,-0.428915,0.124055,-0.943682,0.360162,-0.091936,0.679671,0.107966,0.641680,0.090664,-0.085128,-2.999676,-2.280910,3.750821,1.694520,3.251724,-5.888639,-0.489251,-0.343726,0.731775
0.480000,-1.220861,-0.603999,0.295362,0.996888,0.039080,-0.008559,0.067931,-0.033926,-0.287439,0.024445,0.510799,-0.292091,-0.017441,0.003712,-0.849283,0.066375,0.010984,1.024296,-0.424624,0.127225,-0.937765,0.351901,-0.092522,0.679093,0.109312,0.407598,0.001697,-0.018474,-3.550378,-2.169821,2.145616,1.585217,2.958425,-4.130459,-0.293224,-0.288965,0.672842
0.482000,-1.220937,-0.604610,0.295440,0.996885,0.039289,-0.008791,0.067822,-0.037919,-0.305368,0.039276,0.192010,-0.249783,-0.100688,0.005314,-0.848957,0.066121,0.006519,1.017670,-0.409851,0.130724,-0.929042,0.331506,-0.093632,0.678503,0.110659,0.800812,0.163055,-0.126845,-2.232437,-3.312899,7.386556,1.749366,4.361737,-10.197516,-0.555082,-0.295131,0.673689
0.484000,-1.221025,-0.605284,0.295551,0.996909,0.038956,-0.008985,0.067628,-0.043857,-0.337096,0.055508,-0.348703,-0.178082,-0.184389,0.008177,-0.848178,0.065557,0.005662,1.008225,-0.383678,0.133626,-0.917285,0.299056,-0.095746,0.677822,0.112017,1.431670,0.389275,-0.281973,-0.428678,-4.722486,13.086390,1.451270,5.878417,-16.225037,-1.056704,-0.340545,0.678906
0.486000,-1.221120,-0.605917,0.295614,0.996914,0.038960,-0.009183,0.067533,-0.047326,-0.316300,0.031216,-0.010032,-0.200868,-0.087747,0.010161,-0.847781,0.065401,0.002240,1.000196,-0.369764,0.135230,-0.907781,0.278906,-0.097282,0.677092,0.113333,0.992021,0.198567,-0.078226,-1.711051,-4.014628,6.956722,0.801882,4.751855,-10.075262,-0.768434,-0.364847,0.657998
0.488000,-1.221212,-0.606459,0.295604,0.996879,0.039711,-0.009414,0.067580,-0.046405,-0.271156,-0.005036,0.734680,-0.279820,0.051107,0.010345,-0.848097,0.065897,-0.005839,0.995115,-0.373549,0.136242,-0.902197,0.276882,-0.097450,0.676433,0.114558,0.091737,-0.158000,0.248115,-4.039280,-2.540452,-1.892226,0.505835,2.792008,-1.011952,-0.083812,-0.329513,0.612571
0.490000,-1.221304,-0.607011,0.295615,0.996850,0.040427,-0.009655,0.067554,-0.046045,-0.275830,0.005682,0.698272,-0.290097,-0.021425,0.010725,-0.848289,0.066272,-0.011928,0.988012,-0.365390,0.138103,-0.894703,0.265634,-0.097589,0.675881,0.115772,0.189945,-0.095941,0.187728,-3.044727,-3.551566,4.079327,0.930540,3.746882,-5.624068,-0.069260,-0.276163,0.607015
0.492000,-1.221390,-0.607595,0.295644,0.996838,0.040838,-0.009908,0.067435,-0.042920,-0.292021,0.014301,0.392010,-0.284710,-0.111252,0.011882,-0.848241,0.066399,-0.015443,0.979489,-0.346423,0.140480,-0.884916,0.242523,-0.098242,0.675530,0.116795,0.578612,0.024068,0.063379,-1.757644,-4.261338,9.483407,1.188527,4.893723,-11.555448,-0.326531,-0.175277,0.511390
0.494000,-1.221473,-0.608256,0.295682,0.996860,0.040566,-0.010165,0.067240,-0.041330,-0.330629,0.019376,-0.291251,-0.245784,-0.182600,0.014593,-0.847789,0.066118,-0.015302,0.969359,-0.318513,0.141616,-0.873152,0.210619,-0.100250,0.675338,0.117511,1.355670,0.225863,-0.140631,0.070884,-5.064992,13.955277,0.568242,5.881878,-15.952105,-1.004356,-0.096309,0.357681
0.496000,-1.221557,-0.608948,0.295693,0.996889,0.040054,-0.010426,0.067078,-0.042112,-0.346090,0.005512,-0.530148,-0.231949,-0.147691,0.017766,-0.847335,0.065840,-0.014200,0.959073,-0.292969,0.140820,-0.862242,0.184083,-0.102846,0.675158,0.118048,1.586399,0.227151,-0.138897,0.550710,-5.143362,12.771696,-0.398142,5.455104,-13.267835,-1.297796,-0.090066,0.268905
0.498000,-1.221645,-0.609553,0.295633,0.996878,0.040280,-0.010681,0.067063,-0.043985,-0.302379,-0.030143,0.208458,-0.270042,-0.005944,0.019149,-0.847568,0.066329,-0.017259,0.951599,-0.285398,0.139646,-0.855053,0.174877,-0.104090,0.674841,0.118693,0.691691,-0.116674,0.244635,-1.529670,-3.736628,3.785752,-0.586842,3.594374,-4.603026,-0.622097,-0.158378,0.322452
0.500000,-1.221743,-0.610096,0.295564,0.996842,0.041085,-0.010912,0.067074,-0.048942,-0.271406,-0.034677,0.788625,-0.284147,0.013628,0.019270,-0.848097,0.067250,-0.021585,0.943975,-0.278362,0.139825,-0.848035,0.166400,-0.104126,0.674333,0.119677,0.060413,-0.264338,0.460443,-2.162972,-3.812317,3.517844,0.089076,3.509159,-4.238604,-0.018106,-0.253699,0.491799
0.502000,-1.221847,-0.610617,0.295513,0.996802,0.042068,-0.011125,0.067031,-0.052095,-0.260772,-0.025534,0.966161,-0.279888,-0.042297,0.019082,-0.848584,0.068228,-0.025259,0.935393,-0.264884,0.141603,-0.839085,0.148380,-0.103686,0.673767,0.120851,-0.094107,-0.243500,0.488657,-1.836732,-4.291000,6.739175,0.889004,4.474941,-9.009687,0.220215,-0.283309,0.586875
0.504000,-1.221947,-0.611158,0.295465,0.996771,0.042861,-0.011357,0.066945,-0.049825,-0.270119,-0.023708,0.775234,-0.289151,-0.082114,0.019352,-0.848935,0.069010,-0.027628,0.926513,-0.247278,0.143440,-0.829090,0.124686,-0.103600,0.673358,0.121854,0.134929,-0.175568,0.391346,-1.184625,-4.439988,8.803127,0.918882,4.997592,-11.846964,0.042879,-0.204587,0.501651
0.506000,-1.222032,-0.611784,0.295405,0.996771,0.042929,-0.011657,0.066844,-0.042466,-0.312979,-0.030411,0.047276,-0.307184,-0.089250,0.021200,-0.848989,0.069241,-0.027103,0.917306,-0.226469,0.142766,-0.819510,0.102389,-0.105105,0.673307,0.122279,0.924287,-0.027058,0.115179,0.262757,-4.603395,10.404070,-0.337284,4.790010,-11.148674,-0.752238,-0.025094,0.212671
0.508000,-1.222104,-0.612420,0.295304,0.996771,0.042903,-0.012009,0.066801,-0.036324,-0.318100,-0.050314,-0.050024,-0.350987,-0.027474,0.023174,-0.849188,0.069434,-0.026882,0.909560,-0.212321,0.140583,-0.812160,0.089274,-0.106947,0.673479,0.122353,0.986906,-0.099573,0.096729,0.110191,-3.873101,7.074296,-1.091512,3.674862,-6.557553,-0.921037,0.085690,0.036973
0.510000,-1.222174,-0.613045,0.295184,0.996764,0.042976,-0.012379,0.066791,-0.034705,-0.312515,-0.059717,0.048206,-0.374907,0.005472,0.024889,-0.849518,0.069703,-0.026963,0.902527,-0.201296,0.138178,-0.805805,0.079465,-0.108644,0.673690,0.122373,0.857278,-0.164569,0.134386,-0.040379,-3.516441,5.512657,-1.202331,3.177718,-4.904604,-0.848520,0.105343,0.010003
0.512000,-1.222249,-0.613613,0.295072,0.996733,0.043566,-0.012729,0.066805,-0.037677,-0.284054,-0.056479,0.566184,-0.387441,0.023849,0.025471,-0.850059,0.070259,-0.028246,0.895629,-0.190068,0.137039,-0.801400,0.072801,-0.109255,0.673681,0.122793,0.291035,-0.270617,0.277892,-0.641684,-3.449066,5.613873,-0.569726,2.202361,-3.331922,-0.305501,-0.004055,0.210095
0.514000,-1.222338,-0.614166,0.294983,0.996697,0.044309,-0.013019,0.066799,-0.044466,-0.276439,-0.044511,0.722075,-0.339264,-0.000230,0.025750,-0.850529,0.070945,-0.029067,0.888126,-0.174910,0.136412,-0.798056,0.068087,-0.109477,0.673336,0.123662,0.139363,-0.234894,0.343046,-0.410348,-3.751566,7.578751,-0.313224,1.671758,-2.356708,-0.111061,-0.172811,0.434265
0.516000,-1.222454,-0.614738,0.294927,0.996680,0.044751,-0.013173,0.066733,-0.057758,-0.286038,-0.027576,0.430029,-0.186335,-0.063243,0.026674,-0.850603,0.071687,-0.028698,0.880656,-0.159685,0.135414,-0.794709,0.063987,-0.110141,0.672452,0.125013,0.462475,-0.037344,0.371271,0.184400,-3.734862,7.612760,-0.499156,1.673781,-2.050355,-0.332046,-0.441713,0.675288
0.518000,-1.222592,-0.615354,0.294890,0.996697,0.044571,-0.013183,0.066599,-0.069384,-0.308114,-0.018840,-0.181866,-0.004291,-0.132318,0.028903,-0.850192,0.072429,-0.026781,0.874247,-0.149412,0.133350,-0.791014,0.059986,-0.111899,0.671138,0.126575,1.114320,0.205549,0.370788,0.958803,-3.204650,5.136220,-1.031707,1.847424,-2.000197,-0.879213,-0.657338,0.781126
0.520000,-1.222758,-0.615957,0.294887,0.996723,0.044314,-0.013055,0.066402,-0.082731,-0.301261,-0.001483,-0.251655,0.136751,-0.199972,0.031285,-0.849496,0.073351,-0.024700,0.868361,-0.140723,0.131385,-0.787139,0.056259,-0.113586,0.669327,0.128631,1.191191,0.348095,0.461142,1.040392,-2.942797,4.344570,-0.982922,1.937680,-1.863707,-0.843301,-0.905498,1.028060
0.522000,-1.222940,-0.616526,0.294914,0.996751,0.044122,-0.012824,0.066147,-0.091000,-0.284800,0.013853,-0.180879,0.232221,-0.264445,0.033514,-0.848636,0.074443,-0.022933,0.863235,-0.133403,0.129816,-0.783245,0.052888,-0.114896,0.667227,0.131014,1.114064,0.429823,0.546067,0.883323,-2.563134,3.660081,-0.784452,1.946914,-1.685564,-0.655046,-1.049602,1.191545
0.524000,-1.223136,-0.617031,0.294989,0.996767,0.044330,-0.012525,0.065825,-0.097996,-0.252276,0.037227,0.222857,0.270251,-0.337566,0.034910,-0.847726,0.075694,-0.022005,0.857921,-0.122163,0.129361,-0.779510,0.050021,-0.115042,0.665205,0.133454,0.698180,0.455112,0.625420,0.464190,-2.656913,5.620094,-0.227562,1.867662,-1.433308,-0.072977,-1.011065,1.220105
0.526000,-1.223331,-0.617500,0.295081,0.996788,0.044545,-0.012177,0.065436,-0.097537,-0.234436,0.046146,0.230741,0.315319,-0.406874,0.036278,-0.846725,0.076992,-0.021599,0.853984,-0.114270,0.129175,-0.775810,0.047386,-0.114821,0.663783,0.135191,0.683890,0.500583,0.649211,0.202961,-1.968188,3.946618,-0.092921,1.849568,-1.317666,0.110637,-0.711182,0.868535
0.528000,-1.223524,-0.617948,0.295199,0.996816,0.044679,-0.011805,0.064972,-0.096782,-0.224156,0.058860,0.151348,0.341422,-0.482419,0.037828,-0.845561,0.078173,-0.021092,0.850625,-0.106367,0.129051,-0.772061,0.044806,-0.114424,0.663081,0.136113,0.775056,0.582013,0.590435,0.253246,-1.679832,3.951095,-0.061651,1.874630,-1.290038,0.198427,-0.350912,0.461049
0.530000,-1.223706,-0.618412,0.295317,0.996870,0.044328,-0.011421,0.064451,-0.090941,-0.232022,0.058985,-0.333250,0.383602,-0.535903,0.040368,-0.844169,0.079109,-0.019960,0.849114,-0.104837,0.128083,-0.768156,0.042036,-0.114827,0.662929,0.136281,1.269983,0.695977,0.467662,0.566439,-0.755235,0.765057,-0.484300,1.952758,-1.384734,-0.201763,-0.075883,0.083989
0.532000,-1.223884,-0.618862,0.295467,0.996927,0.043955,-0.011044,0.063887,-0.088970,-0.224833,0.075164,-0.356538,0.375315,-0.578542,0.042958,-0.842649,0.079808,-0.018333,0.847192,-0.099230,0.127197,-0.764316,0.039335,-0.115166,0.662821,0.136542,1.295192,0.760194,0.349593,0.813066,-0.960975,2.803691,-0.443053,1.919825,-1.350529,-0.169546,-0.054045,0.130461
0.534000,-1.224050,-0.619290,0.295623,0.996985,0.043558,-0.010675,0.063325,-0.082772,-0.214139,0.078145,-0.380932,0.368982,-0.576082,0.045522,-0.841151,0.080409,-0.016955,0.846286,-0.096805,0.126321,-0.760767,0.036927,-0.115585,0.662430,0.137245,1.281811,0.748863,0.300556,0.689088,-0.453125,1.212308,-0.437881,1.774673,-1.204119,-0.209307,-0.195452,0.351214
0.536000,-1.224190,-0.619646,0.295784,0.997009,0.043806,-0.010413,0.062817,-0.069996,-0.178277,0.080074,0.256827,0.223695,-0.521728,0.046664,-0.840090,0.081003,-0.016893,0.844898,-0.090565,0.126891,-0.758894,0.036310,-0.114820,0.661992,0.138410,0.571268,0.530606,0.296967,0.031218,-0.694042,3.120242,0.285243,0.936496,-0.308605,0.382381,-0.219405,0.582768
0.538000,-1.224308,-0.619996,0.295922,0.997036,0.043923,-0.010184,0.062343,-0.059071,-0.174677,0.069242,0.125591,0.200004,-0.485673,0.047979,-0.839151,0.081528,-0.017015,0.845080,-0.091297,0.127126,-0.757417,0.036088,-0.114423,0.661507,0.139652,0.657413,0.469116,0.262637,-0.061007,0.091125,-0.366002,0.117475,0.738515,-0.110953,0.198448,-0.242471,0.621073
0.540000,-1.224410,-0.620360,0.296064,0.997071,0.043832,-0.010005,0.061871,-0.051038,-0.182289,0.071030,-0.086182,0.163923,-0.479444,0.049714,-0.838169,0.081757,-0.016041,0.844897,-0.089946,0.126877,-0.756096,0.035934,-0.114531,0.661025,0.140961,0.867542,0.491375,0.114665,0.486679,-0.091452,0.675629,-0.124506,0.660069,-0.076998,-0.054019,-0.240757,0.654471
0.542000,-1.224480,-0.620739,0.296175,0.997112,0.043515,-0.009908,0.061447,-0.034734,-0.189324,0.055598,-0.316474,0.098844,-0.426294,0.051845,-0.837336,0.081774,-0.014558,0.845675,-0.092599,0.125757,-0.756110,0.037220,-0.115273,0.660777,0.142001,1.065255,0.416259,0.008303,0.741944,0.388736,-1.326671,-0.560357,-0.006835,0.643242,-0.370937,-0.124085,0.519944
0.544000,-1.224531,-0.621106,0.296288,0.997146,0.043322,-0.009886,0.061042,-0.025536,-0.183247,0.056332,-0.196191,0.016604,-0.405253,0.053701,-0.836647,0.081626,-0.012580,0.845528,-0.090295,0.124903,-0.756534,0.038858,-0.115839,0.660642,0.143075,0.928191,0.344497,-0.074009,0.988910,-0.073529,1.151921,-0.426861,-0.211970,0.818749,-0.282572,-0.067668,0.536940
0.546000,-1.224556,-0.621446,0.296374,0.997166,0.043310,-0.009920,0.060704,-0.012480,-0.170085,0.042863,-0.018679,-0.047973,-0.336935,0.055080,-0.836283,0.081558,-0.011187,0.846092,-0.091282,0.124042,-0.758612,0.042367,-0.116165,0.660596,0.144120,0.689615,0.181869,-0.034225,0.696194,0.281870,-0.493624,-0.430633,-1.039014,1.754794,-0.163073,-0.022735,0.522498
0.548000,-1.224571,-0.621762,0.296456,0.997177,0.043491,-0.009981,0.060390,-0.007901,-0.158273,0.040893,0.173524,-0.085080,-0.313090,0.056020,-0.836086,0.081550,-0.009898,0.846310,-0.090864,0.123649,-0.760701,0.045834,-0.116131,0.660512,0.145300,0.469585,0.098893,-0.003647,0.644632,0.109419,0.209336,-0.196493,-1.044571,1.733332,0.016913,-0.042067,0.590126
0.550000,-1.224578,-0.622067,0.296520,0.997183,0.043729,-0.010052,0.060110,-0.003069,-0.152144,0.032398,0.230277,-0.097740,-0.278068,0.056784,-0.836039,0.081647,-0.008785,0.846940,-0.092977,0.123316,-0.762945,0.049454,-0.116041,0.660384,0.146522,0.382114,0.023133,0.048436,0.556741,0.314644,-1.056885,-0.166390,-1.122032,1.809876,0.044749,-0.063999,0.610943
0.552000,-1.224581,-0.622377,0.296580,0.997190,0.043901,-0.010128,0.059847,-0.001846,-0.155195,0.029871,0.163407,-0.097286,-0.261008,0.057670,-0.836002,0.081727,-0.007237,0.847281,-0.094643,0.122866,-0.764907,0.052709,-0.116135,0.660182,0.147795,0.443312,0.018793,0.039935,0.773863,0.170513,-0.832595,-0.224909,-0.980852,1.627473,-0.046875,-0.101079,0.636500
