QPZ-918/AT_DOG_AMP/temp/gmr_data_csv/R0.5.csv
time_sec,root_pos_x,root_pos_y,root_pos_z,root_quat_w,root_quat_x,root_quat_y,root_quat_z,base_lin_vel_x,base_lin_vel_y,base_lin_vel_z,base_ang_vel_x,base_ang_vel_y,base_ang_vel_z,FR_hip_joint,FR_thigh_joint,FR_calf_joint,FL_hip_joint,FL_thigh_joint,FL_calf_joint,RR_hip_joint,RR_thigh_joint,RR_calf_joint,RL_hip_joint,RL_thigh_joint,RL_calf_joint,FR_hip_joint_vel,FR_thigh_joint_vel,FR_calf_joint_vel,FL_hip_joint_vel,FL_thigh_joint_vel,FL_calf_joint_vel,RR_hip_joint_vel,RR_thigh_joint_vel,RR_calf_joint_vel,RL_hip_joint_vel,RL_thigh_joint_vel,RL_calf_joint_vel
0.002000,-0.793539,2.992142,0.306713,0.995455,0.060929,-0.002564,-0.073145,-0.118623,-0.228046,0.238816,-0.488415,-0.707517,0.262220,-0.187890,-0.766677,-0.083468,0.140918,0.577639,0.402256,-0.153797,-0.791950,0.110715,0.108281,0.828733,-0.167018,0.965825,-0.579024,4.624999,-0.552291,-0.597197,1.349642,-1.064862,-0.195969,-0.473469,-1.099439,-1.129740,2.507859
0.004000,-0.793769,2.991702,0.307172,0.995503,0.060360,-0.003248,-0.072942,-0.115177,-0.220162,0.229228,-0.518836,-0.710719,0.248776,-0.186024,-0.767540,-0.076686,0.139994,0.576637,0.404407,-0.155928,-0.792420,0.109889,0.106048,0.827216,-0.163840,0.932842,-0.431616,3.391190,-0.462239,-0.500960,1.075187,-1.065414,-0.235001,-0.413195,-1.116748,-0.758273,1.588994
0.006000,-0.793983,2.991252,0.307580,0.995563,0.059513,-0.003967,-0.072786,-0.106955,-0.225084,0.204148,-0.793676,-0.767551,0.205906,-0.183743,-0.768414,-0.071820,0.139888,0.575969,0.406394,-0.158536,-0.793185,0.109364,0.103740,0.828062,-0.169116,1.140575,-0.436704,2.432947,-0.052805,-0.334087,0.993977,-1.303995,-0.382415,-0.262560,-1.154054,0.423145,-2.638104
0.008000,-0.794194,2.990811,0.307989,0.995623,0.058650,-0.004686,-0.072610,-0.105348,-0.220435,0.204357,-0.810032,-0.768013,0.225011,-0.181454,-0.768820,-0.068956,0.139836,0.575249,0.408634,-0.161183,-0.793982,0.108853,0.100546,0.828377,-0.169804,1.144832,-0.203253,1.431725,-0.026255,-0.359821,1.119604,-1.323504,-0.398723,-0.255618,-1.596855,0.157331,-0.343946
0.010000,-0.794395,2.990386,0.308367,0.995677,0.057894,-0.005368,-0.072441,-0.100762,-0.212591,0.189439,-0.705183,-0.723493,0.216484,-0.179586,-0.769745,-0.066548,0.139710,0.574569,0.410761,-0.163606,-0.794790,0.108480,0.097190,0.828707,-0.169100,0.934020,-0.462346,1.203963,-0.063065,-0.339875,1.063615,-1.211704,-0.404002,-0.186243,-1.677979,0.165010,0.351772
0.012000,-0.794593,2.989990,0.308731,0.995716,0.057365,-0.006001,-0.072265,-0.099152,-0.197899,0.181997,-0.482242,-0.658774,0.217308,-0.178464,-0.770814,-0.064718,0.139159,0.573856,0.412692,-0.165563,-0.795512,0.108173,0.093841,0.828375,-0.164888,0.560702,-0.534537,0.915220,-0.275417,-0.356535,0.965733,-0.978372,-0.361083,-0.153561,-1.674336,-0.166146,2.106438
0.014000,-0.794785,2.989599,0.309050,0.995751,0.056867,-0.006588,-0.072132,-0.095871,-0.195332,0.159374,-0.455090,-0.611980,0.171907,-0.176816,-0.773463,-0.057651,0.138813,0.573154,0.414897,-0.167416,-0.796204,0.107999,0.090947,0.828924,-0.165069,0.823874,-1.324298,3.533608,-0.172792,-0.351181,1.102461,-0.926284,-0.345820,-0.087157,-1.447225,0.274584,-0.090793
0.016000,-0.794977,2.989214,0.309350,0.995788,0.056303,-0.007138,-0.072014,-0.095676,-0.192885,0.149873,-0.523050,-0.581796,0.155166,-0.175201,-0.775839,-0.053779,0.138705,0.572466,0.417068,-0.169361,-0.796795,0.107768,0.087920,0.829634,-0.166546,0.807770,-1.188479,1.935900,-0.053926,-0.343822,1.085326,-0.972612,-0.295574,-0.115194,-1.513211,0.354795,-0.738574
0.018000,-0.795177,2.988831,0.309640,0.995826,0.055697,-0.007617,-0.071904,-0.100149,-0.191461,0.144983,-0.570237,-0.513926,0.142871,-0.173513,-0.777877,-0.052188,0.138813,0.571664,0.419265,-0.171366,-0.797095,0.107306,0.084570,0.829660,-0.166283,0.843875,-1.018644,0.795229,0.053750,-0.400921,1.098462,-1.002455,-0.149850,-0.231029,-1.675426,0.013330,0.131659
0.020000,-0.795387,2.988466,0.309923,0.995858,0.055201,-0.008013,-0.071802,-0.105133,-0.182596,0.141483,-0.466868,-0.424079,0.129884,-0.172121,-0.779577,-0.051881,0.138737,0.570803,0.421086,-0.173118,-0.797073,0.106648,0.081253,0.828703,-0.163084,0.695970,-0.850209,0.153589,-0.038000,-0.430519,0.910320,-0.876326,0.010785,-0.329261,-1.658506,-0.478400,1.599357
0.022000,-0.795683,2.987922,0.310237,0.995985,0.053141,-0.008123,-0.071577,-0.147728,-0.271697,0.157118,-2.048268,-0.243600,0.255490,-0.166204,-0.778733,-0.062947,0.142555,0.570363,0.417603,-0.178308,-0.795503,0.103938,0.069936,0.820019,-0.134449,2.958731,0.422331,-5.533103,1.909289,-0.220317,-1.741211,-2.594717,0.784828,-1.354777,-5.658058,-4.342136,14.317619
0.024000,-0.796035,2.987399,0.310594,0.996083,0.051722,-0.008015,-0.071270,-0.176333,-0.261814,0.178633,-1.423509,0.023153,0.319268,-0.159855,-0.778912,-0.067003,0.145519,0.568116,0.418578,-0.182246,-0.793208,0.101041,0.057339,0.803196,-0.079174,3.174581,-0.089923,-2.027655,1.482029,-1.123087,0.487281,-1.969003,1.147929,-1.448556,-6.298852,-8.411324,27.637399
0.026000,-0.796384,2.987033,0.310937,0.996091,0.051905,-0.007979,-0.071034,-0.174541,-0.182557,0.171127,0.180565,0.061064,0.232039,-0.155443,-0.781072,-0.059853,0.144900,0.564888,0.424163,-0.181840,-0.792066,0.102801,0.050210,0.784919,-0.026361,2.205889,-1.079916,3.574775,-0.309678,-1.614439,2.792625,0.203063,0.570857,0.879938,-3.564490,-9.138541,26.406448
0.028000,-0.796683,2.986743,0.311225,0.996069,0.052363,-0.008162,-0.070982,-0.149551,-0.145334,0.144124,0.471445,-0.147717,0.056496,-0.150725,-0.782866,-0.054082,0.143007,0.563539,0.425737,-0.179928,-0.792737,0.107517,0.047921,0.772361,0.001898,2.358964,-0.896815,2.885768,-0.946330,-0.674241,0.786820,0.956109,-0.335582,2.358071,-1.144340,-6.279288,14.129603
0.030000,-0.796937,2.986429,0.311469,0.996070,0.052085,-0.008541,-0.071124,-0.126788,-0.157024,0.122051,-0.251749,-0.404872,-0.120160,-0.143902,-0.782696,-0.057227,0.142362,0.564008,0.424339,-0.179131,-0.794413,0.112152,0.047810,0.767096,0.003246,3.411422,0.084966,-1.572496,-0.322919,0.234267,-0.698612,0.398389,-0.837893,2.317352,-0.055598,-2.632662,0.674229
0.032000,-0.797170,2.986073,0.311658,0.996096,0.050965,-0.009041,-0.071505,-0.116733,-0.177761,0.094642,-1.084352,-0.597413,-0.341274,-0.134555,-0.781409,-0.063502,0.143881,0.564901,0.425249,-0.177064,-0.794035,0.102904,0.048993,0.768274,-0.021386,4.673360,0.643373,-3.137737,0.759556,0.446730,0.454759,1.033219,0.189177,-4.623907,0.591596,0.589050,-12.316010
0.034000,-0.797433,2.985727,0.311840,0.996106,0.050309,-0.009381,-0.071792,-0.131278,-0.172904,0.090808,-0.632290,-0.399688,-0.262087,-0.125990,-0.780844,-0.063747,0.144952,0.564572,0.428984,-0.175014,-0.793749,0.095885,0.048966,0.764260,-0.024794,4.282741,0.282786,-0.122584,0.535562,-0.164451,1.867659,1.025020,0.142857,-3.509472,-0.013524,-2.006664,-1.704362
0.036000,-0.797721,2.985412,0.311991,0.996094,0.050327,-0.009580,-0.071917,-0.143804,-0.157892,0.075315,0.031708,-0.203173,-0.115630,-0.119233,-0.781072,-0.058589,0.144762,0.563809,0.431197,-0.172745,-0.794550,0.094766,0.047184,0.754002,-0.002445,3.378471,-0.114074,2.579194,-0.094894,-0.381369,1.106193,1.134484,-0.400710,-0.559442,-0.891110,-5.129228,11.174565
0.038000,-0.798020,2.985094,0.312108,0.996083,0.050543,-0.009714,-0.071906,-0.149708,-0.158889,0.058871,0.225014,-0.117607,0.014596,-0.113794,-0.780747,-0.055569,0.144230,0.562990,0.431425,-0.171288,-0.796580,0.099172,0.043259,0.739743,0.039204,2.719614,0.162553,1.510211,-0.266107,-0.409751,0.114259,0.728718,-1.014773,2.202734,-1.962312,-7.129543,20.824857
0.040000,-0.798296,2.984685,0.312131,0.996123,0.049543,-0.010003,-0.072000,-0.137933,-0.204608,0.011534,-0.978147,-0.364666,-0.065781,-0.106167,-0.779104,-0.059360,0.146587,0.562833,0.431519,-0.172391,-0.799321,0.103648,0.038411,0.731905,0.055703,3.813536,0.821539,-1.895952,1.178643,-0.078567,0.047195,-0.551735,-1.370861,2.238457,-2.423851,-3.918789,8.249050
0.042000,-0.798550,2.984253,0.312074,0.996178,0.048027,-0.010384,-0.072219,-0.127176,-0.215944,-0.028509,-1.487575,-0.498328,-0.180807,-0.097784,-0.777414,-0.063218,0.150359,0.562553,0.434081,-0.174665,-0.802010,0.107719,0.034856,0.730534,0.046090,4.191156,0.844697,-1.928984,1.885839,-0.140028,1.280713,-1.136979,-1.344134,2.035051,-1.777580,-0.685528,-4.806493
0.044000,-0.798817,2.983938,0.312009,0.996179,0.047692,-0.010582,-0.072392,-0.133171,-0.157129,-0.032580,-0.321468,-0.229597,-0.159321,-0.092962,-0.777007,-0.060230,0.151509,0.561580,0.436792,-0.174783,-0.803575,0.110925,0.033701,0.726681,0.046543,2.411033,0.203764,1.494410,0.575173,-0.486341,1.355451,-0.058967,-0.782569,1.603067,-0.577764,-1.926760,0.226627
0.046000,-0.799111,2.983740,0.311971,0.996133,0.048508,-0.010499,-0.072493,-0.147200,-0.099437,-0.019234,0.807877,0.136094,-0.116341,-0.091947,-0.776852,-0.054603,0.150005,0.560148,0.437773,-0.170624,-0.800656,0.096889,0.033591,0.717210,0.071170,0.507783,0.077106,2.813302,-0.752240,-0.716098,0.490479,2.079580,1.459465,-7.017864,-0.054693,-4.735077,12.313356
0.048000,-0.799393,2.983500,0.311882,0.996109,0.048916,-0.010482,-0.072553,-0.141176,-0.119766,-0.044300,0.405825,0.043630,-0.066729,-0.090626,-0.776065,-0.055079,0.149273,0.559034,0.437913,-0.168085,-0.798717,0.086483,0.031811,0.708336,0.096057,0.660489,0.393925,-0.237757,-0.365991,-0.556851,0.070061,1.269410,0.969278,-5.203145,-0.889951,-4.437333,12.443603
0.050000,-0.799638,2.983166,0.311667,0.996125,0.048384,-0.010734,-0.072659,-0.122239,-0.167204,-0.107368,-0.513253,-0.294819,-0.086339,-0.087435,-0.775675,-0.055976,0.150750,0.558257,0.440015,-0.169013,-0.800665,0.091249,0.028452,0.705036,0.101148,1.595220,0.194741,-0.448776,0.738630,-0.388436,1.051292,-0.463953,-0.973825,2.383207,-1.679521,-1.649812,2.545574
0.052000,-0.799869,2.982768,0.311375,0.996166,0.047253,-0.011066,-0.072785,-0.115625,-0.199027,-0.146319,-1.105838,-0.418161,-0.094717,-0.082889,-0.775751,-0.056150,0.153631,0.557795,0.442249,-0.171713,-0.803737,0.100534,0.023655,0.703893,0.099292,2.272965,-0.037829,-0.087168,1.440500,-0.231215,1.116831,-1.350058,-1.535744,4.642331,-2.398592,-0.571390,-0.928167
0.054000,-0.800125,2.982374,0.311084,0.996206,0.046255,-0.011231,-0.072854,-0.127764,-0.196612,-0.145514,-0.984579,-0.239827,-0.046204,-0.078883,-0.775949,-0.055536,0.156161,0.557207,0.443182,-0.174365,-0.805846,0.107940,0.018035,0.699441,0.110809,2.003338,-0.099082,0.307200,1.264830,-0.293859,0.466680,-1.325677,-1.054565,3.702906,-2.810030,-2.226036,5.758564
0.056000,-0.800406,2.982029,0.310821,0.996229,0.045711,-0.011206,-0.072889,-0.140841,-0.172670,-0.131187,-0.545331,-0.016063,-0.028953,-0.076039,-0.776249,-0.053930,0.157494,0.556241,0.443753,-0.176148,-0.806762,0.113483,0.013201,0.692049,0.132893,1.421556,-0.150280,0.803041,0.666722,-0.482972,0.285262,-0.891826,-0.458358,2.771949,-2.417274,-3.696187,11.042349
0.058000,-0.800694,2.981728,0.310572,0.996237,0.045379,-0.011094,-0.072998,-0.143904,-0.150561,-0.124714,-0.340293,0.081715,-0.108597,-0.073736,-0.776562,-0.051774,0.158164,0.554879,0.446183,-0.177310,-0.806867,0.117588,0.010431,0.686455,0.146953,1.151673,-0.156092,1.077749,0.334959,-0.680879,1.215129,-0.580784,-0.052293,2.052485,-1.384989,-2.796777,7.029966
0.060000,-0.800985,2.981446,0.310324,0.996244,0.044941,-0.010910,-0.073203,-0.145357,-0.140966,-0.124173,-0.452609,0.142704,-0.207647,-0.071260,-0.776762,-0.049389,0.158789,0.553828,0.448079,-0.178379,-0.806116,0.120170,0.009280,0.683476,0.149311,1.238148,-0.100418,1.192513,0.312362,-0.525571,0.947716,-0.534496,0.375583,1.290698,-0.575150,-1.489774,1.178857
0.062000,-0.801287,2.981181,0.310093,0.996250,0.044407,-0.010609,-0.073493,-0.151050,-0.132392,-0.115281,-0.557296,0.247979,-0.296325,-0.068615,-0.776762,-0.046782,0.159382,0.553026,0.449221,-0.176419,-0.800584,0.099366,0.008059,0.680814,0.151124,1.322321,0.000365,1.303909,0.296777,-0.401121,0.571037,0.980136,2.766149,-10.402150,-0.610839,-1.330729,0.906586
0.064000,-0.801579,2.980947,0.309847,0.996243,0.044246,-0.010358,-0.073724,-0.146263,-0.117234,-0.122790,-0.181413,0.227098,-0.240257,-0.066891,-0.777034,-0.043888,0.159448,0.552357,0.449849,-0.174358,-0.796759,0.084295,0.007418,0.678465,0.152592,0.861872,-0.136196,1.447027,0.033107,-0.334367,0.314053,1.030220,1.912360,-7.535181,-0.320175,-1.174522,0.733772
0.066000,-0.801854,2.980739,0.309579,0.996219,0.044655,-0.010273,-0.073817,-0.137335,-0.104014,-0.134364,0.401381,0.110682,-0.102672,-0.066543,-0.777766,-0.040874,0.158485,0.551555,0.450683,-0.173754,-0.798374,0.091757,0.007583,0.676456,0.153824,0.174148,-0.365719,1.506989,-0.481834,-0.401145,0.416889,0.302274,-0.807419,3.730940,0.082189,-1.004840,0.616186
0.068000,-0.802146,2.980480,0.309329,0.996211,0.044839,-0.010143,-0.073824,-0.146167,-0.129382,-0.124733,0.173791,0.143099,-0.014556,-0.065792,-0.778336,-0.038148,0.158196,0.550829,0.450918,-0.175092,-0.801654,0.105923,0.006962,0.674286,0.155161,0.375750,-0.285098,1.362815,-0.144383,-0.363151,0.117742,-0.669423,-1.640182,7.083089,-0.310277,-1.084891,0.668441
0.070000,-0.802509,2.979936,0.309165,0.996303,0.042813,-0.009827,-0.073831,-0.181162,-0.271803,-0.082234,-2.045359,0.165882,0.005946,-0.060208,-0.777504,-0.037673,0.163158,0.550423,0.449992,-0.183568,-0.804551,0.119619,0.001468,0.672516,0.155618,2.791842,0.415750,0.237661,2.480970,-0.203048,-0.463071,-4.237858,-1.448503,6.847966,-2.747253,-0.885030,0.228267
0.072000,-0.802940,2.979279,0.309119,0.996420,0.040020,-0.009375,-0.073879,-0.215394,-0.328814,-0.022966,-2.821987,0.242619,-0.031519,-0.052855,-0.775712,-0.038300,0.170037,0.549570,0.449426,-0.192987,-0.805068,0.128267,-0.005703,0.670262,0.156577,3.676730,0.896112,-0.313802,3.439602,-0.426505,-0.282928,-4.709298,-0.258528,4.323934,-3.585563,-1.126738,0.479919
0.074000,-0.803401,2.978664,0.309190,0.996510,0.037750,-0.008805,-0.073932,-0.230972,-0.307478,0.035600,-2.308102,0.399582,-0.047391,-0.046596,-0.773614,-0.038780,0.175955,0.547957,0.449611,-0.199233,-0.801645,0.114915,-0.011777,0.666749,0.159218,3.129008,1.048921,-0.240121,2.959094,-0.806560,0.092246,-3.123093,1.711703,-6.676251,-3.036659,-1.756422,1.320526
0.076000,-0.803845,2.978242,0.309329,0.996523,0.037561,-0.008425,-0.073896,-0.221929,-0.210994,0.069479,-0.215889,0.365844,0.024647,-0.044844,-0.772249,-0.038197,0.177475,0.544989,0.452161,-0.200951,-0.799789,0.105855,-0.013613,0.662198,0.163743,0.876265,0.682388,0.291604,0.760022,-1.483734,1.275369,-0.859216,0.927982,-4.529748,-0.918231,-2.275816,2.262088
0.078000,-0.804210,2.978010,0.309429,0.996467,0.039354,-0.008338,-0.073720,-0.182276,-0.115877,0.050113,1.783426,0.225003,0.153045,-0.047487,-0.772185,-0.036304,0.173637,0.544519,0.447932,-0.200476,-0.804765,0.121840,-0.011493,0.657579,0.168942,-1.321584,0.032138,0.946621,-1.919250,-0.235090,-2.114484,0.237512,-2.487922,7.992607,1.060068,-2.309552,2.599542
0.080000,-0.804566,2.977736,0.309530,0.996420,0.040929,-0.008191,-0.073522,-0.178298,-0.136967,0.050208,1.562460,0.270459,0.174601,-0.049636,-0.772128,-0.034387,0.170874,0.544893,0.443554,-0.201156,-0.810793,0.139384,-0.009936,0.652937,0.174128,-1.074477,0.028403,0.958554,-1.381509,0.186880,-2.189375,-0.339981,-3.014324,8.771732,0.778340,-2.320726,2.593108
0.082000,-0.804924,2.977255,0.309569,0.996460,0.040362,-0.007628,-0.073343,-0.178662,-0.240484,0.019547,-0.606744,0.527030,0.162570,-0.047244,-0.771434,-0.032935,0.172811,0.553087,0.410759,-0.207002,-0.815716,0.149969,-0.012886,0.648611,0.178126,1.196066,0.347012,0.725700,0.968666,4.097164,-16.397329,-2.922751,-2.461647,5.292408,-1.474661,-2.163133,1.998849
0.084000,-0.805259,2.976638,0.309561,0.996550,0.038513,-0.006909,-0.073187,-0.167736,-0.308299,-0.003797,-1.897991,0.587975,0.147161,-0.042102,-0.770464,-0.031969,0.177932,0.565936,0.364897,-0.216118,-0.821811,0.161402,-0.018541,0.644966,0.180964,2.571187,0.484961,0.483213,2.560425,6.424377,-22.930926,-4.558329,-3.047123,5.716777,-2.827592,-1.822361,1.419316
0.086000,-0.805580,2.976057,0.309619,0.996603,0.037374,-0.006379,-0.073114,-0.160350,-0.290547,0.028827,-1.174854,0.447996,0.064186,-0.038249,-0.769591,-0.031161,0.183319,0.574072,0.347364,-0.221891,-0.827855,0.167508,-0.022650,0.641503,0.184171,1.926521,0.436724,0.404148,2.693555,4.067899,-8.766632,-2.886210,-3.022079,3.052973,-2.054641,-1.731439,1.603435
0.088000,-0.805887,2.975596,0.309758,0.996591,0.037730,-0.006099,-0.073115,-0.153436,-0.230486,0.069745,0.334347,0.304949,-0.014452,-0.037363,-0.769065,-0.030023,0.186935,0.576821,0.359137,-0.222087,-0.833461,0.168882,-0.023555,0.637802,0.188448,0.442764,0.262924,0.568855,1.808060,1.374812,5.886310,-0.097823,-2.803293,0.686765,-0.452514,-1.850657,2.138438
0.090000,-0.806118,2.975269,0.309828,0.996539,0.039187,-0.005966,-0.073063,-0.115458,-0.163909,0.034734,1.445106,0.240421,0.034027,-0.038971,-0.769479,-0.027823,0.186127,0.586337,0.347853,-0.220695,-0.843464,0.189796,-0.022153,0.634354,0.192704,-0.804115,-0.206865,1.099871,-0.404278,4.758061,-5.641937,0.695997,-5.001197,10.457422,0.701175,-1.724190,2.128185
0.092000,-0.806344,2.974893,0.309865,0.996513,0.039994,-0.005631,-0.073017,-0.112956,-0.187820,0.018672,0.780533,0.394285,0.025596,-0.039232,-0.769738,-0.025462,0.186045,0.601294,0.316863,-0.220353,-0.852543,0.209314,-0.022084,0.630806,0.196742,-0.130283,-0.129761,1.180720,-0.040978,7.478565,-15.494801,0.170592,-4.539361,9.758814,0.034358,-1.773699,2.018760
0.094000,-0.806565,2.974406,0.309844,0.996540,0.039483,-0.005032,-0.072959,-0.110594,-0.243370,-0.010421,-0.553711,0.562104,0.039289,-0.036782,-0.769660,-0.023302,0.187944,0.623303,0.259414,-0.223308,-0.861456,0.229941,-0.024778,0.627463,0.199956,1.224930,0.039404,1.080063,0.949825,11.004383,-28.724400,-1.477263,-4.456950,10.313345,-1.346963,-1.671592,1.606979
0.096000,-0.806825,2.973846,0.309911,0.996574,0.038679,-0.004442,-0.072976,-0.130166,-0.279944,0.033365,-0.845467,0.529244,-0.033543,-0.033462,-0.769018,-0.021934,0.192915,0.639346,0.231213,-0.225409,-0.868115,0.239834,-0.028090,0.624002,0.203505,1.660074,0.320884,0.684063,2.485259,8.021375,-14.100841,-1.050520,-3.329027,4.946847,-1.655793,-1.730758,1.774482
0.098000,-0.807067,2.973323,0.310023,0.996575,0.038608,-0.004105,-0.073006,-0.120979,-0.261755,0.055946,-0.095730,0.328960,-0.042874,-0.031582,-0.768580,-0.020868,0.197271,0.652164,0.222899,-0.226108,-0.877174,0.257895,-0.029924,0.620851,0.207240,0.939945,0.218884,0.532709,2.177900,6.409108,-4.157003,-0.349631,-4.529694,9.030059,-0.916961,-1.575110,1.867596
0.100000,-0.807311,2.972822,0.310162,0.996569,0.038786,-0.003770,-0.073016,-0.121828,-0.250413,0.069361,0.153170,0.346626,-0.024057,-0.030254,-0.768139,-0.019760,0.200917,0.665152,0.214202,-0.225839,-0.886146,0.275032,-0.031255,0.617393,0.211448,0.663777,0.220716,0.554036,1.823365,6.494171,-4.348232,0.134397,-4.486204,8.568733,-0.665902,-1.729097,2.104199
0.102000,-0.807522,2.972389,0.310254,0.996558,0.039277,-0.003394,-0.072929,-0.105823,-0.216654,0.046384,0.462983,0.414036,0.069007,-0.029844,-0.768087,-0.018046,0.201282,0.684611,0.177541,-0.225687,-0.897119,0.300963,-0.031964,0.613716,0.215810,0.205230,0.025916,0.856858,0.182523,9.729230,-18.330709,0.076217,-5.486529,12.965536,-0.354492,-1.838723,2.181064
0.104000,-0.807753,2.971940,0.310350,0.996566,0.039376,-0.002811,-0.072789,-0.115242,-0.224225,0.047900,0.056021,0.593779,0.116825,-0.028733,-0.767797,-0.016194,0.201397,0.707018,0.124574,-0.225729,-0.906418,0.319530,-0.033506,0.609413,0.220596,0.555372,0.145101,0.926030,0.057063,11.203482,-26.483158,-0.021216,-4.649402,9.283646,-0.770565,-2.151423,2.392637
0.106000,-0.807985,2.971502,0.310478,0.996565,0.039726,-0.002305,-0.072633,-0.116015,-0.218964,0.063984,0.312924,0.535288,0.135171,-0.028133,-0.767504,-0.014541,0.201110,0.727957,0.077907,-0.225105,-0.916472,0.339347,-0.034568,0.605062,0.225644,0.300268,0.146480,0.826807,-0.143417,10.469513,-23.333719,0.312230,-5.027088,9.908068,-0.531186,-2.175592,2.523921
0.108000,-0.808240,2.971027,0.310692,0.996553,0.040235,-0.001937,-0.072523,-0.127572,-0.237703,0.106829,0.480832,0.408381,0.092292,-0.027634,-0.766929,-0.013598,0.202840,0.742557,0.059749,-0.223468,-0.926196,0.355286,-0.035353,0.600750,0.231053,0.249367,0.287533,0.471393,0.864913,7.299826,-9.078919,0.818569,-4.862016,7.969569,-0.392679,-2.155789,2.704825
0.110000,-0.808495,2.970546,0.310916,0.996540,0.040803,-0.001635,-0.072387,-0.127470,-0.240394,0.112326,0.544556,0.347628,0.121948,-0.027265,-0.766369,-0.012877,0.204256,0.756942,0.041286,-0.222176,-0.937181,0.376688,-0.036079,0.596560,0.236423,0.184309,0.279966,0.360571,0.708152,7.192869,-9.231760,0.645969,-5.492296,10.701280,-0.362621,-2.095224,2.685105
0.112000,-0.808770,2.970018,0.311138,0.996554,0.040807,-0.001198,-0.072208,-0.137448,-0.263993,0.110979,-0.027821,0.443394,0.161097,-0.025777,-0.765549,-0.012324,0.206183,0.773032,0.011108,-0.222096,-0.947403,0.396144,-0.038021,0.592164,0.241758,0.744375,0.409977,0.276574,0.963593,8.045065,-15.088812,0.039737,-5.110774,9.727840,-0.971266,-2.197833,2.667038
0.114000,-0.809042,2.969528,0.311343,0.996567,0.040904,-0.000705,-0.071979,-0.136230,-0.245148,0.102198,0.061171,0.507645,0.209476,-0.024632,-0.764843,-0.011449,0.205842,0.792442,-0.037696,-0.221367,-0.957483,0.416719,-0.039756,0.587529,0.247263,0.572477,0.352760,0.437217,-0.170453,9.704988,-24.401934,0.364555,-5.040277,10.287355,-0.867620,-2.317669,2.752849
0.116000,-0.809315,2.969056,0.311599,0.996558,0.041450,-0.000339,-0.071797,-0.136341,-0.235833,0.128324,0.517985,0.410992,0.164613,-0.024282,-0.764154,-0.010751,0.205241,0.808924,-0.072627,-0.218399,-0.966999,0.434465,-0.040528,0.582927,0.253128,0.174875,0.344662,0.349127,-0.300510,8.240689,-17.465518,1.483880,-4.757935,8.872978,-0.385642,-2.300629,2.932470
0.118000,-0.809574,2.968635,0.311900,0.996513,0.042720,-0.000161,-0.071671,-0.129532,-0.210742,0.150274,1.254588,0.273844,0.114546,-0.025315,-0.763662,-0.010076,0.203248,0.823299,-0.096014,-0.212485,-0.976463,0.452219,-0.039740,0.578480,0.259319,-0.516654,0.246004,0.337493,-0.996535,7.187724,-11.693398,2.957147,-4.732035,8.877098,0.393942,-2.223533,3.095592
0.120000,-0.809843,2.968144,0.312213,0.996488,0.043478,0.000027,-0.071570,-0.134411,-0.245543,0.156569,0.742858,0.246036,0.091447,-0.025163,-0.762922,-0.009890,0.202725,0.837044,-0.116561,-0.207413,-0.985337,0.468624,-0.040036,0.574339,0.265108,0.076211,0.370037,0.092978,-0.261780,6.872215,-10.273719,2.536334,-4.436776,8.202784,-0.148179,-2.070879,2.894261
0.122000,-0.810115,2.967623,0.312509,0.996481,0.043811,0.000269,-0.071461,-0.136075,-0.260454,0.148137,0.315501,0.269598,0.096888,-0.024145,-0.762075,-0.009844,0.201657,0.852949,-0.149147,-0.202707,-0.993437,0.484170,-0.041195,0.570397,0.270474,0.508737,0.423392,0.023138,-0.533886,7.952717,-16.292937,2.352997,-4.049998,7.772760,-0.579404,-1.970970,2.682890
0.124000,-0.810391,2.967049,0.312799,0.996494,0.043690,0.000523,-0.071355,-0.137990,-0.286994,0.145014,-0.139433,0.249584,0.095658,-0.022118,-0.761109,-0.010101,0.201057,0.869346,-0.185099,-0.199012,-1.001288,0.500221,-0.043316,0.566776,0.275354,1.013433,0.482915,-0.128807,-0.300093,8.198316,-17.975990,1.847391,-3.925528,8.025451,-1.060485,-1.810519,2.440376
0.126000,-0.810649,2.966534,0.313120,0.996471,0.044283,0.000608,-0.071309,-0.128992,-0.257536,0.160266,0.585226,0.129041,0.041060,-0.021484,-0.760390,-0.010257,0.198343,0.884534,-0.214255,-0.191874,-1.008434,0.513701,-0.043862,0.563341,0.280459,0.317391,0.359679,-0.077640,-1.356655,7.594229,-14.577936,3.568888,-3.573139,6.740221,-0.273272,-1.717327,2.552222
0.128000,-0.810899,2.966008,0.313460,0.996438,0.045038,0.000581,-0.071298,-0.125051,-0.262663,0.170243,0.755931,0.027380,0.009950,-0.021043,-0.759759,-0.010578,0.195479,0.898160,-0.235345,-0.183881,-1.015533,0.527278,-0.044071,0.560208,0.285455,0.220270,0.315167,-0.160898,-1.432075,6.812990,-10.545177,3.996408,-3.549421,6.788614,-0.104263,-1.566543,2.498274
0.130000,-0.811141,2.965522,0.313824,0.996379,0.046271,0.000464,-0.071326,-0.121091,-0.242938,0.181632,1.240243,-0.030181,-0.026166,-0.021490,-0.759365,-0.010664,0.190706,0.911126,-0.254325,-0.173088,-1.021378,0.536773,-0.043227,0.557074,0.290737,-0.223359,0.197412,-0.042650,-2.386700,6.483055,-9.490011,5.396706,-2.922831,4.747425,0.421851,-1.567118,2.640669
0.132000,-0.811398,2.964955,0.314170,0.996355,0.046798,0.000425,-0.071320,-0.128098,-0.283848,0.173060,0.528430,-0.000862,0.006651,-0.020313,-0.759080,-0.010735,0.186770,0.924658,-0.279992,-0.164708,-1.027030,0.547771,-0.043947,0.554098,0.295559,0.588582,0.142401,-0.035477,-1.967842,6.765871,-12.833134,4.189809,-2.825667,5.498739,-0.359717,-1.487662,2.411265
0.134000,-0.811659,2.964384,0.314533,0.996327,0.047374,0.000375,-0.071337,-0.130783,-0.285376,0.181374,0.578731,-0.009798,-0.016265,-0.019100,-0.758940,-0.010643,0.181910,0.937636,-0.306053,-0.154836,-1.031040,0.553667,-0.044540,0.551080,0.300518,0.606179,0.069931,0.046009,-2.430103,6.488770,-13.030489,4.936141,-2.004915,2.948064,-0.296479,-1.509287,2.479124
0.136000,-0.811926,2.963760,0.314897,0.996312,0.047666,0.000298,-0.071344,-0.133606,-0.312091,0.182142,0.297737,-0.055693,-0.004859,-0.017151,-0.758910,-0.010676,0.177571,0.949659,-0.330093,-0.146321,-1.035268,0.562437,-0.045799,0.548288,0.305196,0.974660,0.014876,-0.016851,-2.169633,6.011810,-12.020348,4.257467,-2.114265,4.384829,-0.629712,-1.395945,2.339287
0.138000,-0.812186,2.963194,0.315306,0.996256,0.048717,0.000076,-0.071415,-0.129689,-0.283120,0.204727,1.065256,-0.150060,-0.063262,-0.016717,-0.758913,-0.010754,0.171179,0.959659,-0.345146,-0.133842,-1.037827,0.565339,-0.045405,0.545431,0.310418,0.217018,-0.001422,-0.038573,-3.195925,4.999966,-7.526406,6.239301,-1.279212,1.451464,0.196975,-1.428375,2.611044
0.140000,-0.812451,2.962587,0.315714,0.996212,0.049534,-0.000166,-0.071466,-0.132661,-0.303276,0.203658,0.833151,-0.184955,-0.042101,-0.015759,-0.758858,-0.011097,0.164682,0.969267,-0.361624,-0.122570,-1.040544,0.571049,-0.045569,0.542738,0.315411,0.478693,0.027635,-0.171843,-3.248184,4.804076,-8.238931,5.636097,-1.358551,2.854832,-0.081912,-1.346600,2.496549
0.142000,-0.812718,2.962013,0.316151,0.996146,0.050728,-0.000466,-0.071556,-0.133361,-0.286858,0.218509,1.214601,-0.217813,-0.080364,-0.015582,-0.758680,-0.011561,0.156311,0.978028,-0.376605,-0.108385,-1.041188,0.569693,-0.044883,0.539927,0.320778,0.088557,0.088968,-0.231762,-4.185777,4.380274,-7.490385,7.092608,-0.322245,-0.678119,0.342982,-1.405686,2.683208
0.144000,-0.812996,2.961363,0.316570,0.996112,0.051303,-0.000728,-0.071612,-0.139340,-0.324950,0.209689,0.592802,-0.223230,-0.044964,-0.014048,-0.758440,-0.012307,0.148526,0.986991,-0.396497,-0.096893,-1.042131,0.572191,-0.045593,0.537370,0.325618,0.767394,0.119892,-0.373302,-3.892307,4.481701,-9.946213,5.746087,-0.471223,1.248968,-0.355111,-1.278474,2.420322
0.146000,-0.813274,2.960726,0.317021,0.996060,0.052150,-0.001064,-0.071726,-0.138869,-0.318519,0.225546,0.870238,-0.279371,-0.100893,-0.012969,-0.758176,-0.013169,0.139779,0.994480,-0.409993,-0.082791,-1.041059,0.567392,-0.045670,0.534856,0.330663,0.539360,0.132144,-0.430882,-4.373498,3.744592,-6.747925,7.050834,0.535716,-2.399376,-0.038332,-1.256755,2.522339
0.148000,-0.813554,2.960033,0.317460,0.996026,0.052648,-0.001426,-0.071824,-0.139972,-0.346796,0.219375,0.523513,-0.329856,-0.080973,-0.011035,-0.758066,-0.014155,0.131432,1.001552,-0.423342,-0.070618,-1.040577,0.567128,-0.046560,0.532676,0.335243,0.966951,0.054735,-0.492885,-4.173472,3.535602,-6.674640,6.086721,0.240884,-0.132236,-0.444919,-1.089854,2.290215
0.150000,-0.813828,2.959374,0.317929,0.995962,0.053618,-0.001882,-0.071977,-0.136802,-0.329230,0.234340,1.002273,-0.393258,-0.134650,-0.009972,-0.758093,-0.015063,0.121570,1.007245,-0.430234,-0.055298,-1.038191,0.559704,-0.046391,0.530503,0.340124,0.531448,-0.013216,-0.454162,-4.931071,2.846440,-3.445647,7.659668,1.193414,-3.711597,0.084228,-1.086513,2.440391
0.152000,-0.814106,2.958668,0.318375,0.995920,0.054232,-0.002330,-0.072094,-0.139151,-0.352933,0.223029,0.646465,-0.408450,-0.097028,-0.008076,-0.758292,-0.015971,0.111580,1.013218,-0.441795,-0.042020,-1.036364,0.556719,-0.047051,0.528538,0.344605,0.947815,-0.099831,-0.454015,-4.994790,2.986514,-5.780934,6.638960,0.913377,-1.492799,-0.330150,-0.982437,2.240432
0.154000,-0.814384,2.957983,0.318841,0.995858,0.055129,-0.002820,-0.072250,-0.139064,-0.342615,0.233048,0.930806,-0.431866,-0.134529,-0.006684,-0.758523,-0.016852,0.100444,1.018194,-0.449791,-0.026477,-1.032685,0.546840,-0.047070,0.526499,0.349356,0.696274,-0.115289,-0.440196,-5.568470,2.488005,-3.997643,7.771622,1.839236,-4.939359,-0.009245,-1.019907,2.375248
0.156000,-0.814669,2.957245,0.319283,0.995819,0.055637,-0.003291,-0.072370,-0.142409,-0.369181,0.221327,0.541859,-0.439284,-0.098080,-0.004406,-0.758803,-0.017847,0.089671,1.023174,-0.460698,-0.013218,-1.029649,0.541547,-0.047990,0.524642,0.353724,1.139138,-0.140147,-0.497917,-5.386398,2.490031,-5.453603,6.629747,1.517950,-2.646615,-0.459813,-0.928517,2.184010
0.158000,-0.814948,2.956505,0.319755,0.995772,0.056250,-0.003821,-0.072522,-0.139706,-0.370163,0.235655,0.651087,-0.491745,-0.127017,-0.001913,-0.758781,-0.024103,0.078710,1.026819,-0.465160,0.001540,-1.025089,0.529836,-0.048652,0.522863,0.358196,1.246383,0.011158,-3.128023,-5.480525,1.822447,-2.231273,7.378742,2.280269,-5.855623,-0.331251,-0.889494,2.235996
0.160000,-0.815229,2.955741,0.320192,0.995730,0.056806,-0.004328,-0.072638,-0.140511,-0.381756,0.218584,0.592768,-0.470860,-0.092286,0.001317,-0.759760,-0.027242,0.067590,1.030365,-0.471723,0.014953,-1.021187,0.522564,-0.049526,0.521056,0.362593,1.614993,-0.489361,-1.569337,-5.559648,1.773109,-3.281098,6.706511,1.950935,-3.635690,-0.436954,-0.903504,2.198705
0.162000,-0.815510,2.955003,0.320620,0.995665,0.057722,-0.004821,-0.072771,-0.140454,-0.368822,0.214012,0.950452,-0.431926,-0.113462,0.004352,-0.761621,-0.027029,0.055704,1.033122,-0.475552,0.030081,-1.016000,0.510465,-0.049637,0.518971,0.367400,1.517570,-0.930817,0.106488,-5.942966,1.378570,-1.914481,7.563818,2.593506,-6.049396,-0.055409,-1.042314,2.403286
0.164000,-0.815798,2.954243,0.321007,0.995611,0.058493,-0.005263,-0.072865,-0.143635,-0.379925,0.193638,0.803058,-0.389740,-0.075804,0.007695,-0.763618,-0.025782,0.043903,1.036112,-0.483060,0.043612,-1.011468,0.502291,-0.050127,0.516841,0.372068,1.671324,-0.998175,0.623587,-5.900624,1.495284,-3.754046,6.765903,2.266019,-4.087050,-0.244848,-1.065200,2.334138
0.166000,-0.816089,2.953486,0.321379,0.995554,0.059290,-0.005685,-0.072971,-0.145812,-0.378961,0.185944,0.826476,-0.368557,-0.089288,0.010515,-0.765005,-0.025069,0.032263,1.038784,-0.488859,0.057517,-1.006228,0.491031,-0.050543,0.514681,0.376724,1.410018,-0.693642,0.356699,-5.819986,1.335722,-2.899861,6.952169,2.620140,-5.629974,-0.208193,-1.079666,2.328004
0.168000,-0.816384,2.952698,0.321719,0.995513,0.059831,-0.006096,-0.073058,-0.147206,-0.393845,0.170214,0.570523,-0.375528,-0.067816,0.013444,-0.765821,-0.025077,0.021369,1.041635,-0.495351,0.069845,-1.001711,0.482669,-0.051533,0.512743,0.380960,1.464707,-0.408237,-0.004247,-5.447263,1.425471,-3.245800,6.164393,2.258429,-4.181224,-0.495272,-0.968916,2.118274
0.170000,-0.816669,2.951908,0.322040,0.995477,0.060274,-0.006536,-0.073144,-0.142922,-0.395174,0.160341,0.474878,-0.410621,-0.065028,0.015704,-0.764966,-0.033256,0.010547,1.045045,-0.502360,0.082086,-0.997257,0.473088,-0.052703,0.511106,0.384793,1.129968,0.427696,-4.089480,-5.411092,1.705016,-3.504341,6.120132,2.227097,-4.790356,-0.584924,-0.818525,1.916115
0.172000,-0.816946,2.951126,0.322309,0.995432,0.060875,-0.006968,-0.073222,-0.138343,-0.390570,0.134230,0.632076,-0.391075,-0.058945,0.017599,-0.764508,-0.039078,-0.000415,1.048941,-0.509969,0.094377,-0.993408,0.465291,-0.053575,0.509532,0.388471,0.947209,0.229068,-2.911043,-5.480537,1.947973,-3.804646,6.145413,1.924491,-3.898396,-0.435830,-0.787050,1.839293
0.174000,-0.817219,2.950373,0.322537,0.995362,0.061839,-0.007347,-0.073324,-0.136644,-0.376849,0.114044,0.990762,-0.313738,-0.089840,0.019148,-0.765344,-0.037295,-0.011636,1.052651,-0.514794,0.108087,-0.988686,0.453502,-0.053678,0.507681,0.392466,0.774763,-0.418299,0.891522,-5.610944,1.855202,-2.412612,6.855195,2.360723,-5.894966,-0.051276,-0.925523,1.997299
0.176000,-0.817495,2.949596,0.322724,0.995300,0.062674,-0.007672,-0.073419,-0.137726,-0.388509,0.093671,0.858629,-0.269083,-0.085243,0.021104,-0.766399,-0.033938,-0.022037,1.056340,-0.519135,0.120844,-0.984128,0.442748,-0.054094,0.505830,0.396311,0.977956,-0.527318,1.678757,-5.200183,1.844437,-2.170411,6.378363,2.279066,-5.376804,-0.208417,-0.925745,1.922475
0.178000,-0.817785,2.948780,0.322910,0.995258,0.063171,-0.007924,-0.073539,-0.144962,-0.408072,0.093115,0.514538,-0.221577,-0.110329,0.023601,-0.766970,-0.031475,-0.030710,1.059010,-0.518912,0.132768,-0.978248,0.427096,-0.055199,0.503925,0.400104,1.248236,-0.285691,1.231169,-4.336706,1.334795,0.111612,5.962399,2.939902,-7.826047,-0.552289,-0.952552,1.896368
0.180000,-0.818082,2.947945,0.323083,0.995229,0.063498,-0.008177,-0.073624,-0.148682,-0.417143,0.086257,0.345277,-0.233638,-0.073970,0.026202,-0.767194,-0.029919,-0.039295,1.061565,-0.520966,0.143120,-0.972839,0.415041,-0.056705,0.502098,0.403706,1.300558,-0.111626,0.777974,-4.292495,1.277821,-1.027130,5.175719,2.704532,-6.027516,-0.752815,-0.913415,1.801003
0.182000,-0.818394,2.947102,0.323281,0.995206,0.063714,-0.008426,-0.073721,-0.155719,-0.421669,0.099242,0.233698,-0.237641,-0.083996,0.028855,-0.766893,-0.029385,-0.047236,1.062684,-0.519088,0.153208,-0.966041,0.398348,-0.058401,0.500197,0.407424,1.326510,0.150480,0.267250,-3.970171,0.559186,0.939110,5.043960,3.399214,-8.346223,-0.848060,-0.950666,1.859262
0.184000,-0.818701,2.946299,0.323486,0.995168,0.064207,-0.008763,-0.073764,-0.153516,-0.401548,0.102487,0.517697,-0.302863,-0.028648,0.029456,-0.764440,-0.041722,-0.056819,1.063522,-0.520009,0.163128,-0.959722,0.385129,-0.059529,0.498325,0.411205,0.300596,1.226606,-6.168709,-4.791795,0.418943,-0.460696,4.960062,3.159333,-6.609585,-0.564155,-0.935806,1.890476
0.186000,-0.819019,2.945511,0.323688,0.995112,0.064947,-0.009039,-0.073834,-0.159209,-0.393823,0.100909,0.759629,-0.224588,-0.062461,0.029860,-0.762802,-0.050043,-0.065804,1.062242,-0.514219,0.173714,-0.951632,0.366513,-0.060110,0.496052,0.415493,0.202205,0.818935,-4.160429,-4.492488,-0.639826,2.894959,5.293237,4.044945,-9.307901,-0.290627,-1.136436,2.143934
0.188000,-0.819343,2.944730,0.323826,0.995045,0.065898,-0.009223,-0.073882,-0.161781,-0.390562,0.068934,0.963741,-0.116651,-0.048638,0.030965,-0.763923,-0.045516,-0.075261,1.060601,-0.511420,0.183529,-0.943710,0.351375,-0.060326,0.493480,0.419964,0.552112,-0.560474,2.263548,-4.728644,-0.820290,1.399455,4.907198,3.961153,-7.569313,-0.107821,-1.286213,2.235771
0.190000,-0.819687,2.943861,0.323952,0.995024,0.066101,-0.009255,-0.073982,-0.172151,-0.434705,0.063057,0.204748,-0.023311,-0.101011,0.034386,-0.765364,-0.039173,-0.081330,1.057106,-0.502730,0.190875,-0.934058,0.330497,-0.062008,0.491250,0.423687,1.710807,-0.720633,3.171488,-3.034481,-1.747820,4.345369,3.673144,4.825821,-10.438926,-0.841205,-1.114694,1.861205
0.192000,-0.820056,2.942913,0.324076,0.995065,0.065328,-0.009097,-0.074123,-0.184355,-0.473917,0.061989,-0.784466,0.090361,-0.140999,0.039635,-0.765856,-0.034566,-0.085686,1.054030,-0.498934,0.195283,-0.922067,0.301243,-0.065526,0.489496,0.426349,2.624299,-0.246112,2.303655,-2.177670,-1.537955,1.897776,2.203936,5.995838,-14.626859,-1.758873,-0.877111,1.331128
0.194000,-0.820400,2.942025,0.324219,0.995061,0.065283,-0.009208,-0.074206,-0.172267,-0.443902,0.071424,-0.036988,-0.118938,-0.074640,0.043037,-0.766267,-0.031394,-0.091598,1.049221,-0.487381,0.199815,-0.912394,0.282646,-0.067532,0.488327,0.428675,1.701162,-0.205372,1.585700,-2.956176,-2.404551,5.776681,2.266077,4.836044,-9.298753,-1.002846,-0.584449,1.162775
0.196000,-0.820708,2.941255,0.324362,0.994988,0.066359,-0.009646,-0.074171,-0.153975,-0.384911,0.071781,1.107931,-0.354179,0.047572,0.043628,-0.766849,-0.029318,-0.102052,1.044767,-0.479185,0.205654,-0.906013,0.277589,-0.067330,0.487307,0.431327,0.295191,-0.290904,1.037904,-5.227191,-2.226817,4.097746,2.919566,3.190697,-2.528377,0.100932,-0.510049,1.326045
0.198000,-0.821027,2.940474,0.324559,0.994934,0.067103,-0.010078,-0.074179,-0.159441,-0.390596,0.098314,0.775788,-0.376258,0.009647,0.042904,-0.763477,-0.047886,-0.110577,1.038504,-0.464116,0.211620,-0.897057,0.260488,-0.067725,0.486170,0.434228,-0.361916,1.685687,-9.283868,-4.262337,-3.131404,7.534609,2.983044,4.477879,-8.550670,-0.197470,-0.568368,1.450622
0.200000,-0.821365,2.939677,0.324703,0.994895,0.067598,-0.010291,-0.074217,-0.168959,-0.398719,0.072068,0.510777,-0.177406,-0.031485,0.043152,-0.761319,-0.059724,-0.118211,1.032622,-0.455124,0.217278,-0.885935,0.234764,-0.068634,0.484399,0.437593,0.124152,1.079375,-5.918757,-3.816963,-2.940880,4.495982,2.828757,5.561028,-12.861962,-0.454495,-0.885432,1.682529
0.202000,-0.821738,2.938776,0.324775,0.994904,0.067373,-0.010181,-0.074325,-0.186361,-0.450176,0.035923,-0.233559,0.085587,-0.111432,0.046983,-0.762632,-0.052745,-0.121212,1.025075,-0.441700,0.220495,-0.872760,0.202516,-0.071108,0.482050,0.441189,1.915404,-0.656663,3.489333,-1.500685,-3.773710,6.711918,1.608593,6.587825,-16.123765,-1.237167,-1.174450,1.797893
0.204000,-0.822096,2.937885,0.324768,0.994898,0.067434,-0.010107,-0.074358,-0.179115,-0.445767,-0.003350,0.055690,0.075232,-0.038859,0.050323,-0.765307,-0.041785,-0.124719,1.017898,-0.431480,0.222267,-0.862479,0.183943,-0.073166,0.479727,0.444690,1.669886,-1.337341,5.479793,-1.753337,-3.588407,5.110123,0.885815,5.140123,-9.286329,-1.029181,-1.161832,1.750567
0.206000,-0.822448,2.936967,0.324760,0.994899,0.067380,-0.010134,-0.074391,-0.176200,-0.458714,-0.003921,-0.052428,-0.033170,-0.030930,0.053742,-0.767359,-0.033347,-0.126435,1.009251,-0.413296,0.222876,-0.853156,0.169239,-0.075504,0.477854,0.447759,1.709874,-1.026325,4.219255,-0.858106,-4.323803,9.092213,0.304424,4.661617,-7.351990,-1.168803,-0.936589,1.534522
0.208000,-0.822781,2.936096,0.324764,0.994882,0.067569,-0.010325,-0.074413,-0.166427,-0.435837,0.001933,0.203271,-0.177853,-0.012076,0.056320,-0.768804,-0.027320,-0.129856,1.001577,-0.399083,0.224399,-0.844094,0.153813,-0.077244,0.476541,0.450336,1.288861,-0.722259,3.013596,-1.710600,-3.836751,7.106059,0.761729,4.530945,-7.713318,-0.869854,-0.656125,1.288406
0.210000,-0.823114,2.935242,0.324814,0.994871,0.067611,-0.010572,-0.074485,-0.166491,-0.426647,0.024946,0.059822,-0.246683,-0.056119,0.056462,-0.765277,-0.046141,-0.132424,0.993223,-0.381198,0.226719,-0.832796,0.127249,-0.079108,0.475494,0.452722,0.071206,1.763403,-9.410731,-1.283860,-4.177239,8.942892,1.160102,5.649056,-13.282031,-0.932222,-0.523453,1.193197
0.212000,-0.823432,2.934449,0.324822,0.994825,0.068200,-0.010852,-0.074532,-0.158974,-0.396706,0.003912,0.609553,-0.238415,-0.037580,0.055915,-0.762935,-0.060184,-0.136843,0.985841,-0.368782,0.230202,-0.821873,0.102118,-0.079848,0.474249,0.455424,-0.273911,1.170706,-7.021122,-2.209391,-3.690764,6.207789,1.741465,5.461339,-12.565339,-0.369773,-0.622736,1.350738
0.214000,-0.823756,2.933635,0.324752,0.994769,0.068926,-0.011010,-0.074583,-0.161875,-0.407047,-0.035002,0.737449,-0.107021,-0.052053,0.056426,-0.763762,-0.058411,-0.139490,0.977354,-0.352190,0.232807,-0.811527,0.080949,-0.080419,0.472575,0.458477,0.255928,-0.413143,0.886319,-1.323613,-4.243778,8.295854,1.302207,5.173239,-10.584343,-0.285820,-0.836892,1.526760
0.216000,-0.824079,2.932790,0.324604,0.994721,0.069574,-0.011083,-0.074614,-0.161336,-0.422359,-0.073981,0.652691,-0.027331,-0.036862,0.057881,-0.766423,-0.048216,-0.141153,0.969183,-0.337668,0.233842,-0.802531,0.066387,-0.081289,0.470796,0.461435,0.727016,-1.330812,5.097482,-0.831208,-4.085382,7.261309,0.517657,4.498051,-7.281236,-0.434625,-0.889533,1.479002
0.218000,-0.824420,2.931836,0.324442,0.994737,0.069259,-0.011045,-0.074698,-0.170972,-0.476926,-0.080870,-0.318130,0.008289,-0.080926,0.061460,-0.768301,-0.040152,-0.138879,0.960228,-0.319222,0.231960,-0.792724,0.048193,-0.084186,0.469321,0.463745,1.789797,-0.938964,4.032181,1.136591,-4.477195,9.223007,-0.940713,4.903412,-9.096982,-1.448514,-0.737600,1.154818
0.220000,-0.824757,2.930884,0.324290,0.994759,0.068836,-0.011070,-0.074788,-0.168181,-0.475982,-0.076052,-0.421489,-0.062250,-0.081122,0.065180,-0.769704,-0.033911,-0.136874,0.952020,-0.303865,0.229993,-0.782564,0.026882,-0.087268,0.468129,0.465763,1.859772,-0.701581,3.120328,1.002903,-4.104102,7.678397,-0.983610,5.080000,-10.655504,-1.541128,-0.595964,1.008920
0.222000,-0.825079,2.929970,0.324167,0.994760,0.068724,-0.011264,-0.074853,-0.161069,-0.457360,-0.061770,-0.097400,-0.205497,-0.049972,0.068104,-0.770803,-0.029327,-0.135773,0.943684,-0.287334,0.228724,-0.773079,0.006130,-0.089691,0.467183,0.467755,1.462062,-0.549469,2.292056,0.550470,-4.168222,8.265324,-0.634483,4.742703,-10.375973,-1.211559,-0.472961,0.996071
0.224000,-0.825373,2.929155,0.324067,0.994702,0.069488,-0.011702,-0.074852,-0.147019,-0.407278,-0.050057,0.796223,-0.379032,0.017893,0.068980,-0.771961,-0.025812,-0.137835,0.935979,-0.273307,0.229530,-0.765154,-0.010314,-0.090297,0.466342,0.470037,0.437875,-0.578760,1.757548,-1.030993,-3.852195,7.013488,0.402835,3.962333,-8.222004,-0.302830,-0.420395,1.141121
0.226000,-0.825660,2.928355,0.323989,0.994632,0.070419,-0.012281,-0.074814,-0.143342,-0.400138,-0.038859,0.974657,-0.504443,0.062028,0.069339,-0.772728,-0.023804,-0.140033,0.928014,-0.257631,0.230232,-0.758512,-0.022923,-0.090603,0.465694,0.472284,0.179942,-0.383712,1.003823,-1.098980,-3.982914,7.838400,0.350813,3.320899,-6.304532,-0.153321,-0.324132,1.123412
0.228000,-0.825958,2.927523,0.323933,0.994587,0.070977,-0.012868,-0.074790,-0.149201,-0.415620,-0.027864,0.602511,-0.541094,0.054500,0.070386,-0.772797,-0.023336,-0.141137,0.920346,-0.243301,0.230084,-0.751157,-0.039003,-0.091675,0.465200,0.474309,0.523538,-0.034472,0.234065,-0.552242,-3.833883,7.164720,-0.073595,3.677352,-8.040029,-0.535679,-0.246973,1.012714
0.230000,-0.826270,2.926613,0.323891,0.994603,0.070686,-0.013418,-0.074758,-0.156038,-0.455212,-0.021113,-0.248585,-0.567000,0.076311,0.070934,-0.767955,-0.047641,-0.139598,0.912953,-0.230391,0.227158,-0.744033,-0.054835,-0.094559,0.465017,0.475748,0.273625,2.421065,-12.152314,0.769537,-3.696328,6.454923,-1.462944,3.562432,-7.915959,-1.442166,-0.091362,0.719565
0.232000,-0.826582,2.925744,0.323796,0.994582,0.070945,-0.013875,-0.074712,-0.156101,-0.434674,-0.047682,0.293967,-0.432051,0.072516,0.070616,-0.764769,-0.064170,-0.138407,0.905673,-0.218499,0.225314,-0.736853,-0.070265,-0.096356,0.464166,0.477941,-0.159011,1.593339,-8.264486,0.595380,-3.640097,5.946130,-0.922267,3.590063,-7.714789,-0.898258,-0.425582,1.096306
0.234000,-0.826882,2.924915,0.323584,0.994506,0.072025,-0.014204,-0.074621,-0.149984,-0.414570,-0.105929,1.105365,-0.240857,0.093331,0.070568,-0.767039,-0.054557,-0.137745,0.898685,-0.207999,0.224320,-0.731619,-0.077284,-0.096628,0.462522,0.480951,-0.023694,-1.135458,4.806401,0.331354,-3.493942,5.249843,-0.496866,2.616612,-3.509585,-0.136053,-0.822179,1.505008
0.236000,-0.827180,2.924075,0.323325,0.994424,0.073161,-0.014432,-0.074566,-0.149069,-0.419741,-0.129348,1.153317,-0.139354,0.048761,0.071081,-0.770625,-0.038684,-0.136083,0.891872,-0.196346,0.223603,-0.725630,-0.087974,-0.096804,0.460699,0.484041,0.256353,-1.792917,7.936504,0.830562,-3.406619,5.826635,-0.358583,2.994846,-5.344971,-0.088043,-0.911687,1.544984
0.238000,-0.827469,2.923151,0.323045,0.994394,0.073576,-0.014686,-0.074513,-0.144247,-0.461868,-0.140115,0.435003,-0.218051,0.062888,0.073084,-0.773555,-0.026261,-0.132408,0.886197,-0.186524,0.220439,-0.721203,-0.094768,-0.098562,0.459648,0.486005,1.001582,-1.464947,6.211232,1.837485,-2.837287,4.911147,-1.582045,2.213182,-3.397371,-0.878940,-0.525477,0.982100
0.240000,-0.827735,2.922157,0.322738,0.994411,0.073366,-0.015036,-0.074416,-0.133105,-0.497302,-0.153197,-0.183100,-0.355931,0.126908,0.076255,-0.775915,-0.017038,-0.127739,0.882635,-0.182804,0.214623,-0.720029,-0.092259,-0.101748,0.459541,0.486675,1.585585,-1.180026,4.611838,2.334857,-1.780996,1.860057,-2.908187,0.587280,1.254698,-1.592990,-0.053151,0.335090
0.242000,-0.827985,2.921216,0.322484,0.994402,0.073477,-0.015517,-0.074326,-0.124903,-0.470431,-0.127128,0.148132,-0.463716,0.122635,0.076045,-0.773269,-0.032578,-0.123816,0.879158,-0.175577,0.210190,-0.719920,-0.089202,-0.104158,0.459599,0.487434,-0.105271,1.323341,-7.770179,1.961357,-1.738742,3.613521,-2.216098,0.054484,1.528358,-1.205079,0.028680,0.379493
0.244000,-0.828216,2.920335,0.322255,0.994353,0.074123,-0.016064,-0.074230,-0.115545,-0.440273,-0.114585,0.688569,-0.489650,0.121842,0.075213,-0.771552,-0.044515,-0.121474,0.876619,-0.169722,0.207401,-0.720796,-0.085366,-0.105401,0.459439,0.488720,-0.416106,0.858034,-5.968765,1.170882,-1.269586,2.927093,-1.394558,-0.438110,1.918395,-0.621504,-0.079855,0.642600
0.246000,-0.828455,2.919515,0.322052,0.994260,0.075320,-0.016481,-0.074179,-0.119279,-0.410025,-0.101582,1.228902,-0.324030,0.055402,0.073817,-0.770728,-0.052532,-0.119831,0.873878,-0.161672,0.206212,-0.721513,-0.081742,-0.105376,0.458293,0.491346,-0.698006,0.412052,-4.008065,0.821661,-1.370282,4.025436,-0.594532,-0.358390,1.811668,0.012639,-0.572743,1.313295
0.248000,-0.828720,2.918724,0.321850,0.994141,0.076805,-0.016660,-0.074210,-0.132502,-0.395585,-0.101131,1.497724,-0.071844,-0.050917,0.072725,-0.771336,-0.051188,-0.117799,0.870597,-0.151313,0.205972,-0.721492,-0.078783,-0.104626,0.456066,0.495223,-0.545967,-0.303858,0.671854,1.015858,-1.640342,5.179341,-0.120115,0.010242,1.479620,0.374619,-1.113932,1.938244
0.250000,-0.829013,2.917858,0.321606,0.994087,0.077395,-0.016523,-0.074345,-0.146834,-0.433002,-0.122002,0.578820,0.168811,-0.158130,0.074328,-0.772304,-0.046572,-0.113830,0.869524,-0.151826,0.204087,-0.720413,-0.077098,-0.105637,0.453625,0.498823,0.801507,-0.484002,2.307802,1.984868,-0.536458,-0.256414,-0.942373,0.539812,0.842465,-0.505366,-1.220164,1.799988
0.252000,-0.829324,2.916947,0.321368,0.994071,0.077433,-0.016238,-0.074588,-0.155560,-0.455477,-0.118866,0.013093,0.266565,-0.265683,0.077339,-0.773085,-0.041992,-0.108010,0.868540,-0.151535,0.201312,-0.718703,-0.076280,-0.107646,0.451315,0.502047,1.505792,-0.390472,2.290312,2.909740,-0.492288,0.145265,-1.387827,0.855024,0.409200,-1.004521,-1.155148,1.611981
0.254000,-0.829621,2.916025,0.321137,0.994070,0.077208,-0.015967,-0.074893,-0.148238,-0.460948,-0.115473,-0.247985,0.229745,-0.320840,0.080980,-0.773817,-0.037802,-0.101917,0.868461,-0.152742,0.198236,-0.717213,-0.075443,-0.109988,0.449980,0.503932,1.820441,-0.365994,2.094987,3.046719,-0.039562,-0.603535,-1.537809,0.744579,0.418199,-1.170822,-0.667469,0.942574
0.256000,-0.829892,2.915163,0.320968,0.994027,0.077453,-0.015849,-0.075233,-0.135414,-0.431252,-0.084637,0.232366,0.108873,-0.354113,0.083633,-0.774603,-0.034091,-0.096963,0.867484,-0.146619,0.196425,-0.716339,-0.074118,-0.111088,0.449449,0.505078,1.326632,-0.392862,1.855127,2.476720,-0.488472,3.061576,-0.905359,0.437325,0.662701,-0.550128,-0.265470,0.572893
0.258000,-0.830120,2.914380,0.320822,0.993937,0.078299,-0.015961,-0.075521,-0.113920,-0.391352,-0.072935,0.851383,-0.072115,-0.297674,0.084863,-0.775707,-0.030770,-0.094919,0.867729,-0.144321,0.196102,-0.716938,-0.071303,-0.110930,0.449298,0.506141,0.614895,-0.552150,1.660478,1.022235,0.122389,1.148995,-0.161838,-0.299641,1.407485,0.078887,-0.075591,0.531761
0.260000,-0.830330,2.913631,0.320714,0.993831,0.079339,-0.016223,-0.075781,-0.105098,-0.374511,-0.054011,1.058354,-0.203518,-0.262099,0.085556,-0.776787,-0.028130,-0.094155,0.868316,-0.143161,0.196273,-0.718268,-0.067873,-0.110387,0.449225,0.507412,0.346475,-0.540099,1.320213,0.381740,0.293756,0.580123,0.085768,-0.665036,1.715033,0.271423,-0.036439,0.635352
0.262000,-0.830528,2.912852,0.320610,0.993754,0.080037,-0.016571,-0.075983,-0.099105,-0.389310,-0.051830,0.722166,-0.310376,-0.191043,0.086818,-0.777721,-0.026357,-0.093397,0.870026,-0.147842,0.195252,-0.721292,-0.062549,-0.110686,0.449426,0.508394,0.631011,-0.466790,0.886694,0.379012,0.855069,-2.340746,-0.510307,-1.511714,2.662067,-0.149142,0.100619,0.491222
0.264000,-0.830737,2.912026,0.320543,0.993707,0.080329,-0.016987,-0.076188,-0.104768,-0.413283,-0.033277,0.322033,-0.407968,-0.178018,0.088883,-0.778260,-0.025647,-0.091042,0.870644,-0.147925,0.193423,-0.724296,-0.057571,-0.111894,0.449776,0.509317,1.032217,-0.269464,0.354792,1.177831,0.308895,-0.041342,-0.914873,-1.502465,2.488827,-0.604000,0.175038,0.461183
0.266000,-0.830960,2.911151,0.320505,0.993695,0.080212,-0.017441,-0.076364,-0.111336,-0.437295,-0.019237,-0.083287,-0.474892,-0.137421,0.091719,-0.778446,-0.025851,-0.087342,0.870647,-0.146745,0.190538,-0.727745,-0.052329,-0.114052,0.450128,0.510295,1.418352,-0.093062,-0.102122,1.849785,0.001736,0.589830,-1.442264,-1.724065,2.620922,-1.079064,0.175664,0.489056
0.268000,-0.831200,2.910275,0.320513,0.993686,0.080080,-0.017926,-0.076512,-0.119801,-0.438025,0.003907,-0.095848,-0.503735,-0.107037,0.094505,-0.778379,-0.026592,-0.083334,0.869815,-0.143888,0.187665,-0.730951,-0.047532,-0.116274,0.450099,0.511897,1.392778,0.033369,-0.370391,2.003896,-0.416357,1.428631,-1.436827,-1.603183,2.398431,-1.111028,-0.014331,0.800986
0.270000,-0.831514,2.909226,0.320573,0.993771,0.078736,-0.018351,-0.076703,-0.156981,-0.524770,0.030100,-1.313541,-0.538846,-0.125406,0.099931,-0.777338,-0.028904,-0.071695,0.861468,-0.114610,0.181925,-0.733385,-0.043845,-0.121165,0.450164,0.513210,2.713032,0.520455,-1.155905,5.819640,-4.173364,14.639263,-2.869631,-1.216992,1.843747,-2.445752,0.032307,0.656703
0.272000,-0.831873,2.908152,0.320717,0.993843,0.077545,-0.018853,-0.076862,-0.179413,-0.536621,0.071824,-1.154019,-0.601431,-0.090455,0.105021,-0.775978,-0.031856,-0.057069,0.845522,-0.058381,0.176371,-0.735665,-0.040457,-0.125819,0.449687,0.515460,2.544906,0.680006,-1.476156,7.312855,-7.972784,28.114257,-2.777313,-1.139948,1.693972,-2.326608,-0.238101,1.124775
0.274000,-0.832253,2.907194,0.320853,0.993878,0.077002,-0.019227,-0.076860,-0.190280,-0.479103,0.068187,-0.512989,-0.412630,0.044061,0.108337,-0.775161,-0.033281,-0.046900,0.831228,-0.023005,0.172122,-0.737563,-0.037263,-0.129122,0.447866,0.519152,1.657944,0.408354,-0.712200,5.084677,-7.147157,17.687946,-2.124279,-0.948923,1.597126,-1.651669,-0.910452,1.846241
0.276000,-0.832615,2.906403,0.320970,0.993845,0.077497,-0.019534,-0.076712,-0.181156,-0.395499,0.058546,0.520547,-0.256889,0.158627,0.108857,-0.775352,-0.032002,-0.043056,0.821126,-0.011456,0.170117,-0.739463,-0.033787,-0.130056,0.445524,0.523221,0.260422,-0.095262,0.639247,1.921746,-5.051293,5.774702,-1.002550,-0.950226,1.737892,-0.467298,-1.170996,2.034210
0.278000,-0.832955,2.905706,0.321051,0.993795,0.078307,-0.019739,-0.076489,-0.169780,-0.348746,0.040223,0.829045,-0.124853,0.217915,0.108438,-0.776092,-0.029760,-0.043602,0.816289,-0.025131,0.168873,-0.741133,-0.030475,-0.129865,0.444019,0.524533,-0.209555,-0.370123,1.121152,-0.272602,-2.418212,-6.837853,-0.621933,-0.834793,1.655968,0.095509,-0.752879,0.656336
0.280000,-0.833293,2.904988,0.321114,0.993782,0.078654,-0.019862,-0.076267,-0.169151,-0.359011,0.031875,0.359515,-0.078441,0.222107,0.109002,-0.776516,-0.028042,-0.044350,0.813485,-0.047729,0.166696,-0.742380,-0.027786,-0.130426,0.443457,0.524220,0.281964,-0.211965,0.858691,-0.374449,-1.402050,-11.298741,-1.088562,-0.623713,1.344335,-0.280330,-0.281065,-0.156381
0.282000,-0.833642,2.904193,0.321233,0.993797,0.078570,-0.020059,-0.076108,-0.174192,-0.397540,0.059293,-0.065770,-0.189486,0.175673,0.110641,-0.776332,-0.027770,-0.041775,0.806538,-0.046543,0.163609,-0.743484,-0.025573,-0.131557,0.443251,0.526449,0.819535,0.092323,0.136119,1.287486,-3.473446,0.593194,-1.543449,-0.552147,1.106854,-0.565257,-0.103030,1.114153
0.284000,-0.833997,2.903309,0.321388,0.993849,0.077916,-0.020349,-0.076019,-0.177623,-0.442029,0.077759,-0.630621,-0.330154,0.128429,0.113619,-0.775571,-0.028990,-0.035554,0.795947,-0.021956,0.159331,-0.744587,-0.023699,-0.133952,0.443918,0.527373,1.488931,0.380500,-0.609896,3.110907,-5.295553,12.293453,-2.139014,-0.551242,0.936743,-1.197624,0.333641,0.462084
0.286000,-0.834344,2.902391,0.321562,0.993914,0.077055,-0.020714,-0.075952,-0.173419,-0.458622,0.086714,-0.831955,-0.421442,0.117394,0.117076,-0.774569,-0.031035,-0.028057,0.784098,0.015593,0.154641,-0.745844,-0.021862,-0.136862,0.444962,0.527713,1.728477,0.500845,-1.022658,3.748374,-5.924444,18.774556,-2.344995,-0.628707,0.918644,-1.454846,0.521850,0.169921
0.288000,-0.834680,2.901507,0.321682,0.993999,0.076049,-0.020874,-0.075809,-0.168361,-0.442120,0.060279,-0.990750,-0.222936,0.182747,0.120591,-0.773877,-0.032153,-0.023181,0.778187,0.026817,0.149600,-0.746635,-0.020446,-0.139638,0.444660,0.533681,1.757154,0.346000,-0.558619,2.438143,-2.955789,5.611905,-2.520572,-0.395516,0.707896,-1.388026,-0.150560,2.983921
0.290000,-0.834983,2.900696,0.321732,0.994077,0.075220,-0.020937,-0.075597,-0.151367,-0.405408,0.024625,-0.820792,-0.107871,0.237947,0.123379,-0.774052,-0.031865,-0.021565,0.778110,0.012953,0.145012,-0.747475,-0.018837,-0.141901,0.445162,0.536081,1.394236,-0.087333,0.143832,0.807868,-0.038078,-6.932023,-2.294208,-0.419810,0.804435,-1.131469,0.250769,1.200276
0.292000,-0.835251,2.899976,0.321799,0.994084,0.075302,-0.021182,-0.075357,-0.133931,-0.360238,0.033677,0.104564,-0.218609,0.256070,0.124134,-0.774864,-0.031107,-0.021512,0.776348,0.011216,0.142439,-0.749145,-0.016222,-0.142046,0.446749,0.534968,0.377317,-0.406128,0.379062,0.026669,-0.881433,-0.868827,-1.286243,-0.834763,1.307516,-0.072695,0.793603,-0.556548
0.294000,-0.835514,2.899290,0.321913,0.994039,0.076023,-0.021617,-0.075096,-0.131305,-0.342907,0.057118,0.758428,-0.359588,0.273333,0.123608,-0.775675,-0.030791,-0.020769,0.770056,0.034384,0.141199,-0.751487,-0.012862,-0.141131,0.447985,0.534603,-0.262653,-0.405454,0.157997,0.371100,-3.145574,11.584172,-0.619829,-1.171159,1.680154,0.457478,0.618031,-0.182683
0.296000,-0.835806,2.898543,0.322013,0.994043,0.076153,-0.021940,-0.074819,-0.146400,-0.373530,0.049684,0.158560,-0.289823,0.298074,0.124379,-0.775962,-0.031011,-0.017946,0.763385,0.058662,0.138587,-0.753348,-0.010094,-0.141815,0.448343,0.535090,0.385105,-0.143609,-0.110252,1.411573,-3.335503,12.138829,-1.306069,-0.930409,1.384091,-0.341971,0.178759,0.243862
0.298000,-0.836141,2.897706,0.322047,0.994146,0.075099,-0.021943,-0.074509,-0.167230,-0.418676,0.016989,-1.048265,-0.056079,0.338449,0.127608,-0.775636,-0.031386,-0.013349,0.760463,0.061862,0.133314,-0.754050,-0.008634,-0.145275,0.447748,0.536044,1.614806,0.163112,-0.187472,2.298577,-1.461209,1.600220,-2.636735,-0.351101,0.729985,-1.730001,-0.297206,0.476811
0.300000,-0.836498,2.896856,0.322052,0.994277,0.073757,-0.021798,-0.074148,-0.178305,-0.424675,0.002926,-1.347062,0.073333,0.387240,0.131392,-0.775089,-0.031628,-0.008421,0.758972,0.055473,0.127361,-0.754249,-0.007678,-0.149557,0.446213,0.537881,1.891701,0.273406,-0.121126,2.463932,-0.745401,-3.194309,-2.976289,-0.099526,0.477758,-2.141272,-0.767443,0.918334
0.302000,-0.836847,2.896093,0.322093,0.994337,0.073369,-0.021798,-0.073725,-0.174899,-0.381608,0.020405,-0.380811,0.003813,0.434225,0.133106,-0.774886,-0.031540,-0.004634,0.754409,0.062712,0.123423,-0.755067,-0.005896,-0.151960,0.443943,0.541002,0.857426,0.101296,0.044122,1.893645,-2.281779,3.619222,-1.969193,-0.409099,0.890883,-1.201346,-1.135394,1.560624
0.304000,-0.837177,2.895420,0.322164,0.994325,0.073942,-0.021965,-0.073262,-0.165048,-0.336478,0.035298,0.592868,-0.089481,0.458427,0.132766,-0.775053,-0.031171,-0.002216,0.747157,0.082673,0.121559,-0.756601,-0.003201,-0.152243,0.442056,0.543794,-0.170387,-0.083538,0.184377,1.209157,-3.625973,9.980730,-0.931686,-0.766780,1.347472,-0.141233,-0.943427,1.396057
0.306000,-0.837492,2.894782,0.322208,0.994303,0.074663,-0.022127,-0.072785,-0.157066,-0.318997,0.022232,0.741378,-0.073391,0.469307,0.132071,-0.775335,-0.030578,-0.000721,0.741160,0.096477,0.120068,-0.758251,-0.000320,-0.151973,0.441174,0.544389,-0.347216,-0.141076,0.296737,0.747502,-2.998497,6.901644,-0.745843,-0.825063,1.440906,0.134746,-0.440834,0.297635
0.308000,-0.837806,2.894109,0.322201,0.994328,0.074778,-0.022160,-0.072313,-0.157435,-0.336672,-0.003687,0.125472,0.010718,0.470997,0.132640,-0.775386,-0.030104,0.001326,0.738016,0.096509,0.117311,-0.759480,0.002051,-0.152922,0.440929,0.543771,0.284376,-0.025194,0.237011,1.023188,-1.571692,0.016184,-1.378554,-0.614530,1.185267,-0.474670,-0.122460,-0.309392
0.310000,-0.838130,2.893390,0.322181,0.994388,0.074438,-0.022114,-0.071856,-0.161989,-0.359104,-0.009903,-0.335744,0.057147,0.462358,0.134219,-0.775108,-0.030007,0.004752,0.735091,0.095691,0.113576,-0.760317,0.003904,-0.154525,0.440429,0.546652,0.789452,0.138765,0.048304,1.713156,-1.462652,-0.409115,-1.867096,-0.418622,0.926517,-0.801476,-0.250134,1.440841
0.312000,-0.838452,2.892661,0.322179,0.994443,0.074110,-0.022115,-0.071429,-0.160739,-0.364938,-0.001094,-0.321288,0.008350,0.436149,0.135854,-0.774663,-0.030336,0.009256,0.730037,0.106340,0.109896,-0.761210,0.005750,-0.155496,0.440483,0.550090,0.817586,0.222614,-0.164360,2.252133,-2.526765,5.324701,-1.840366,-0.446515,0.923136,-0.485272,0.026846,1.718985
0.314000,-0.838762,2.891929,0.322167,0.994499,0.073734,-0.022163,-0.071019,-0.155128,-0.365534,-0.006065,-0.365093,-0.042709,0.423692,0.137596,-0.774188,-0.030912,0.014168,0.724401,0.121361,0.106177,-0.762278,0.007731,-0.156530,0.441806,0.550178,0.870900,0.237315,-0.288117,2.455919,-2.818118,7.510214,-1.859481,-0.533807,0.990505,-0.517247,0.661810,0.044121
0.316000,-0.839064,2.891222,0.322126,0.994556,0.073381,-0.022176,-0.070575,-0.150946,-0.353566,-0.020414,-0.344264,-0.004688,0.454867,0.139182,-0.773838,-0.031193,0.018200,0.720457,0.128752,0.102523,-0.763352,0.009760,-0.157678,0.443243,0.549380,0.793126,0.175451,-0.140543,2.015818,-1.972094,3.695891,-1.826916,-0.537383,1.014404,-0.573615,0.718205,-0.399283
0.318000,-0.839362,2.890570,0.322068,0.994594,0.073381,-0.022167,-0.070054,-0.148960,-0.326217,-0.028981,0.008124,0.048162,0.519982,0.139848,-0.773859,-0.030767,0.020555,0.717864,0.129582,0.099575,-0.764538,0.012039,-0.158411,0.443530,0.549741,0.332894,-0.010504,0.212953,1.177347,-1.296418,0.414724,-1.473894,-0.592569,1.139399,-0.366455,0.143442,0.180772
0.320000,-0.839662,2.889959,0.322018,0.994604,0.073780,-0.022188,-0.069474,-0.150201,-0.305413,-0.024770,0.409591,0.050342,0.570562,0.139611,-0.774012,-0.030104,0.022029,0.714502,0.134149,0.097413,-0.765913,0.014611,-0.158627,0.442646,0.551544,-0.118391,-0.076566,0.331505,0.737432,-1.680946,2.283545,-1.080874,-0.687794,1.286203,-0.108407,-0.441939,0.901168
0.322000,-0.840034,2.889127,0.321978,0.994741,0.072553,-0.021885,-0.068896,-0.185671,-0.415969,-0.020477,-1.238196,0.261749,0.588431,0.145240,-0.775424,-0.022957,0.028146,0.709621,0.146639,0.091488,-0.765654,0.015076,-0.162957,0.440036,0.555095,2.814295,-0.706025,3.573900,3.058366,-2.440629,6.244894,-2.962697,0.129748,0.232317,-2.164701,-1.305071,1.775483
0.324000,-0.840444,2.888184,0.321952,0.994948,0.070424,-0.021383,-0.068277,-0.204892,-0.471687,-0.012654,-2.153828,0.401465,0.640152,0.153406,-0.776441,-0.018673,0.035785,0.705082,0.158298,0.083461,-0.764430,0.014246,-0.169613,0.436105,0.560006,4.083235,-0.508540,2.141651,3.819592,-2.269584,5.829604,-4.013293,0.612045,-0.415161,-3.328086,-1.965005,2.455494
0.326000,-0.840823,2.887284,0.321905,0.995137,0.068522,-0.020913,-0.067604,-0.189958,-0.449924,-0.023522,-1.923663,0.389290,0.690480,0.160662,-0.777941,-0.016359,0.041075,0.702486,0.163058,0.075962,-0.763571,0.013793,-0.175992,0.432228,0.564759,3.627976,-0.749994,1.157159,2.644818,-1.297947,2.380271,-3.749783,0.429293,-0.226157,-3.189475,-1.938594,2.376634
0.328000,-0.841143,2.886549,0.321857,0.995231,0.067965,-0.020621,-0.066869,-0.159913,-0.367555,-0.023851,-0.564637,0.305569,0.729622,0.163792,-0.779836,-0.016656,0.041481,0.700711,0.166252,0.071454,-0.763800,0.014744,-0.179006,0.429844,0.565533,1.564724,-0.947737,-0.148584,0.202837,-0.887246,1.596590,-2.253685,-0.114709,0.475423,-1.506872,-1.192047,0.387146
0.330000,-0.841347,2.885963,0.321737,0.995228,0.068601,-0.020585,-0.066261,-0.102017,-0.293152,-0.060154,0.642483,0.119313,0.588840,0.164903,-0.785402,-0.004797,0.038382,0.698996,0.174351,0.070026,-0.765669,0.017746,-0.177473,0.436973,0.535491,0.555742,-2.782682,5.929572,-1.549105,-0.857735,4.049747,-0.714004,-0.934456,1.500757,0.766285,3.564445,-15.020960
0.332000,-0.841575,2.885392,0.321640,0.995210,0.069620,-0.020480,-0.065496,-0.114018,-0.285138,-0.048538,1.024666,0.224391,0.732179,0.164412,-0.790845,0.005102,0.034305,0.696118,0.185091,0.069071,-0.767406,0.020704,-0.176945,0.437413,0.536211,-0.245463,-2.721856,4.949576,-2.038694,-1.439171,5.370168,-0.477499,-0.868522,1.479376,0.264044,0.220041,0.359652
0.334000,-0.841762,2.884634,0.321415,0.995319,0.068610,-0.020334,-0.064954,-0.093177,-0.379275,-0.112378,-1.011111,0.118827,0.556816,0.169457,-0.797619,0.018707,0.035269,0.694811,0.191450,0.064131,-0.768840,0.022856,-0.180630,0.445823,0.512861,2.522336,-3.386654,6.802460,0.481746,-0.653253,3.179051,-2.470285,-0.716703,1.075664,-1.842513,4.204807,-11.674636
0.336000,-0.841890,2.883731,0.321037,0.995526,0.065872,-0.020151,-0.064679,-0.064301,-0.451352,-0.189155,-2.746115,0.027673,0.330801,0.179619,-0.807163,0.042193,0.040859,0.694852,0.194042,0.055981,-0.770060,0.024462,-0.186993,0.464638,0.454363,5.081340,-4.772324,11.742767,2.795097,0.020215,1.296370,-4.074781,-0.609844,0.803149,-3.181253,9.407774,-29.249262
0.338000,-0.842051,2.882915,0.320722,0.995681,0.064013,-0.019912,-0.064222,-0.080132,-0.408116,-0.157607,-1.866610,0.151404,0.486813,0.185019,-0.814576,0.053510,0.044627,0.692563,0.201282,0.049435,-0.771076,0.026035,-0.192884,0.476682,0.426745,2.699601,-3.706109,5.658510,1.884035,-1.144068,3.619668,-3.273093,-0.508271,0.786245,-2.945551,6.021816,-13.809024
0.340000,-0.842254,2.882267,0.320499,0.995750,0.063750,-0.019592,-0.063519,-0.101601,-0.323744,-0.111429,-0.272842,0.347766,0.688617,0.183110,-0.818926,0.049998,0.044505,0.688003,0.211495,0.045955,-0.771852,0.027757,-0.196488,0.480704,0.431673,-0.954304,-2.175212,-1.755808,-0.060852,-2.280375,5.106770,-1.739999,-0.387927,0.861027,-1.802159,2.011008,2.463891
0.342000,-0.842409,2.881760,0.320184,0.995741,0.064646,-0.019156,-0.062885,-0.077606,-0.253462,-0.157578,0.877239,0.531086,0.586023,0.179754,-0.828290,0.070788,0.041813,0.683887,0.218073,0.045131,-0.772637,0.030165,-0.195975,0.488663,0.425989,-1.677998,-4.682067,10.394941,-1.346067,-2.057700,3.288714,-0.412025,-0.392749,1.204112,0.256668,3.979274,-2.841926
0.344000,-0.842532,2.881166,0.319765,0.995795,0.064362,-0.018655,-0.062461,-0.061322,-0.297219,-0.209200,-0.309923,0.510021,0.398009,0.179589,-0.838686,0.096244,0.042153,0.681149,0.220256,0.042188,-0.773046,0.032016,-0.196791,0.503756,0.396515,-0.082535,-5.197693,12.728027,0.170072,-1.369184,1.091868,-1.471303,-0.204353,0.925644,-0.408275,7.546964,-14.736860
0.346000,-0.842595,2.880429,0.319224,0.995939,0.062347,-0.018210,-0.062348,-0.031575,-0.368564,-0.270808,-2.041515,0.327208,0.130924,0.184442,-0.850568,0.125318,0.047204,0.679176,0.223811,0.036129,-0.773470,0.033473,-0.199687,0.529548,0.331123,2.426696,-5.941362,14.536879,2.525308,-0.986682,1.777544,-3.029802,-0.212163,0.728611,-1.447918,12.895998,-32.696054
0.348000,-0.842701,2.879689,0.318751,0.996082,0.060447,-0.017697,-0.062071,-0.053248,-0.369872,-0.236218,-1.927625,0.411904,0.287065,0.186626,-0.859567,0.137479,0.052167,0.675284,0.232977,0.030008,-0.773522,0.034454,-0.204294,0.548239,0.296608,1.091710,-4.499449,6.080726,2.481527,-1.945810,4.582954,-3.060326,-0.025721,0.490194,-2.303589,9.345188,-17.257444
0.350000,-0.842808,2.879066,0.318276,0.996162,0.059721,-0.017061,-0.061670,-0.053338,-0.311528,-0.237449,-0.760276,0.613800,0.378437,0.185801,-0.870493,0.156335,0.054124,0.671111,0.240977,0.026186,-0.773478,0.035807,-0.206981,0.563023,0.280588,-0.412138,-5.463011,9.427944,0.978405,-2.086647,3.999619,-1.911046,0.021905,0.676727,-1.343349,7.391992,-8.009838
0.352000,-0.842911,2.878499,0.317779,0.996223,0.059366,-0.016338,-0.061229,-0.051541,-0.283395,-0.248557,-0.394988,0.725618,0.406889,0.183467,-0.881803,0.175158,0.054575,0.667956,0.243871,0.023138,-0.773289,0.037221,-0.208920,0.576731,0.269123,-1.167280,-5.655110,9.411363,0.225525,-1.577215,1.447145,-1.523852,0.094452,0.706964,-0.969601,6.854246,-5.732605
0.354000,-0.842954,2.877962,0.317177,0.996274,0.058933,-0.015678,-0.060987,-0.021636,-0.268379,-0.301173,-0.470749,0.646677,0.211587,0.182805,-0.896225,0.206562,0.055072,0.665882,0.246395,0.020361,-0.773545,0.039270,-0.208658,0.598239,0.228129,-0.330823,-7.210692,15.701999,0.248831,-1.037347,1.261866,-1.388514,-0.128044,1.024394,0.130960,10.753769,-20.497197
0.356000,-0.842984,2.877373,0.316541,0.996363,0.057708,-0.015102,-0.060855,-0.015062,-0.294915,-0.317935,-1.258574,0.508512,0.121972,0.183353,-0.909501,0.229709,0.057427,0.663592,0.253182,0.016153,-0.773960,0.041234,-0.209288,0.623388,0.171494,0.273665,-6.638068,11.573601,1.177590,-1.144927,3.393895,-2.104167,-0.207308,0.981860,-0.315046,12.574461,-28.317470
0.358000,-0.843031,2.876788,0.315890,0.996453,0.056489,-0.014447,-0.060682,-0.023319,-0.292301,-0.325534,-1.256476,0.589490,0.158843,0.183518,-0.922937,0.252494,0.059770,0.660898,0.261310,0.011886,-0.774139,0.043053,-0.210325,0.646637,0.120853,0.082501,-6.717930,11.392484,1.171353,-1.346804,4.063609,-2.133625,-0.089576,0.909641,-0.518162,11.624789,-25.320517
0.360000,-0.843136,2.876224,0.315274,0.996537,0.055634,-0.013565,-0.060293,-0.052499,-0.281757,-0.307808,-0.905088,0.850534,0.354730,0.181406,-0.935098,0.269985,0.060913,0.658007,0.266213,0.007969,-0.773546,0.044265,-0.213009,0.661701,0.100380,-1.055862,-6.080797,8.745637,0.571396,-1.445526,2.451477,-1.958283,0.296355,0.606227,-1.341990,7.532053,-10.236452
0.362000,-0.843248,2.875712,0.314614,0.996601,0.055130,-0.012576,-0.059906,-0.056100,-0.256176,-0.330210,-0.560741,0.977668,0.341736,0.178797,-0.948447,0.295224,0.061088,0.655563,0.268763,0.004828,-0.772736,0.045584,-0.214369,0.676659,0.076941,-1.304237,-6.674542,12.619318,0.087395,-1.222119,1.275217,-1.570541,0.405351,0.659541,-0.680147,7.478725,-11.719318
0.364000,-0.843360,2.875180,0.313914,0.996682,0.054206,-0.011597,-0.059599,-0.056085,-0.265997,-0.350188,-0.979602,0.938321,0.268572,0.177042,-0.961344,0.319247,0.062300,0.653091,0.273218,0.000989,-0.771911,0.046867,-0.215684,0.693904,0.040973,-0.877751,-6.448509,12.011700,0.606341,-1.236113,2.227722,-1.919682,0.412297,0.641282,-0.657751,8.622433,-17.984057
0.366000,-0.843458,2.874678,0.313168,0.996755,0.053280,-0.010666,-0.059392,-0.048566,-0.250895,-0.372889,-0.979826,0.884815,0.170972,0.175131,-0.974243,0.344091,0.063586,0.650513,0.280245,-0.002608,-0.771320,0.048506,-0.215172,0.714559,-0.011592,-0.955273,-6.449221,12.422131,0.643012,-1.288580,3.513425,-1.798202,0.295718,0.819694,0.256158,10.327563,-26.282423
0.368000,-0.843577,2.874191,0.312434,0.996821,0.052567,-0.009622,-0.059086,-0.059967,-0.243614,-0.366756,-0.772888,1.014833,0.260955,0.171694,-0.986032,0.364288,0.064226,0.647834,0.286193,-0.005949,-0.770412,0.049930,-0.215322,0.731261,-0.048237,-1.718904,-5.894500,10.098050,0.319522,-1.339645,2.973672,-1.670596,0.453939,0.711986,-0.075090,8.350849,-18.322787
0.370000,-0.843708,2.873756,0.311698,0.996864,0.052372,-0.008470,-0.058711,-0.065304,-0.217715,-0.368233,-0.261549,1.156755,0.317090,0.166253,-0.997388,0.383892,0.063526,0.645286,0.290237,-0.008324,-0.769297,0.051399,-0.214697,0.745373,-0.073962,-2.720527,-5.677975,9.802151,-0.349890,-1.273901,2.022372,-1.187359,0.557239,0.734199,0.312775,7.056176,-12.862406
0.372000,-0.843844,2.873275,0.310931,0.996929,0.051717,-0.007265,-0.058361,-0.068200,-0.240294,-0.383600,-0.724087,1.181576,0.295833,0.162047,-1.008417,0.403008,0.064013,0.643055,0.293550,-0.011644,-0.767991,0.052617,-0.215131,0.759402,-0.099029,-2.102945,-5.514686,9.557886,0.243499,-1.115751,1.656231,-1.660043,0.653187,0.608963,-0.217331,7.014630,-12.533657
0.374000,-0.843969,2.872811,0.310127,0.996987,0.051025,-0.006087,-0.058098,-0.062264,-0.232179,-0.401656,-0.759492,1.148485,0.209411,0.157752,-1.019101,0.422254,0.064846,0.640641,0.299215,-0.014849,-0.766822,0.054060,-0.213870,0.775995,-0.135589,-2.147559,-5.341824,9.623323,0.416770,-1.206728,2.832398,-1.602592,0.584302,0.721553,0.630638,8.296221,-18.279593
0.376000,-0.844093,2.872332,0.309295,0.997052,0.050138,-0.004880,-0.057869,-0.061973,-0.239383,-0.415996,-0.956257,1.163307,0.176360,0.154007,-1.029524,0.441697,0.066296,0.638308,0.305152,-0.018409,-0.765594,0.055465,-0.212424,0.793074,-0.174091,-1.872338,-5.211661,9.721337,0.724608,-1.166752,2.968522,-1.780145,0.614037,0.702435,0.723073,8.539878,-19.250999
0.378000,-0.844220,2.871927,0.308463,0.997085,0.049934,-0.003565,-0.057584,-0.063693,-0.202279,-0.416255,-0.279698,1.313832,0.220363,0.146998,-1.038671,0.457274,0.066660,0.636941,0.307468,-0.020618,-0.764174,0.056966,-0.209120,0.808195,-0.204120,-3.504211,-4.573559,7.788321,0.182067,-0.683573,1.158023,-1.104519,0.709836,0.750889,1.651929,7.560276,-15.014925
0.380000,-0.844354,2.871515,0.307622,0.997116,0.049750,-0.002180,-0.057278,-0.066790,-0.206020,-0.420671,-0.263400,1.385736,0.238774,0.139791,-1.047385,0.472393,0.067310,0.636628,0.306592,-0.022863,-0.762579,0.058348,-0.206056,0.821807,-0.227277,-3.603753,-4.356798,7.559617,0.325343,-0.156545,-0.437902,-1.122287,0.797606,0.690794,1.532157,6.806068,-11.578175
0.382000,-0.844488,2.871162,0.306801,0.997115,0.050166,-0.000813,-0.056965,-0.066925,-0.176450,-0.410320,0.336762,1.402733,0.242833,0.129910,-1.054676,0.483134,0.066990,0.636741,0.304045,-0.023870,-0.761138,0.060056,-0.200823,0.834791,-0.249004,-4.940216,-3.645648,5.370519,-0.160153,0.056722,-1.273394,-0.503412,0.720784,0.854012,2.616250,6.491997,-10.863562
0.384000,-0.844622,2.870750,0.305984,0.997128,0.050169,0.000437,-0.056731,-0.067237,-0.206029,-0.408595,-0.068727,1.258351,0.171625,0.122375,-1.062088,0.496409,0.067870,0.637565,0.300169,-0.025676,-0.759981,0.061875,-0.195822,0.848993,-0.277721,-3.767509,-3.706040,6.637793,0.439763,0.411781,-1.938074,-0.903402,0.578527,0.909718,2.500392,7.100998,-14.358300
0.386000,-0.844764,2.870362,0.305232,0.997117,0.050628,0.001562,-0.056502,-0.071023,-0.194184,-0.375729,0.393907,1.159114,0.171055,0.112947,-1.067788,0.504306,0.068025,0.638258,0.296273,-0.026586,-0.759153,0.064009,-0.189334,0.862349,-0.304889,-4.714236,-2.850091,3.948294,0.077776,0.346649,-1.947893,-0.455081,0.413994,1.066954,3.244255,6.677999,-13.584452
0.388000,-0.844923,2.869907,0.304526,0.997116,0.050823,0.002579,-0.056299,-0.079323,-0.227764,-0.353063,0.137174,1.035644,0.151906,0.105562,-1.073426,0.514842,0.068983,0.639109,0.292050,-0.028136,-0.758472,0.066083,-0.183896,0.874798,-0.329913,-3.692593,-2.818672,5.267789,0.478747,0.425715,-2.111610,-0.774832,0.340396,1.036840,2.719170,6.224366,-12.511775
0.390000,-0.845102,2.869493,0.303912,0.997081,0.051731,0.003531,-0.056049,-0.089720,-0.206753,-0.306836,0.852993,1.013320,0.201305,0.094844,-1.076681,0.518140,0.068584,0.639420,0.288333,-0.028360,-0.757868,0.068275,-0.177111,0.884641,-0.346041,-5.358766,-1.627624,1.649390,-0.199126,0.155463,-1.858587,-0.112071,0.301999,1.096099,3.392124,4.921522,-8.064202
0.392000,-0.845307,2.869169,0.303411,0.996989,0.053707,0.004445,-0.055753,-0.102078,-0.162255,-0.250524,1.922880,1.037013,0.249704,0.078350,-1.076061,0.509623,0.066051,0.638910,0.285511,-0.026486,-0.757208,0.070555,-0.167358,0.891865,-0.354382,-8.247320,0.309883,-4.258529,-1.266743,-0.254901,-1.410865,0.937131,0.329772,1.139946,4.876833,3.611867,-4.170333
0.394000,-0.845538,2.868716,0.302931,0.996938,0.054756,0.005268,-0.055577,-0.115483,-0.226364,-0.240012,1.001438,0.889233,0.132343,0.066813,-1.075937,0.511121,0.065749,0.638799,0.282361,-0.026488,-0.756386,0.072338,-0.158598,0.900451,-0.373368,-5.768401,0.062168,0.748923,-0.150995,-0.055659,-1.575125,-0.001102,0.411331,0.891500,4.379890,4.293096,-9.493012
0.396000,-0.845789,2.868057,0.302442,0.996964,0.054234,0.005975,-0.055543,-0.125725,-0.329212,-0.244440,-0.561450,0.677065,-0.005458,0.063905,-1.078426,0.529233,0.069041,0.639448,0.278578,-0.029714,-0.755487,0.073523,-0.152820,0.911153,-0.404638,-1.454128,-1.244714,9.055815,1.645925,0.324340,-1.891369,-1.612782,0.449255,0.592235,2.888733,5.350880,-15.634932
0.398000,-0.846049,2.867451,0.302066,0.996952,0.054505,0.006620,-0.055433,-0.130045,-0.303223,-0.188153,0.234347,0.664472,0.075493,0.056104,-1.078014,0.532670,0.070670,0.639301,0.275932,-0.031475,-0.754674,0.074761,-0.145702,0.919032,-0.422967,-3.900459,0.206065,1.718511,0.814453,-0.073525,-1.323265,-0.880441,0.406693,0.619194,3.559403,3.939728,-9.164368
0.400000,-0.846308,2.866896,0.301778,0.996898,0.055573,0.007177,-0.055276,-0.129368,-0.277565,-0.144130,1.035927,0.623732,0.130147,0.044570,-1.076299,0.526795,0.070655,0.638456,0.274457,-0.031721,-0.754130,0.076294,-0.137032,0.925112,-0.432083,-5.767011,0.857524,-2.937340,-0.007240,-0.422377,-0.737293,-0.123043,0.271690,0.766703,4.334703,3.039881,-4.558097
0.402000,-0.846568,2.866467,0.301594,0.996763,0.058070,0.007681,-0.055075,-0.130332,-0.214588,-0.091938,2.467780,0.652749,0.182731,0.026342,-1.071928,0.509284,0.067669,0.636573,0.274532,-0.029105,-0.753774,0.078276,-0.124407,0.929242,-0.432221,-9.113768,2.185465,-8.755598,-1.492991,-0.941754,0.037507,1.307651,0.178382,0.990934,6.312623,2.065182,-0.068879
0.404000,-0.846846,2.866043,0.301486,0.996603,0.060833,0.008142,-0.054908,-0.138841,-0.211809,-0.053926,2.736549,0.622372,0.151896,0.006138,-1.065239,0.487042,0.064238,0.634239,0.275430,-0.025958,-0.753268,0.080054,-0.109953,0.932857,-0.431889,-10.102261,3.344694,-11.120947,-1.715612,-1.166816,0.449196,1.573490,0.252912,0.888785,7.227127,1.807531,0.165722
0.406000,-0.847148,2.865374,0.301352,0.996553,0.061596,0.008506,-0.054917,-0.150821,-0.334684,-0.067257,0.744045,0.404753,-0.027218,-0.004151,-1.061063,0.484012,0.065317,0.632815,0.275639,-0.026875,-0.752509,0.080963,-0.098662,0.939507,-0.448613,-5.144385,2.088191,-1.514802,0.539339,-0.711932,0.104179,-0.458244,0.379411,0.454504,5.645407,3.325031,-8.361721
0.408000,-0.847465,2.864476,0.301187,0.996603,0.060628,0.008775,-0.055051,-0.158625,-0.448787,-0.082159,-0.982159,0.205498,-0.155639,-0.005190,-1.060314,0.500682,0.070286,0.632177,0.275283,-0.031392,-0.751676,0.081257,-0.090962,0.948195,-0.476046,-0.519591,0.374438,8.334917,2.484894,-0.319062,-0.178080,-2.258588,0.416747,0.146950,3.849886,4.344067,-13.716898
0.410000,-0.847779,2.863644,0.301134,0.996605,0.060543,0.008984,-0.055074,-0.157022,-0.416228,-0.026717,-0.095687,0.202327,-0.036923,-0.012402,-1.056237,0.497896,0.073275,0.630647,0.276309,-0.034281,-0.751039,0.081717,-0.082660,0.953448,-0.485364,-3.605596,2.038334,-1.392908,1.494297,-0.764988,0.513461,-1.444268,0.318045,0.230248,4.151286,2.626501,-4.658850
0.412000,-0.848078,2.862935,0.301172,0.996528,0.061833,0.009100,-0.055016,-0.149581,-0.354221,0.018984,1.283338,0.190735,0.058616,-0.026650,-1.049919,0.479266,0.073278,0.628127,0.279004,-0.034445,-0.750888,0.082867,-0.071742,0.956337,-0.482670,-7.124444,3.159059,-9.315335,0.001300,-1.260050,1.347235,-0.082349,0.075584,0.574955,5.458693,1.444539,1.347015
0.414000,-0.848369,2.862358,0.301281,0.996360,0.064544,0.009142,-0.054938,-0.145401,-0.288430,0.054512,2.708488,0.197522,0.090542,-0.046888,-1.041887,0.453221,0.070296,0.624687,0.283272,-0.031702,-0.751119,0.084742,-0.056825,0.957932,-0.474896,-10.118735,4.016149,-13.022449,-1.490605,-1.720114,2.134130,1.371614,-0.115330,0.937600,7.458648,0.797035,3.887014
0.416000,-0.848666,2.861652,0.301356,0.996242,0.066296,0.009069,-0.054996,-0.148638,-0.353296,0.037409,1.758644,0.021097,-0.043846,-0.061000,-1.036642,0.445240,0.069545,0.621729,0.287500,-0.030861,-0.751506,0.086538,-0.042561,0.962112,-0.483166,-7.056207,2.622196,-3.990411,-0.375449,-1.478766,2.113773,0.420391,-0.193620,0.898073,7.132163,2.090312,-4.134891
0.418000,-0.848973,2.860762,0.301413,0.996220,0.066538,0.008907,-0.055132,-0.153165,-0.444996,0.028642,0.251815,-0.156836,-0.123400,-0.069142,-1.032516,0.444909,0.072086,0.619435,0.291289,-0.033154,-0.751836,0.087736,-0.031652,0.967751,-0.499604,-4.071014,2.063192,-0.165368,1.270065,-1.147192,1.894496,-1.146463,-0.164993,0.598861,5.454228,2.819184,-8.219220
0.420000,-0.849277,2.859781,0.301491,0.996248,0.066040,0.008694,-0.055256,-0.152355,-0.490124,0.038791,-0.484738,-0.247863,-0.112225,-0.076362,-1.027350,0.437830,0.076126,0.617369,0.295001,-0.037035,-0.752129,0.088496,-0.023332,0.973046,-0.512552,-3.609847,2.582882,-3.539870,2.020280,-1.032944,1.855990,-1.940479,-0.146304,0.380097,4.160031,2.647602,-6.473798
0.422000,-0.849575,2.858836,0.301598,0.996247,0.066010,0.008492,-0.055343,-0.149054,-0.472593,0.053858,-0.018197,-0.208834,-0.073797,-0.086331,-1.021500,0.425549,0.079145,0.615007,0.299096,-0.040010,-0.752423,0.089327,-0.014705,0.976911,-0.516639,-4.984246,2.924958,-6.140291,1.509162,-1.180733,2.047569,-1.487390,-0.146999,0.415093,4.313428,1.932584,-2.043368
0.424000,-0.849865,2.858023,0.301741,0.996157,0.067307,0.008340,-0.055419,-0.144882,-0.406429,0.071561,1.307485,-0.083942,-0.059671,-0.101366,-1.014928,0.410588,0.079375,0.612017,0.303920,-0.040218,-0.752696,0.090573,-0.002374,0.979533,-0.513787,-7.517514,3.285959,-7.480738,0.115448,-1.495282,2.411858,-0.103787,-0.136695,0.623307,6.165558,1.310835,1.425781
0.426000,-0.850151,2.857217,0.301863,0.996056,0.068696,0.008208,-0.055547,-0.142973,-0.403281,0.060975,1.398298,-0.062185,-0.112809,-0.115958,-1.009417,0.401911,0.079477,0.609166,0.308563,-0.040160,-0.752906,0.091873,0.011433,0.982970,-0.516590,-7.296136,2.755540,-4.338458,0.050571,-1.425573,2.321844,0.028556,-0.105086,0.650083,6.903408,1.718571,-1.401656
0.428000,-0.850436,2.856299,0.301937,0.996024,0.069029,0.008067,-0.055729,-0.142271,-0.459165,0.036905,0.344027,-0.134379,-0.170379,-0.126256,-1.005424,0.399787,0.081829,0.607050,0.312288,-0.042239,-0.753016,0.092782,0.023436,0.987936,-0.528772,-5.148906,1.996387,-1.061947,1.176267,-1.057584,1.862577,-1.039038,-0.054771,0.454333,6.001453,2.483344,-6.090773
0.430000,-0.850721,2.855283,0.302020,0.996062,0.068375,0.007938,-0.055870,-0.142847,-0.508000,0.041612,-0.645698,-0.175094,-0.134924,-0.134760,-1.000033,0.387700,0.086105,0.605384,0.315324,-0.046407,-0.752864,0.092957,0.031994,0.991998,-0.536815,-4.252256,2.695434,-6.043434,2.137771,-0.833029,1.517583,-2.084058,0.076160,0.087600,4.279357,2.030860,-4.021678
0.432000,-0.851006,2.854275,0.302116,0.996096,0.067810,0.007856,-0.055978,-0.142153,-0.503815,0.047793,-0.560393,-0.120572,-0.104094,-0.143980,-0.994089,0.371738,0.090114,0.603685,0.318214,-0.050416,-0.752542,0.092948,0.040030,0.994632,-0.538575,-4.609957,2.972380,-7.981117,2.004599,-0.849747,1.445181,-2.004733,0.160783,-0.004511,4.017785,1.316760,-0.879635
0.434000,-0.851294,2.853341,0.302249,0.996083,0.067950,0.007853,-0.056043,-0.144195,-0.467009,0.066737,0.141003,0.000033,-0.064005,-0.155872,-0.986766,0.350797,0.092563,0.601564,0.321381,-0.052979,-0.751970,0.092881,0.049033,0.994771,-0.530081,-5.946049,3.661513,-10.470152,1.224432,-1.060503,1.583288,-1.281187,0.286071,-0.033413,4.501699,0.069922,4.246601
0.436000,-0.851583,2.852457,0.302366,0.996034,0.068557,0.007878,-0.056160,-0.144562,-0.442081,0.058365,0.608290,0.051911,-0.116319,-0.167616,-0.980381,0.338577,0.094081,0.599381,0.324594,-0.054468,-0.751374,0.093070,0.060570,0.995150,-0.527398,-5.871963,3.192321,-6.110289,0.759072,-1.091313,1.606615,-0.744595,0.298031,0.094360,5.768375,0.189459,1.341529
0.438000,-0.851876,2.851551,0.302489,0.996003,0.068908,0.007896,-0.056277,-0.146527,-0.453067,0.061389,0.350892,0.029162,-0.117071,-0.178030,-0.973176,0.325183,0.096056,0.597347,0.327645,-0.056463,-0.750728,0.093088,0.071381,0.994823,-0.524738,-5.206859,3.602762,-6.697048,0.987788,-1.017166,1.525840,-0.997889,0.322987,0.009175,5.405318,-0.163509,1.330068
0.440000,-0.852165,2.850598,0.302595,0.996006,0.068753,0.007856,-0.056417,-0.144196,-0.476134,0.053109,-0.151110,-0.057978,-0.137285,-0.185891,-0.965938,0.313271,0.099016,0.595698,0.330412,-0.059452,-0.750248,0.093087,0.081359,0.995112,-0.527425,-3.930797,3.618681,-5.955916,1.479720,-0.824482,1.383077,-1.494270,0.239800,-0.000716,4.988977,0.144532,-1.343333
0.442000,-0.852454,2.849583,0.302731,0.996058,0.067944,0.007779,-0.056486,-0.144594,-0.507622,0.068048,-0.804447,-0.127023,-0.066957,-0.192154,-0.956551,0.290802,0.103110,0.594316,0.332877,-0.063866,-0.749763,0.092665,0.087644,0.993367,-0.520884,-3.131188,4.693412,-11.234416,2.047116,-0.690783,1.232637,-2.207149,0.242419,-0.211127,3.142729,-0.872789,3.270340
0.444000,-0.852734,2.848606,0.302866,0.996085,0.067495,0.007668,-0.056562,-0.140103,-0.488559,0.067354,-0.441982,-0.141282,-0.070810,-0.198267,-0.947312,0.271268,0.106346,0.593043,0.335344,-0.067496,-0.749519,0.092608,0.094788,0.991213,-0.513885,-3.056452,4.619632,-9.766936,1.617884,-0.636883,1.233339,-1.814801,0.122188,-0.028309,3.571749,-1.076960,3.499753
0.446000,-0.853013,2.847668,0.303022,0.996088,0.067441,0.007544,-0.056605,-0.139396,-0.468871,0.078083,-0.046663,-0.130191,-0.034243,-0.204789,-0.937308,0.250442,0.108607,0.591698,0.337927,-0.070333,-0.749389,0.092746,0.101636,0.987076,-0.499453,-3.261251,5.002083,-10.413023,1.130723,-0.672509,1.291739,-1.418641,0.065049,0.068676,3.423986,-2.068459,7.215714
0.448000,-0.853280,2.846782,0.303157,0.996058,0.067831,0.007349,-0.056693,-0.133357,-0.443096,0.067346,0.402357,-0.177152,-0.073536,-0.210946,-0.928184,0.236491,0.109891,0.590475,0.340650,-0.072154,-0.749669,0.093515,0.110685,0.983860,-0.492631,-3.078595,4.561998,-6.975684,0.641977,-0.611072,1.361468,-0.910451,-0.140071,0.384801,4.524757,-1.608135,3.411050
0.450000,-0.853546,2.845866,0.303305,0.996054,0.067881,0.007093,-0.056735,-0.133454,-0.457937,0.074197,0.064354,-0.255032,-0.024501,-0.215813,-0.917788,0.216811,0.111750,0.589254,0.343534,-0.074720,-0.750106,0.094212,0.117443,0.979408,-0.481998,-2.433234,5.197879,-9.839674,0.929562,-0.610906,1.442232,-1.282992,-0.218737,0.348521,3.378805,-2.225706,5.316667
0.452000,-0.853806,2.844946,0.303441,0.996058,0.067815,0.006767,-0.056783,-0.129525,-0.460298,0.067723,-0.046694,-0.332111,-0.025778,-0.219471,-0.907401,0.197685,0.113777,0.588162,0.346499,-0.077489,-0.750826,0.095136,0.123902,0.975417,-0.475053,-1.829303,5.193424,-9.563304,1.013385,-0.545840,1.482304,-1.384429,-0.359970,0.461955,3.229455,-1.995560,3.472447
0.454000,-0.854073,2.843977,0.303595,0.996097,0.067289,0.006439,-0.056766,-0.133971,-0.484216,0.077000,-0.507651,-0.355283,0.038210,-0.221611,-0.895808,0.172733,0.116653,0.587042,0.349423,-0.081291,-0.751408,0.095648,0.126905,0.969296,-0.459277,-1.069514,5.796494,-12.475632,1.437763,-0.560093,1.462214,-1.901132,-0.290622,0.256083,1.501536,-3.060401,7.888156
0.456000,-0.854337,2.843051,0.303731,0.996108,0.067148,0.006106,-0.056775,-0.131670,-0.462913,0.068322,-0.122817,-0.340852,0.013032,-0.223655,-0.885101,0.153568,0.118698,0.586006,0.352286,-0.084237,-0.752101,0.096484,0.131148,0.963397,-0.446508,-1.022241,5.353565,-9.582528,1.022783,-0.518103,1.431203,-1.472879,-0.346697,0.418029,2.121817,-2.949502,6.384280
0.458000,-0.854606,2.842139,0.303875,0.996113,0.067120,0.005792,-0.056755,-0.134651,-0.455979,0.072058,-0.010499,-0.312739,0.040814,-0.225573,-0.874040,0.133446,0.120435,0.584882,0.355152,-0.086965,-0.752696,0.097250,0.134426,0.956052,-0.429066,-0.958752,5.530456,-10.061224,0.868487,-0.561614,1.433031,-1.363909,-0.297264,0.382655,1.638673,-3.672600,8.721150
0.460000,-0.854867,2.841275,0.304000,0.996093,0.067433,0.005450,-0.056768,-0.130332,-0.432088,0.062494,0.333168,-0.323872,0.010896,-0.227799,-0.863466,0.116127,0.121411,0.583881,0.357989,-0.088892,-0.753478,0.098385,0.139348,0.949729,-0.418051,-1.113118,5.287226,-8.659299,0.487664,-0.500634,1.418670,-0.963380,-0.391342,0.567640,2.461335,-3.161834,5.507522
0.462000,-0.855134,2.840386,0.304134,0.996095,0.067444,0.005117,-0.056737,-0.133632,-0.444727,0.066968,0.028791,-0.329358,0.053179,-0.229215,-0.851969,0.093607,0.122942,0.582836,0.360794,-0.091481,-0.754121,0.099213,0.142002,0.942210,-0.402233,-0.708007,5.748457,-11.259980,0.765913,-0.522349,1.402556,-1.294711,-0.321500,0.414062,1.327093,-3.759395,7.909015
0.464000,-0.855398,2.839508,0.304252,0.996094,0.067501,0.004785,-0.056720,-0.131783,-0.438865,0.058751,0.075493,-0.326464,0.039619,-0.230224,-0.840912,0.072908,0.124364,0.581864,0.363521,-0.093930,-0.754782,0.100116,0.144797,0.935192,-0.388917,-0.504652,5.528546,-10.349952,0.711060,-0.486447,1.363290,-1.224458,-0.330409,0.451494,1.397274,-3.508827,6.657687
0.466000,-0.855670,2.838595,0.304367,0.996116,0.067239,0.004498,-0.056671,-0.136293,-0.456290,0.057755,-0.245601,-0.297361,0.068240,-0.229933,-0.829871,0.051562,0.126446,0.580833,0.366127,-0.097084,-0.755188,0.100644,0.145288,0.927008,-0.370538,0.145322,5.520543,-10.672799,1.040741,-0.515136,1.303264,-1.577062,-0.203148,0.263756,0.245243,-4.091973,9.189510
0.468000,-0.855936,2.837715,0.304461,0.996120,0.067224,0.004219,-0.056647,-0.133133,-0.440409,0.047045,-0.000349,-0.277361,0.043266,-0.229714,-0.819712,0.034049,0.128009,0.579828,0.368710,-0.099672,-0.755648,0.101383,0.146731,0.919595,-0.356001,0.109924,5.079342,-8.756320,0.781626,-0.502812,1.291336,-1.293990,-0.229964,0.369936,0.721931,-3.706766,7.268872
0.470000,-0.856204,2.836835,0.304550,0.996125,0.067194,0.003958,-0.056601,-0.133577,-0.439597,0.044462,-0.015436,-0.258577,0.063771,-0.229241,-0.809629,0.015676,0.129562,0.578706,0.371360,-0.102307,-0.756052,0.102066,0.147212,0.911643,-0.339232,0.236517,5.041321,-9.186832,0.776635,-0.560767,1.324896,-1.317534,-0.201649,0.341490,0.240094,-3.975761,8.384096
0.472000,-0.856461,2.835997,0.304625,0.996112,0.067443,0.003683,-0.056565,-0.128562,-0.419329,0.037447,0.264954,-0.256898,0.053940,-0.229438,-0.799770,-0.002791,0.130470,0.577578,0.374081,-0.104312,-0.756604,0.103030,0.148620,0.904465,-0.325747,-0.098520,4.929846,-9.233195,0.453786,-0.563912,1.360376,-1.002575,-0.276207,0.482033,0.704352,-3.589154,6.742539
0.474000,-0.856713,2.835152,0.304703,0.996101,0.067658,0.003400,-0.056515,-0.126112,-0.422386,0.038606,0.230393,-0.266731,0.069676,-0.229158,-0.790226,-0.021497,0.130862,0.576165,0.379670,-0.106417,-0.757192,0.103980,0.148902,0.896852,-0.309606,0.139737,4.771803,-9.353276,0.195844,-0.706450,2.794413,-1.052345,-0.293972,0.474575,0.140862,-3.806265,8.070643
0.476000,-0.856959,2.834308,0.304751,0.996096,0.067776,0.003163,-0.056468,-0.123152,-0.422197,0.024092,0.130903,-0.225960,0.062098,-0.228432,-0.781223,-0.038658,0.131290,0.575680,0.382182,-0.108694,-0.757677,0.104863,0.148808,0.889687,-0.295110,0.363210,4.501536,-8.580228,0.214005,-0.242487,1.255997,-1.138550,-0.242591,0.441586,-0.047062,-3.582499,7.248045
0.478000,-0.857205,2.833429,0.304764,0.996114,0.067571,0.003005,-0.056412,-0.122857,-0.439334,0.006483,-0.196592,-0.165420,0.067537,-0.226695,-0.774297,-0.051654,0.132427,0.575757,0.382870,-0.111671,-0.757927,0.105483,0.147123,0.882351,-0.279886,0.868137,3.462818,-6.498075,0.568714,0.038271,0.344255,-1.488516,-0.125082,0.310296,-0.842655,-3.667933,7.612145
0.480000,-0.857440,2.832570,0.304777,0.996122,0.067506,0.002817,-0.056362,-0.117308,-0.429251,0.006733,-0.054443,-0.187359,0.062068,-0.225041,-0.769111,-0.061424,0.132791,0.575355,0.386744,-0.114325,-0.758328,0.106274,0.145791,0.875659,-0.266639,0.827046,2.593425,-4.885115,0.182153,-0.201116,1.936844,-1.326748,-0.200302,0.395501,-0.665946,-3.346286,6.623471
0.482000,-0.857674,2.831697,0.304779,0.996147,0.067189,0.002642,-0.056296,-0.117326,-0.436502,0.001088,-0.307809,-0.187230,0.078089,-0.222726,-0.765214,-0.068771,0.133885,0.574956,0.389973,-0.117491,-0.758669,0.106920,0.143439,0.869277,-0.254125,1.157452,1.948152,-3.673456,0.546887,-0.199168,1.614727,-1.583289,-0.170523,0.322909,-1.175792,-3.190691,6.256757
0.484000,-0.857906,2.830850,0.304802,0.996174,0.066872,0.002432,-0.056206,-0.115798,-0.423621,0.011523,-0.306024,-0.221188,0.105185,-0.220417,-0.762243,-0.074474,0.135006,0.574548,0.392846,-0.120599,-0.759081,0.107541,0.141044,0.863273,-0.241933,1.154844,1.485573,-2.851577,0.560514,-0.204296,1.436568,-1.553730,-0.205871,0.310200,-1.197452,-3.002191,6.095999
0.486000,-0.858134,2.830022,0.304848,0.996209,0.066469,0.002161,-0.056086,-0.114328,-0.414205,0.022855,-0.389161,-0.285298,0.138145,-0.217955,-0.759962,-0.079091,0.136311,0.574055,0.395641,-0.123826,-0.759642,0.108165,0.138303,0.857816,-0.230703,1.230933,1.140552,-2.308592,0.652222,-0.246525,1.397275,-1.613541,-0.280537,0.312125,-1.370517,-2.728373,5.615069
0.488000,-0.858361,2.829248,0.304944,0.996233,0.066242,0.001806,-0.055930,-0.113383,-0.386861,0.047934,-0.208047,-0.355317,0.180502,-0.215971,-0.758160,-0.083020,0.137121,0.573378,0.398483,-0.126600,-0.760385,0.108853,0.136017,0.852606,-0.219042,0.991735,0.901228,-1.964433,0.405308,-0.338261,1.421218,-1.386931,-0.371377,0.343941,-1.142896,-2.604918,5.830323
0.490000,-0.858585,2.828503,0.305077,0.996265,0.065925,0.001345,-0.055747,-0.111755,-0.372477,0.066623,-0.292729,-0.465371,0.213581,-0.213879,-0.756658,-0.086720,0.138009,0.572600,0.401523,-0.129461,-0.761383,0.109596,0.133696,0.848405,-0.210366,1.046004,0.750930,-1.849629,0.443604,-0.389292,1.520082,-1.430626,-0.499180,0.371532,-1.160516,-2.100553,4.337974
0.492000,-0.858803,2.827770,0.305226,0.996312,0.065391,0.000787,-0.055555,-0.108921,-0.366376,0.074601,-0.504309,-0.573372,0.229759,-0.211381,-0.755435,-0.090241,0.139248,0.571875,0.404434,-0.132669,-0.762639,0.110409,0.131141,0.845760,-0.207116,1.249041,0.611314,-1.760812,0.619897,-0.362535,1.455427,-1.603933,-0.628124,0.406834,-1.277877,-1.322910,1.625332
0.494000,-0.859025,2.827084,0.305432,0.996351,0.064999,0.000179,-0.055311,-0.111288,-0.343048,0.102817,-0.358987,-0.611340,0.284908,-0.209323,-0.754351,-0.093652,0.139941,0.571012,0.406934,-0.135525,-0.763909,0.111108,0.128302,0.842462,-0.199498,1.029034,0.541838,-1.705424,0.346433,-0.431304,1.250057,-1.428296,-0.634888,0.349158,-1.419225,-1.648594,3.808780
0.496000,-0.859259,2.826462,0.305708,0.996373,0.064920,-0.000452,-0.055009,-0.116835,-0.311073,0.137877,-0.045492,-0.613301,0.342805,-0.208086,-0.753328,-0.096951,0.139727,0.569876,0.409300,-0.137679,-0.765059,0.111614,0.125528,0.837821,-0.185162,0.618719,0.511839,-1.649286,-0.106977,-0.567750,1.182892,-1.076782,-0.574894,0.253116,-1.387300,-2.320892,7.168274
0.498000,-0.859487,2.825860,0.306008,0.996404,0.064678,-0.001198,-0.054729,-0.113969,-0.301104,0.150246,-0.202225,-0.738414,0.329913,-0.206535,-0.752338,-0.100512,0.139121,0.568671,0.413083,-0.140015,-0.766474,0.112208,0.123186,0.835205,-0.179179,0.775519,0.494843,-1.780833,-0.303008,-0.602847,1.891225,-1.167913,-0.707757,0.297066,-1.170625,-1.307738,2.991410
0.500000,-0.859706,2.825244,0.306278,0.996457,0.064017,-0.001991,-0.054508,-0.109437,-0.308070,0.134986,-0.618324,-0.812317,0.274885,-0.204021,-0.751584,-0.103817,0.139033,0.568004,0.415941,-0.143055,-0.768019,0.112834,0.121036,0.835633,-0.186242,1.256915,0.377232,-1.652300,-0.044086,-0.333197,1.429127,-1.520019,-0.772348,0.313189,-1.075340,0.214176,-3.531438
0.502000,-0.859936,2.824651,0.306569,0.996503,0.063491,-0.002699,-0.054262,-0.115326,-0.296327,0.145545,-0.488167,-0.717735,0.293670,-0.201835,-0.751018,-0.106507,0.138273,0.567360,0.417853,-0.145800,-0.769148,0.113090,0.118225,0.834551,-0.185880,1.092840,0.282978,-1.344844,-0.379870,-0.322303,0.956048,-1.372879,-0.564356,0.127953,-1.405322,-0.541243,0.180980
0.504000,-0.860188,2.824095,0.306906,0.996530,0.063291,-0.003287,-0.053963,-0.125697,-0.278050,0.168215,-0.167758,-0.578463,0.337653,-0.200426,-0.750543,-0.108621,0.136552,0.566223,0.420323,-0.147900,-0.769699,0.112847,0.114557,0.830411,-0.171154,0.704473,0.237152,-1.057468,-0.860610,-0.568179,1.235049,-1.049881,-0.275448,-0.121784,-1.834028,-2.069993,7.363005
0.506000,-0.860437,2.823527,0.307198,0.996566,0.062882,-0.003833,-0.053729,-0.124549,-0.283992,0.145968,-0.379874,-0.551173,0.271127,-0.198142,-0.751194,-0.105918,0.135500,0.565101,0.423498,-0.150327,-0.770136,0.112575,0.111239,0.828161,-0.164679,1.142067,-0.325377,1.351882,-0.525998,-0.561301,1.587279,-1.213464,-0.218604,-0.135757,-1.658713,-1.124795,3.237117
0.508000,-0.860682,2.822949,0.307461,0.996620,0.062150,-0.004381,-0.053548,-0.122738,-0.289060,0.131680,-0.702428,-0.573296,0.220532,-0.195201,-0.751700,-0.104019,0.135184,0.564273,0.426303,-0.153289,-0.770566,0.112265,0.108055,0.827918,-0.166752,1.470633,-0.252993,0.949269,-0.157808,-0.413897,1.402694,-1.481009,-0.214963,-0.155236,-1.592038,-0.121715,-1.036192
0.510000,-0.860920,2.822368,0.307668,0.996676,0.061315,-0.004873,-0.053426,-0.118789,-0.290504,0.103378,-0.808884,-0.527742,0.158822,-0.191569,-0.753698,-0.095936,0.135577,0.563742,0.428270,-0.156384,-0.770947,0.112061,0.105370,0.829441,-0.175998,1.815880,-0.999070,4.041390,0.196304,-0.265665,0.983694,-1.547235,-0.190594,-0.101785,-1.342840,0.761536,-4.623206
0.512000,-0.861164,2.821827,0.307889,0.996712,0.060834,-0.005284,-0.053261,-0.122047,-0.270536,0.110619,-0.458989,-0.424812,0.194276,-0.188951,-0.755394,-0.089319,0.135551,0.562821,0.430479,-0.158786,-0.771079,0.111751,0.102315,0.828925,-0.174584,1.309093,-0.847810,3.308690,-0.013041,-0.460221,1.104151,-1.201109,-0.065841,-0.155334,-1.527528,-0.258127,0.707303
0.514000,-0.861404,2.821319,0.308097,0.996732,0.060633,-0.005652,-0.053084,-0.119828,-0.253755,0.103935,-0.181617,-0.366430,0.200194,-0.187261,-0.757231,-0.083528,0.135272,0.561566,0.433034,-0.160621,-0.771202,0.111601,0.099429,0.827931,-0.169468,0.845036,-0.918458,2.895347,-0.139603,-0.627428,1.277509,-0.917376,-0.061828,-0.074999,-1.442805,-0.496805,2.557962
0.516000,-0.861638,2.820822,0.308297,0.996753,0.060392,-0.006036,-0.052908,-0.117298,-0.248438,0.099855,-0.219903,-0.384858,0.201568,-0.185558,-0.758645,-0.079239,0.135275,0.560230,0.435781,-0.162506,-0.771443,0.111566,0.096329,0.827309,-0.164827,0.851645,-0.707154,2.144671,0.001466,-0.668347,1.373413,-0.942739,-0.120313,-0.017364,-1.549797,-0.311057,2.320488
0.518000,-0.861859,2.820319,0.308458,0.996786,0.059924,-0.006458,-0.052773,-0.110422,-0.251859,0.080632,-0.445406,-0.436928,0.164104,-0.183274,-0.760139,-0.075742,0.135959,0.559105,0.438430,-0.164786,-0.771938,0.111780,0.093413,0.828654,-0.168608,1.141720,-0.747173,1.748593,0.342057,-0.562541,1.324747,-1.139801,-0.247355,0.107165,-1.458467,0.672533,-1.890696
0.520000,-0.862076,2.819834,0.308604,0.996813,0.059547,-0.006857,-0.052640,-0.108593,-0.242343,0.073057,-0.354886,-0.410198,0.160359,-0.181325,-0.761487,-0.072930,0.136572,0.558066,0.440881,-0.166860,-0.772445,0.112095,0.090552,0.829895,-0.172095,0.974501,-0.673748,1.405929,0.306417,-0.519434,1.225532,-1.037171,-0.253532,0.157513,-1.430078,0.620451,-1.743596
0.522000,-0.862370,2.819199,0.308771,0.996921,0.057922,-0.006995,-0.052382,-0.146941,-0.317637,0.083589,-1.617491,-0.206850,0.282305,-0.176754,-0.761693,-0.071740,0.140334,0.557723,0.438789,-0.171729,-0.771525,0.110626,0.080234,0.823201,-0.149814,2.285476,-0.102925,0.594916,1.880943,-0.171350,-1.046154,-2.434256,0.459989,-0.734836,-5.159363,-3.347143,11.140807
0.524000,-0.862719,2.818577,0.309008,0.997013,0.056675,-0.006981,-0.051996,-0.174355,-0.310885,0.118326,-1.246439,-0.027734,0.397489,-0.173065,-0.761348,-0.071171,0.143329,0.555869,0.440259,-0.175991,-0.769870,0.108552,0.067539,0.808492,-0.101106,1.844798,0.172130,0.284505,1.497499,-0.926839,0.735178,-2.131158,0.827447,-1.036566,-6.347106,-7.354389,24.353898
0.526000,-0.863074,2.818090,0.309297,0.997032,0.056733,-0.007009,-0.051576,-0.177700,-0.243563,0.144614,0.061504,-0.000801,0.421052,-0.172200,-0.760987,-0.070670,0.142963,0.552940,0.445865,-0.177143,-0.769136,0.108528,0.057949,0.789884,-0.042621,0.432460,0.180583,0.250479,-0.182540,-1.464640,2.802753,-0.576180,0.366907,-0.011983,-4.795352,-9.304184,29.242439
0.528000,-0.863368,2.817665,0.309558,0.997036,0.056863,-0.007331,-0.051311,-0.147128,-0.212504,0.130585,0.147317,-0.299386,0.281724,-0.170747,-0.759555,-0.080691,0.141482,0.551858,0.447977,-0.177285,-0.770429,0.111318,0.052708,0.777062,-0.008640,0.726515,0.715948,-5.010422,-0.740923,-0.540968,1.056031,-0.070918,-0.646369,1.394642,-2.620596,-6.410974,16.990325
0.530000,-0.863603,2.817251,0.309746,0.997037,0.056807,-0.007819,-0.051275,-0.117035,-0.206914,0.093708,-0.030231,-0.487942,0.064729,-0.166948,-0.760230,-0.083112,0.140173,0.552472,0.447418,-0.177305,-0.773052,0.115234,0.051436,0.771548,-0.001440,1.899306,-0.337094,-1.210266,-0.654152,0.306792,-0.279588,-0.010229,-1.311824,1.958358,-0.635747,-2.757060,3.600335
0.532000,-0.863807,2.816771,0.309866,0.997072,0.055944,-0.008394,-0.051454,-0.102422,-0.239860,0.060274,-0.834985,-0.627181,-0.138105,-0.158982,-0.763061,-0.077242,0.141096,0.553437,0.448843,-0.178827,-0.775571,0.118588,0.051883,0.772658,-0.020504,3.983218,-1.415574,2.934675,0.461183,0.482505,0.712503,-0.760729,-1.259564,1.676812,0.223333,0.555419,-9.532359
0.534000,-0.864041,2.816260,0.309981,0.997122,0.054755,-0.008843,-0.051688,-0.116911,-0.255795,0.057297,-1.167097,-0.521204,-0.194920,-0.150370,-0.765684,-0.070347,0.143316,0.553522,0.453017,-0.181081,-0.776988,0.120542,0.052007,0.773213,-0.039800,4.305559,-1.311600,3.447565,1.110392,0.042420,2.086979,-1.127224,-0.708500,0.976891,0.062286,0.277069,-9.647686
0.536000,-0.864336,2.815781,0.310153,0.997156,0.053991,-0.009014,-0.051803,-0.147500,-0.239436,0.086218,-0.755481,-0.215893,-0.097187,-0.143734,-0.767269,-0.064777,0.144669,0.552800,0.455899,-0.182682,-0.776717,0.120714,0.050544,0.766677,-0.032679,3.318409,-0.792526,2.785198,0.676362,-0.360559,1.441077,-0.800547,0.135475,0.086184,-0.731388,-3.267892,3.560459
0.538000,-0.864674,2.815350,0.310392,0.997175,0.053665,-0.008999,-0.051778,-0.169003,-0.215397,0.119191,-0.326596,-0.000890,0.027973,-0.140041,-0.765350,-0.075126,0.144985,0.551771,0.457022,-0.183573,-0.775248,0.119540,0.047440,0.753798,0.000300,1.846461,0.959518,-5.174774,0.157867,-0.514929,0.561446,-0.445389,0.734789,-0.586897,-1.552056,-6.439314,16.489399
0.540000,-0.865018,2.814942,0.310603,0.997183,0.053546,-0.008910,-0.051755,-0.171883,-0.204212,0.105890,-0.123379,0.083721,0.020051,-0.137151,-0.763764,-0.082819,0.145052,0.550695,0.457435,-0.184069,-0.773417,0.118034,0.044460,0.740166,0.037606,1.444714,0.793197,-3.846174,0.033474,-0.537580,0.206707,-0.247851,0.915495,-0.752993,-1.490205,-6.815952,18.652873
0.542000,-0.865310,2.814523,0.310698,0.997196,0.053112,-0.009028,-0.051942,-0.146199,-0.209061,0.047233,-0.429500,-0.149375,-0.176026,-0.132047,-0.764819,-0.079330,0.146044,0.549946,0.460002,-0.182761,-0.771580,0.109827,0.043257,0.733803,0.048342,2.551971,-0.527659,1.744200,0.496200,-0.374630,1.283609,0.653973,0.918465,-4.103699,-0.601578,-3.181735,5.368125
0.544000,-0.865541,2.814074,0.310662,0.997226,0.052161,-0.009450,-0.052257,-0.115228,-0.224857,-0.018028,-0.930268,-0.486889,-0.281173,-0.124919,-0.767272,-0.071852,0.148308,0.549991,0.462384,-0.182180,-0.772635,0.107525,0.042623,0.734861,0.032028,3.563987,-1.226691,3.739106,1.131660,0.022351,1.190679,0.290474,-0.527460,-1.150796,-0.316696,0.528954,-8.156769
0.546000,-0.865765,2.813656,0.310598,0.997236,0.051667,-0.009928,-0.052458,-0.112049,-0.208719,-0.031994,-0.470756,-0.513564,-0.170775,-0.119634,-0.769494,-0.065756,0.149645,0.549716,0.464870,-0.181107,-0.775501,0.110198,0.040720,0.733023,0.031141,2.642760,-1.110822,3.048069,0.668735,-0.137328,1.243355,0.536432,-1.433068,1.336032,-0.951788,-0.918719,-0.443773
0.548000,-0.866012,2.813257,0.310557,0.997237,0.051540,-0.010341,-0.052492,-0.123620,-0.199706,-0.020261,-0.105528,-0.420067,-0.010848,-0.115932,-0.771218,-0.060959,0.150198,0.548890,0.467376,-0.179957,-0.778587,0.113432,0.036530,0.725612,0.055706,1.851178,-0.862251,2.398239,0.276406,-0.413165,1.252808,0.574962,-1.542959,1.617281,-2.094769,-3.705383,12.282437
0.550000,-0.866275,2.812824,0.310520,0.997262,0.050989,-0.010756,-0.052475,-0.131590,-0.216223,-0.018705,-0.528126,-0.441198,0.045317,-0.111948,-0.772078,-0.058155,0.151540,0.548297,0.468802,-0.180252,-0.781181,0.116118,0.030528,0.717308,0.084718,1.991860,-0.429787,1.402339,0.670827,-0.296647,0.713117,-0.147519,-1.297278,1.342911,-3.000949,-4.152236,14.506378
