QPZ-918/AT_DOG_AMP/temp/gmr_data_csv/TB.csv
time_sec,root_pos_x,root_pos_y,root_pos_z,root_quat_w,root_quat_x,root_quat_y,root_quat_z,base_lin_vel_x,base_lin_vel_y,base_lin_vel_z,base_ang_vel_x,base_ang_vel_y,base_ang_vel_z,FR_hip_joint,FR_thigh_joint,FR_calf_joint,FL_hip_joint,FL_thigh_joint,FL_calf_joint,RR_hip_joint,RR_thigh_joint,RR_calf_joint,RL_hip_joint,RL_thigh_joint,RL_calf_joint,FR_hip_joint_vel,FR_thigh_joint_vel,FR_calf_joint_vel,FL_hip_joint_vel,FL_thigh_joint_vel,FL_calf_joint_vel,RR_hip_joint_vel,RR_thigh_joint_vel,RR_calf_joint_vel,RL_hip_joint_vel,RL_thigh_joint_vel,RL_calf_joint_vel
0.002000,0.000787,0.007321,0.283477,0.999657,0.003313,-0.003617,0.025726,0.010976,-0.074411,-0.010824,-0.100657,-0.202260,0.171241,-0.041851,-0.847424,0.040127,0.044807,1.021376,-0.395220,0.034838,-0.935710,0.418680,-0.031153,0.766802,-0.085392,0.103991,-0.040668,-0.240444,0.344483,3.579879,-7.084131,0.238731,-3.580188,6.928197,-0.503563,0.135944,-0.057698
0.004000,0.000796,0.007201,0.283498,0.999651,0.003432,-0.003856,0.025895,0.004633,-0.059845,0.010358,0.113533,-0.240720,0.169203,-0.042113,-0.847445,0.039475,0.045106,1.027834,-0.406993,0.036228,-0.942321,0.430464,-0.031657,0.766980,-0.085268,-0.130946,-0.010506,-0.325650,0.149582,3.228948,-5.886403,0.695004,-3.305687,5.892234,-0.251974,0.088912,0.062229
0.006000,0.000794,0.007098,0.283544,0.999645,0.003651,-0.004112,0.026078,-0.001054,-0.051323,0.023185,0.212812,-0.261351,0.183821,-0.042622,-0.847437,0.038723,0.044941,1.034210,-0.419841,0.037744,-0.948825,0.442790,-0.031933,0.767072,-0.085005,-0.254259,0.004150,-0.376367,-0.082497,3.188412,-6.424356,0.758224,-3.251769,6.163248,-0.137905,0.046101,0.131346
0.008000,0.000777,0.006991,0.283626,0.999639,0.003802,-0.004361,0.026248,-0.008350,-0.053842,0.040855,0.145258,-0.252562,0.169938,-0.042961,-0.847281,0.037829,0.045504,1.039623,-0.429679,0.039332,-0.954362,0.452045,-0.032299,0.767037,-0.084588,-0.169917,0.077847,-0.446919,0.281853,2.706058,-4.918848,0.793742,-2.768806,4.627240,-0.183015,-0.017349,0.208735
0.010000,0.000750,0.006873,0.283722,0.999633,0.003836,-0.004607,0.026429,-0.013556,-0.058783,0.048240,0.028962,-0.245652,0.182547,-0.043068,-0.847057,0.036852,0.046325,1.044903,-0.440804,0.040152,-0.959798,0.462556,-0.032906,0.766938,-0.084152,-0.053079,0.111988,-0.488265,0.410346,2.640344,-5.562462,0.410137,-2.717609,5.255491,-0.303789,-0.049813,0.217576
0.012000,0.000710,0.006748,0.283849,0.999628,0.003804,-0.004837,0.026588,-0.019960,-0.062494,0.063423,-0.038200,-0.228755,0.159791,-0.042981,-0.846709,0.035803,0.048029,1.049009,-0.447927,0.041051,-0.964136,0.469383,-0.033597,0.766726,-0.083583,0.043240,0.174209,-0.524861,0.852085,2.052901,-3.561395,0.449688,-2.169056,3.413284,-0.345432,-0.106061,0.284632
0.014000,0.000663,0.006639,0.283982,0.999621,0.003894,-0.005073,0.026762,-0.023432,-0.054758,0.066544,0.085066,-0.237347,0.173993,-0.043169,-0.846434,0.034834,0.049086,1.053113,-0.456868,0.041770,-0.968583,0.478099,-0.034026,0.766467,-0.082951,-0.094043,0.137538,-0.484309,0.528399,2.052034,-4.470625,0.359436,-2.223679,4.358072,-0.214580,-0.129530,0.316156
0.016000,0.000607,0.006547,0.284141,0.999615,0.004159,-0.005304,0.026908,-0.028202,-0.045822,0.079676,0.259108,-0.237645,0.146243,-0.043666,-0.846154,0.033928,0.050246,1.056012,-0.461310,0.043339,-0.971964,0.482793,-0.034023,0.766112,-0.082120,-0.248249,0.139874,-0.452757,0.579951,1.449296,-2.220726,0.784141,-1.690313,2.347401,0.001566,-0.177064,0.415312
0.018000,0.000547,0.006466,0.284300,0.999608,0.004501,-0.005545,0.027069,-0.030018,-0.040461,0.079396,0.336559,-0.249201,0.159900,-0.044336,-0.845951,0.033089,0.050680,1.059055,-0.468273,0.044514,-0.975549,0.489566,-0.033861,0.765776,-0.081313,-0.335246,0.101305,-0.419860,0.216965,1.521572,-3.481926,0.587803,-1.792533,3.386149,0.081218,-0.168382,0.403571
0.020000,0.000480,0.006375,0.284481,0.999602,0.004762,-0.005779,0.027194,-0.033400,-0.045425,0.090508,0.255141,-0.240651,0.125274,-0.044759,-0.845641,0.032174,0.051944,1.060866,-0.470642,0.045817,-0.977971,0.491733,-0.033805,0.765435,-0.080480,-0.211272,0.155139,-0.457635,0.632152,0.905649,-1.184252,0.651275,-1.211069,1.083715,0.027663,-0.170458,0.416752
0.022000,0.000412,0.006278,0.284656,0.999596,0.004948,-0.006028,0.027331,-0.033860,-0.048701,0.087585,0.179949,-0.253378,0.136481,-0.045024,-0.845356,0.031231,0.052862,1.062840,-0.475666,0.046204,-0.980665,0.496346,-0.033920,0.765195,-0.079805,-0.132825,0.142734,-0.471399,0.458711,0.986719,-2.511889,0.193817,-1.347203,2.306193,-0.057198,-0.119777,0.337354
0.024000,0.000340,0.006172,0.284850,0.999591,0.005073,-0.006279,0.027428,-0.036302,-0.052942,0.096883,0.118463,-0.253483,0.098093,-0.045079,-0.844976,0.030209,0.054529,1.063547,-0.475896,0.046838,-0.982207,0.496363,-0.034100,0.764994,-0.079138,-0.027483,0.189834,-0.511013,0.833494,0.353807,-0.114937,0.316866,-0.770745,0.008774,-0.089940,-0.100507,0.333427
0.026000,0.000267,0.006078,0.285034,0.999585,0.005299,-0.006555,0.027537,-0.036195,-0.046980,0.091973,0.219852,-0.282153,0.108616,-0.045354,-0.844704,0.029244,0.055241,1.064443,-0.478896,0.047129,-0.984095,0.499193,-0.034079,0.764901,-0.078581,-0.137179,0.136037,-0.482339,0.356322,0.448028,-1.500062,0.145698,-0.944027,1.415098,0.010527,-0.046607,0.278473
0.028000,0.000190,0.005994,0.285233,0.999579,0.005650,-0.006837,0.027609,-0.038602,-0.042029,0.099278,0.342789,-0.290832,0.072130,-0.045811,-0.844425,0.028316,0.056111,1.064128,-0.477291,0.048219,-0.984922,0.498049,-0.033744,0.764807,-0.077938,-0.228822,0.139207,-0.464016,0.435060,-0.157598,0.802526,0.544834,-0.413631,-0.572277,0.167303,-0.046773,0.321556
0.030000,0.000112,0.005914,0.285418,0.999573,0.006035,-0.007134,0.027692,-0.038833,-0.040073,0.092884,0.378043,-0.306983,0.081661,-0.046346,-0.844227,0.027446,0.056242,1.064029,-0.478671,0.048822,-0.986021,0.499536,-0.033356,0.764793,-0.077404,-0.267403,0.099364,-0.435131,0.065464,-0.049677,-0.689994,0.301394,-0.549400,0.743621,0.194184,-0.007108,0.266984
0.032000,0.000030,0.005819,0.285613,0.999568,0.006318,-0.007422,0.027738,-0.041082,-0.047379,0.097348,0.274468,-0.295659,0.046138,-0.046587,-0.843936,0.026535,0.057165,1.062896,-0.476309,0.049544,-0.986069,0.497106,-0.033143,0.764790,-0.076883,-0.120259,0.145501,-0.455560,0.461372,-0.566375,1.181043,0.361217,-0.024048,-1.214933,0.106502,-0.001539,0.260504
0.034000,-0.000052,0.005716,0.285792,0.999563,0.006537,-0.007719,0.027791,-0.040835,-0.051315,0.089623,0.211783,-0.303135,0.053385,-0.046692,-0.843685,0.025648,0.057744,1.062006,-0.476632,0.049548,-0.986396,0.497087,-0.033087,0.764873,-0.076510,-0.052773,0.125119,-0.443424,0.289502,-0.444880,-0.161594,0.001685,-0.163525,-0.009699,0.027558,0.041237,0.186748
0.036000,-0.000135,0.005607,0.285973,0.999558,0.006731,-0.008015,0.027815,-0.041577,-0.054789,0.090170,0.185718,-0.301068,0.024828,-0.046680,-0.843410,0.024778,0.058784,1.060403,-0.474061,0.049804,-0.986046,0.494330,-0.033060,0.764987,-0.076157,0.005880,0.137803,-0.435017,0.520121,-0.801793,1.285209,0.128211,0.174835,-1.378476,0.013698,0.057127,0.176243
0.038000,-0.000215,0.005505,0.286135,0.999553,0.007018,-0.008327,0.027846,-0.040188,-0.050918,0.081262,0.278485,-0.319667,0.030865,-0.046862,-0.843251,0.024016,0.059121,1.059122,-0.473609,0.049920,-0.986115,0.493883,-0.032864,0.765182,-0.075892,-0.091031,0.079384,-0.380976,0.168536,-0.640455,0.225951,0.058178,-0.034527,-0.223618,0.098200,0.097416,0.132607
0.040000,-0.000293,0.005408,0.286289,0.999547,0.007393,-0.008647,0.027859,-0.039087,-0.048480,0.076847,0.365925,-0.329958,0.011779,-0.047184,-0.843162,0.023357,0.059435,1.057592,-0.471557,0.050502,-0.985995,0.492341,-0.032475,0.765434,-0.075654,-0.160685,0.044607,-0.329139,0.156829,-0.764613,1.026395,0.290880,0.060278,-0.770963,0.194124,0.125944,0.118986
0.042000,-0.000367,0.005308,0.286423,0.999541,0.007764,-0.008974,0.027871,-0.037079,-0.049986,0.067154,0.361644,-0.336796,0.011615,-0.047485,-0.843148,0.022783,0.059527,1.056455,-0.471094,0.050885,-0.986204,0.492084,-0.032118,0.765769,-0.075535,-0.150562,0.007079,-0.287143,0.045800,-0.568744,0.231185,0.191336,-0.104589,-0.128375,0.178749,0.167628,0.059590
0.044000,-0.000436,0.005193,0.286537,0.999536,0.008021,-0.009303,0.027874,-0.034512,-0.057337,0.057113,0.248281,-0.336780,0.003467,-0.047525,-0.843156,0.022241,0.059966,1.055695,-0.471521,0.051008,-0.986640,0.492049,-0.032012,0.766215,-0.075592,-0.020032,-0.004220,-0.271338,0.219886,-0.379911,-0.213204,0.061726,-0.217904,-0.017245,0.053180,0.223329,-0.028830
0.046000,-0.000500,0.005070,0.286633,0.999531,0.008230,-0.009638,0.027870,-0.031926,-0.061625,0.047908,0.199437,-0.340260,-0.003723,-0.047442,-0.843207,0.021749,0.060616,1.055304,-0.472390,0.051052,-0.987352,0.492375,-0.032022,0.766753,-0.075780,0.041586,-0.025272,-0.245526,0.324942,-0.195550,-0.434810,0.021621,-0.356102,0.162737,-0.005296,0.268778,-0.093592
0.048000,-0.000565,0.004946,0.286731,0.999527,0.008480,-0.009961,0.027844,-0.032570,-0.062182,0.048622,0.240687,-0.330179,-0.024815,-0.047403,-0.843237,0.021302,0.061659,1.054485,-0.470170,0.051600,-0.987621,0.490060,-0.031935,0.767231,-0.075872,0.019300,-0.015239,-0.223797,0.521160,-0.409638,1.110327,0.274284,-0.134586,-1.157408,0.043449,0.239217,-0.046418
0.050000,-0.000633,0.004827,0.286823,0.999521,0.008828,-0.010273,0.027820,-0.033996,-0.059253,0.046067,0.338639,-0.321681,-0.025095,-0.047564,-0.843299,0.020948,0.062495,1.053629,-0.467688,0.052371,-0.987888,0.487846,-0.031662,0.767618,-0.075855,-0.080505,-0.030889,-0.176947,0.418084,-0.427804,1.240926,0.385353,-0.133554,-1.106786,0.136714,0.193435,0.008905
0.052000,-0.000714,0.004709,0.286932,0.999516,0.009232,-0.010545,0.027778,-0.040223,-0.059342,0.054751,0.396270,-0.283741,-0.044000,-0.047809,-0.843255,0.020627,0.063726,1.051754,-0.461403,0.053646,-0.987111,0.481957,-0.031253,0.767746,-0.075530,-0.122444,0.022072,-0.160310,0.615487,-0.937673,3.142591,0.637450,0.388512,-2.944780,0.204213,0.063804,0.162483
0.054000,-0.000805,0.004586,0.287039,0.999510,0.009632,-0.010787,0.027759,-0.045751,-0.061135,0.053315,0.393139,-0.253178,-0.020834,-0.048079,-0.843173,0.020351,0.064526,1.049899,-0.457889,0.054275,-0.986389,0.478345,-0.030901,0.767671,-0.075051,-0.134875,0.040917,-0.138366,0.400337,-0.927603,1.757030,0.314770,0.361239,-1.805969,0.175943,-0.037592,0.239414
0.056000,-0.000915,0.004449,0.287171,0.999506,0.009943,-0.010979,0.027723,-0.054694,-0.068562,0.066114,0.304482,-0.200811,-0.036867,-0.048128,-0.842875,0.019989,0.065997,1.046736,-0.450868,0.054853,-0.984298,0.470709,-0.030720,0.767301,-0.074276,-0.024741,0.149022,-0.180929,0.735421,-1.581268,3.510128,0.288670,1.045458,-3.817994,0.090794,-0.185105,0.387413
0.058000,-0.001034,0.004312,0.287305,0.999501,0.010274,-0.011159,0.027713,-0.059868,-0.068849,0.066833,0.326364,-0.188874,-0.012067,-0.048256,-0.842538,0.019605,0.066814,1.043457,-0.446250,0.054746,-0.982292,0.465679,-0.030539,0.766792,-0.073390,-0.063665,0.168195,-0.192068,0.408526,-1.639596,2.309170,-0.053179,1.003042,-2.515205,0.090345,-0.254475,0.442819
0.060000,-0.001169,0.004172,0.287471,0.999496,0.010646,-0.011319,0.027674,-0.067032,-0.069597,0.083131,0.366631,-0.171213,-0.041338,-0.048410,-0.842026,0.019099,0.068018,1.038554,-0.435725,0.055195,-0.978754,0.455513,-0.030232,0.766101,-0.072241,-0.077282,0.256168,-0.252699,0.601597,-2.451568,5.262408,0.224188,1.768695,-5.082633,0.153568,-0.345330,0.574685
0.062000,-0.001307,0.004040,0.287635,0.999490,0.011088,-0.011496,0.027659,-0.069475,-0.066247,0.082052,0.436365,-0.189433,-0.018016,-0.048743,-0.841530,0.018544,0.068167,1.033739,-0.427963,0.055125,-0.975483,0.448242,-0.029816,0.765419,-0.071106,-0.166354,0.248220,-0.277751,0.074717,-2.407550,3.880810,-0.034656,1.635661,-3.635736,0.208097,-0.341196,0.567371
0.064000,-0.001456,0.003899,0.287825,0.999485,0.011478,-0.011669,0.027611,-0.074315,-0.070445,0.094895,0.384956,-0.183887,-0.050298,-0.048908,-0.840863,0.017820,0.068713,1.027584,-0.415351,0.055414,-0.970735,0.435706,-0.029455,0.764691,-0.069881,-0.082433,0.333449,-0.361759,0.272894,-3.077277,6.305993,0.144091,2.374067,-6.268053,0.180209,-0.363776,0.612462
0.066000,-0.001605,0.003754,0.288002,0.999479,0.011824,-0.011871,0.027587,-0.074196,-0.072305,0.088344,0.339578,-0.211559,-0.025628,-0.049010,-0.840226,0.017015,0.068340,1.021866,-0.406883,0.054804,-0.966490,0.426811,-0.029230,0.764107,-0.068862,-0.051219,0.318218,-0.402714,-0.186255,-2.859087,4.234342,-0.304892,2.122340,-4.447563,0.112922,-0.292114,0.509836
0.068000,-0.001759,0.003596,0.288198,0.999475,0.012081,-0.012080,0.027520,-0.077111,-0.078947,0.098340,0.250893,-0.217076,-0.067051,-0.048847,-0.839443,0.016043,0.068636,1.014766,-0.392716,0.054587,-0.960766,0.412410,-0.029129,0.763578,-0.067862,0.081518,0.391832,-0.485669,0.147754,-3.550103,7.083503,-0.108349,2.861962,-7.200546,0.050373,-0.264478,0.499606
0.070000,-0.001910,0.003440,0.288376,0.999470,0.012358,-0.012327,0.027472,-0.075535,-0.078210,0.088877,0.269445,-0.255108,-0.048686,-0.048743,-0.838756,0.015065,0.068055,1.008034,-0.381791,0.053783,-0.955607,0.401682,-0.029024,0.763241,-0.067098,0.052136,0.343214,-0.489128,-0.290384,-3.365797,5.462635,-0.401843,2.579761,-5.363898,0.052302,-0.168442,0.382065
0.072000,-0.002066,0.003281,0.288567,0.999466,0.012658,-0.012580,0.027381,-0.078223,-0.079306,0.095702,0.292348,-0.262179,-0.090967,-0.048610,-0.838004,0.014048,0.067938,0.999949,-0.365165,0.053750,-0.949021,0.385690,-0.028811,0.762940,-0.066313,0.066621,0.376158,-0.508370,-0.058528,-4.042722,8.312644,-0.016650,3.292745,-7.995642,0.106384,-0.150631,0.392627
0.074000,-0.002220,0.003126,0.288733,0.999460,0.012988,-0.012855,0.027312,-0.077038,-0.077864,0.082585,0.320611,-0.285198,-0.069136,-0.048566,-0.837384,0.013126,0.066957,0.992394,-0.352775,0.053166,-0.943034,0.373550,-0.028581,0.762777,-0.065732,0.021829,0.309920,-0.461168,-0.490528,-3.777117,6.195348,-0.292132,2.993711,-6.070376,0.115156,-0.081501,0.290585
0.076000,-0.002381,0.002959,0.288905,0.999456,0.013256,-0.013117,0.027205,-0.080395,-0.083334,0.086406,0.259572,-0.270721,-0.107642,-0.048325,-0.836682,0.012206,0.066710,0.983644,-0.335686,0.053069,-0.935617,0.356198,-0.028429,0.762596,-0.065127,0.120309,0.350830,-0.460165,-0.123510,-4.375004,8.544486,-0.048292,3.708318,-8.676078,0.076306,-0.090295,0.302186
0.078000,-0.002540,0.002790,0.289050,0.999451,0.013517,-0.013390,0.027119,-0.079334,-0.084578,0.072243,0.252474,-0.281307,-0.084699,-0.048099,-0.836105,0.011406,0.065902,0.975398,-0.322446,0.052310,-0.928826,0.342632,-0.028342,0.762511,-0.064701,0.113167,0.288544,-0.399913,-0.403751,-4.123379,6.619626,-0.379459,3.395779,-6.782878,0.043250,-0.042674,0.213306
0.080000,-0.002704,0.002613,0.289200,0.999447,0.013764,-0.013651,0.027001,-0.082306,-0.088508,0.075018,0.238466,-0.268918,-0.118520,-0.047779,-0.835476,0.010641,0.065798,0.965986,-0.304167,0.052063,-0.920821,0.324583,-0.028250,0.762387,-0.064217,0.160100,0.314712,-0.382418,-0.052310,-4.705815,9.139413,-0.123712,4.002357,-9.024539,0.046245,-0.061641,0.241851
0.082000,-0.002866,0.002439,0.289322,0.999442,0.014065,-0.013921,0.026907,-0.080994,-0.086833,0.061043,0.292183,-0.278967,-0.093811,-0.047605,-0.834993,0.010032,0.065058,0.957111,-0.289343,0.051353,-0.913516,0.310246,-0.028100,0.762325,-0.063854,0.086934,0.241289,-0.304771,-0.369777,-4.437652,7.412348,-0.354788,3.652275,-7.168305,0.074625,-0.031143,0.181728
0.084000,-0.003034,0.002261,0.289447,0.999437,0.014368,-0.014173,0.026786,-0.083837,-0.089223,0.062734,0.294234,-0.261988,-0.121614,-0.047387,-0.834469,0.009478,0.064857,0.947343,-0.270468,0.051163,-0.905116,0.291625,-0.027918,0.762196,-0.063408,0.109061,0.262404,-0.276875,-0.100339,-4.883984,9.437343,-0.095185,4.200316,-9.310656,0.091157,-0.064417,0.222607
0.086000,-0.003199,0.002084,0.289546,0.999432,0.014697,-0.014428,0.026690,-0.082454,-0.088484,0.049190,0.320470,-0.265712,-0.096206,-0.047263,-0.834068,0.009061,0.064105,0.938244,-0.255283,0.050507,-0.897385,0.276256,-0.027736,0.762109,-0.063072,0.062107,0.200524,-0.208330,-0.376090,-4.549443,7.592644,-0.328086,3.865308,-7.684302,0.091117,-0.043573,0.168458
0.088000,-0.003367,0.001901,0.289644,0.999426,0.015015,-0.014675,0.026577,-0.084168,-0.091383,0.048970,0.310037,-0.256521,-0.114567,-0.047082,-0.833635,0.008671,0.063798,0.928552,-0.237038,0.050169,-0.888922,0.257947,-0.027564,0.761990,-0.062698,0.090184,0.216146,-0.195103,-0.153691,-4.845896,9.122614,-0.168715,4.231507,-9.154576,0.085770,-0.059697,0.186594
0.090000,-0.003532,0.001718,0.289718,0.999420,0.015352,-0.014932,0.026486,-0.082163,-0.091458,0.036956,0.328696,-0.267254,-0.091644,-0.046973,-0.833308,0.008367,0.063100,0.919469,-0.221559,0.049429,-0.881160,0.242695,-0.027408,0.761936,-0.062444,0.054560,0.163625,-0.151898,-0.348885,-4.541387,7.739370,-0.370270,3.881118,-7.625923,0.078030,-0.026919,0.127370
0.092000,-0.003698,0.001530,0.289790,0.999414,0.015676,-0.015187,0.026380,-0.083085,-0.094226,0.036255,0.316151,-0.265112,-0.106468,-0.046810,-0.832952,0.008061,0.062807,0.909972,-0.203429,0.048984,-0.872852,0.225023,-0.027273,0.761878,-0.062180,0.081635,0.178205,-0.153151,-0.146357,-4.748450,9.064909,-0.222292,4.153985,-8.836113,0.067583,-0.028989,0.131684
0.094000,-0.003860,0.001341,0.289843,0.999407,0.016011,-0.015451,0.026292,-0.081330,-0.094346,0.026185,0.326557,-0.273962,-0.088525,-0.046696,-0.832673,0.007815,0.062234,0.901063,-0.187644,0.048305,-0.865082,0.209459,-0.027159,0.761876,-0.062017,0.056855,0.139109,-0.122937,-0.286490,-4.454746,7.892593,-0.339618,3.885016,-7.781818,0.056760,-0.001053,0.081507
0.096000,-0.004024,0.001148,0.289889,0.999400,0.016332,-0.015714,0.026198,-0.081679,-0.096430,0.023437,0.311960,-0.273026,-0.094325,-0.046542,-0.832383,0.007572,0.061904,0.892099,-0.170848,0.047822,-0.857047,0.192503,-0.027082,0.761877,-0.061868,0.076936,0.145078,-0.121510,-0.165144,-4.481966,8.397912,-0.241362,4.017516,-8.478187,0.038658,0.000723,0.074461
0.098000,-0.004184,0.000956,0.289919,0.999392,0.016677,-0.015987,0.026121,-0.080068,-0.096029,0.014962,0.336946,-0.283858,-0.077891,-0.046465,-0.832163,0.007375,0.061364,0.883655,-0.155871,0.047226,-0.849540,0.177424,-0.026994,0.761926,-0.061797,0.038688,0.110128,-0.098502,-0.270063,-4.221766,7.488401,-0.297926,3.753611,-7.539221,0.044050,0.024293,0.035898
0.100000,-0.004343,0.000764,0.289941,0.999383,0.017054,-0.016270,0.026047,-0.079330,-0.095913,0.010748,0.368440,-0.293940,-0.074929,-0.046455,-0.831972,0.007191,0.060888,0.875359,-0.140559,0.046810,-0.842180,0.162478,-0.026861,0.762003,-0.061753,0.005056,0.095541,-0.091846,-0.238109,-4.148357,7.655867,-0.208031,3.680000,-7.473126,0.066337,0.038315,0.021650
0.102000,-0.004499,0.000571,0.289951,0.999373,0.017437,-0.016561,0.025983,-0.078169,-0.096814,0.005147,0.374504,-0.302078,-0.065313,-0.046469,-0.831816,0.007021,0.060425,0.867419,-0.126000,0.046395,-0.835157,0.148366,-0.026747,0.762111,-0.061761,-0.006885,0.078048,-0.085097,-0.231209,-3.969937,7.279605,-0.207468,3.511171,-7.055988,0.057209,0.054448,-0.003992
0.104000,-0.004652,0.000372,0.289949,0.999363,0.017788,-0.016858,0.025927,-0.076661,-0.099346,-0.000997,0.341698,-0.306333,-0.056047,-0.046426,-0.831682,0.006854,0.060065,0.860005,-0.112743,0.045913,-0.828496,0.135037,-0.026730,0.762259,-0.061842,0.021332,0.066809,-0.083647,-0.180288,-3.706966,6.628855,-0.241227,3.330910,-6.664705,0.008533,0.073580,-0.040285
0.106000,-0.004801,0.000173,0.289936,0.999352,0.018188,-0.017172,0.025886,-0.074590,-0.099181,-0.006358,0.390754,-0.325723,-0.042524,-0.046494,-0.831612,0.006698,0.059713,0.852870,-0.099589,0.045618,-0.823498,0.125028,-0.026654,0.762458,-0.061971,-0.033980,0.035288,-0.077816,-0.175851,-3.567689,6.576849,-0.147684,2.499005,-5.004318,0.037894,0.099584,-0.064803
0.108000,-0.004949,-0.000034,0.289912,0.999342,0.018492,-0.017473,0.025851,-0.073766,-0.103928,-0.012350,0.296007,-0.309707,-0.034167,-0.046380,-0.831532,0.006563,0.059535,0.846564,-0.088944,0.045210,-0.819732,0.117568,-0.026796,0.762642,-0.062150,0.056865,0.039664,-0.067688,-0.088967,-3.152873,5.322614,-0.203916,1.882733,-3.730026,-0.070993,0.092166,-0.089214
0.110000,-0.005107,-0.000260,0.289898,0.999336,0.018631,-0.017719,0.025798,-0.078795,-0.112723,-0.006856,0.131809,-0.250530,-0.050546,-0.045905,-0.831287,0.006413,0.060093,0.840323,-0.077400,0.044576,-0.816590,0.111754,-0.027252,0.762609,-0.062159,0.237759,0.122480,-0.075137,0.278674,-3.120467,5.771730,-0.316908,1.570827,-2.907175,-0.227816,-0.016632,-0.004767
0.112000,-0.005274,-0.000493,0.289888,0.999336,0.018599,-0.017876,0.025728,-0.083872,-0.116689,-0.004841,-0.036784,-0.156851,-0.066551,-0.045095,-0.830900,0.006383,0.060878,0.835163,-0.069432,0.043725,-0.813787,0.107121,-0.027995,0.762282,-0.061966,0.404808,0.193815,-0.014898,0.392572,-2.579742,3.984294,-0.425457,1.401870,-2.316546,-0.371806,-0.163498,0.096660
0.114000,-0.005462,-0.000722,0.289912,0.999339,0.018533,-0.017921,0.025619,-0.093992,-0.114651,0.011696,-0.070065,-0.045202,-0.106997,-0.044199,-0.830287,0.006473,0.062035,0.829904,-0.059500,0.042982,-0.810932,0.103104,-0.028693,0.761470,-0.061271,0.447933,0.306252,0.044951,0.578841,-2.629603,4.965723,-0.371383,1.427479,-2.008111,-0.348790,-0.406036,0.347277
0.116000,-0.005661,-0.000927,0.289949,0.999344,0.018505,-0.017853,0.025486,-0.099591,-0.102348,0.018434,-0.028275,0.066409,-0.133587,-0.043435,-0.829584,0.006831,0.062571,0.826059,-0.054165,0.042505,-0.808089,0.099678,-0.029172,0.760255,-0.060189,0.381979,0.351598,0.179005,0.268064,-1.922539,2.667347,-0.238778,1.421531,-1.713040,-0.239783,-0.607242,0.541063
0.118000,-0.005876,-0.001109,0.290025,0.999351,0.018560,-0.017688,0.025304,-0.107426,-0.090803,0.038445,0.055800,0.159847,-0.186617,-0.042832,-0.828690,0.007298,0.063076,0.822107,-0.046120,0.042407,-0.805052,0.096477,-0.029313,0.758640,-0.058622,0.301471,0.446998,0.233840,0.252438,-1.975915,4.022873,-0.049025,1.518215,-1.600773,-0.070060,-0.807785,0.783455
0.120000,-0.006089,-0.001262,0.290108,0.999359,0.018628,-0.017461,0.025092,-0.106441,-0.076750,0.041398,0.069480,0.221406,-0.217256,-0.042307,-0.827752,0.007900,0.062821,0.819935,-0.043550,0.042514,-0.802105,0.093709,-0.029275,0.756932,-0.056972,0.262624,0.469136,0.300799,-0.127906,-1.086142,1.284905,0.053912,1.473712,-1.383920,0.018653,-0.854093,0.825318
0.122000,-0.006302,-0.001404,0.290222,0.999370,0.018653,-0.017211,0.024822,-0.106572,-0.071062,0.056882,0.027053,0.244143,-0.275482,-0.041660,-0.826639,0.008361,0.062897,0.817628,-0.037442,0.042722,-0.799123,0.091095,-0.029166,0.755240,-0.055266,0.323466,0.556333,0.230446,0.038346,-1.153533,3.054173,0.103683,1.491074,-1.306766,0.054782,-0.845643,0.852832
0.124000,-0.006497,-0.001536,0.290325,0.999384,0.018517,-0.016977,0.024521,-0.097093,-0.066031,0.051525,-0.135881,0.232286,-0.303047,-0.040710,-0.825515,0.008705,0.062654,0.817239,-0.037200,0.042728,-0.796465,0.088958,-0.029273,0.753923,-0.053985,0.474900,0.562006,0.172200,-0.121767,-0.194332,0.120843,0.002851,1.328761,-1.068715,-0.053657,-0.658689,0.640331
0.126000,-0.006677,-0.001660,0.290446,0.999399,0.018336,-0.016789,0.024169,-0.090103,-0.061792,0.060408,-0.182796,0.186093,-0.352288,-0.039626,-0.824314,0.008780,0.062847,0.816554,-0.032879,0.042778,-0.794071,0.087154,-0.029294,0.753131,-0.053176,0.542435,0.600447,0.037351,0.096514,-0.342597,2.160330,0.025012,1.197186,-0.901817,-0.010400,-0.395755,0.404883
0.128000,-0.006830,-0.001760,0.290545,0.999413,0.018162,-0.016659,0.023814,-0.076608,-0.050154,0.049388,-0.176261,0.127177,-0.354973,-0.038614,-0.823265,0.008784,0.062354,0.817574,-0.034356,0.042921,-0.792309,0.086106,-0.029245,0.752807,-0.052829,0.505668,0.524654,0.002255,-0.246315,0.509791,-0.738277,0.071874,0.880663,-0.524290,0.024664,-0.162059,0.173435
0.130000,-0.006967,-0.001842,0.290652,0.999424,0.018104,-0.016597,0.023440,-0.068488,-0.040772,0.053610,-0.063772,0.057228,-0.373850,-0.037827,-0.822277,0.008615,0.062004,0.818016,-0.031799,0.043358,-0.791014,0.085588,-0.028924,0.752751,-0.052623,0.393492,0.493924,-0.084732,-0.174934,0.221382,1.278161,0.218486,0.647662,-0.258923,0.160146,-0.028006,0.102844
0.132000,-0.007079,-0.001898,0.290731,0.999431,0.018157,-0.016595,0.023089,-0.056016,-0.027893,0.039589,0.047091,-0.005781,-0.351555,-0.037344,-0.821528,0.008479,0.060934,0.819723,-0.034549,0.044156,-0.790693,0.086128,-0.028394,0.753001,-0.052706,0.241512,0.374670,-0.068001,-0.535185,0.853455,-1.374954,0.398682,0.160516,0.270096,0.264880,0.124668,-0.041328
0.134000,-0.007181,-0.001954,0.290814,0.999437,0.018215,-0.016638,0.022736,-0.050791,-0.027941,0.041305,0.051382,-0.050199,-0.353035,-0.036860,-0.820811,0.008204,0.060490,0.820609,-0.033620,0.044923,-0.790620,0.086945,-0.027877,0.753382,-0.052858,0.242290,0.358482,-0.137634,-0.221716,0.442970,0.464443,0.383485,0.036360,0.408361,0.258604,0.190531,-0.076332
0.136000,-0.007267,-0.002014,0.290872,0.999444,0.018176,-0.016704,0.022412,-0.043120,-0.030307,0.028945,-0.046310,-0.071331,-0.322360,-0.036224,-0.820212,0.007929,0.060173,0.822270,-0.037077,0.045415,-0.791227,0.088490,-0.027630,0.753898,-0.053210,0.317603,0.299360,-0.137576,-0.158610,0.830214,-1.728082,0.246302,-0.303398,0.772434,0.123831,0.258373,-0.175643
0.138000,-0.007351,-0.002085,0.290934,0.999451,0.018093,-0.016779,0.022095,-0.042013,-0.035207,0.031108,-0.089847,-0.078866,-0.314265,-0.035489,-0.819606,0.007588,0.060659,0.823010,-0.037261,0.045749,-0.791802,0.090004,-0.027521,0.754363,-0.053486,0.367642,0.302965,-0.170015,0.243106,0.370273,-0.092225,0.166921,-0.287316,0.757054,0.054202,0.232409,-0.138239
0.140000,-0.007432,-0.002152,0.290986,0.999458,0.018031,-0.016841,0.021810,-0.040573,-0.033921,0.026224,-0.067981,-0.064771,-0.283161,-0.034845,-0.819084,0.007359,0.061146,0.823902,-0.039579,0.046056,-0.792489,0.091665,-0.027434,0.754691,-0.053643,0.321919,0.260937,-0.114940,0.243078,0.445776,-1.158872,0.153368,-0.343584,0.830739,0.043520,0.163916,-0.078160
0.142000,-0.007517,-0.002213,0.291047,0.999462,0.018074,-0.016879,0.021546,-0.042514,-0.030469,0.030332,0.037542,-0.043984,-0.264064,-0.034440,-0.818592,0.007223,0.061781,0.824082,-0.039836,0.046513,-0.793057,0.093234,-0.027176,0.754768,-0.053498,0.202522,0.245981,-0.067712,0.317512,0.089864,-0.128388,0.228754,-0.284081,0.784402,0.128895,0.038569,0.072497
0.144000,-0.007609,-0.002264,0.291116,0.999464,0.018230,-0.016876,0.021308,-0.046121,-0.025412,0.034799,0.151940,-0.005091,-0.239851,-0.034308,-0.818122,0.007230,0.062254,0.823819,-0.039601,0.047140,-0.793435,0.094640,-0.026726,0.754515,-0.052985,0.066298,0.234994,0.003221,0.236863,-0.131490,0.117144,0.313264,-0.188838,0.702973,0.224950,-0.126808,0.256050
0.146000,-0.007709,-0.002315,0.291197,0.999467,0.018387,-0.016828,0.021088,-0.049998,-0.025211,0.040052,0.154190,0.041020,-0.224010,-0.034204,-0.817607,0.007307,0.062769,0.823257,-0.039175,0.047724,-0.793516,0.095730,-0.026298,0.753970,-0.052182,0.051981,0.257496,0.038518,0.257232,-0.280891,0.212999,0.292211,-0.040812,0.544865,0.214030,-0.272259,0.401885
0.148000,-0.007817,-0.002414,0.291299,0.999480,0.018075,-0.016721,0.020834,-0.054049,-0.049710,0.051215,-0.314365,0.109614,-0.250612,-0.033072,-0.816802,0.007191,0.064739,0.821857,-0.032531,0.047341,-0.792826,0.095830,-0.026815,0.753300,-0.051382,0.565646,0.402755,-0.057807,0.984962,-0.700126,3.322338,-0.191779,0.345224,0.050315,-0.258538,-0.334901,0.399904
0.150000,-0.007931,-0.002532,0.291405,0.999500,0.017437,-0.016524,0.020572,-0.056842,-0.058733,0.052928,-0.638567,0.204857,-0.255609,-0.031309,-0.815838,0.007129,0.066784,0.821287,-0.028256,0.046315,-0.791461,0.095115,-0.027952,0.752426,-0.050541,0.881560,0.481688,-0.030984,1.022520,-0.284947,2.137467,-0.512984,0.682606,-0.357540,-0.568289,-0.437173,0.420691
0.152000,-0.008045,-0.002620,0.291504,0.999519,0.016844,-0.016246,0.020326,-0.057076,-0.044133,0.049576,-0.591234,0.286879,-0.241134,-0.029826,-0.815052,0.007477,0.067439,0.822214,-0.029954,0.045437,-0.789738,0.094016,-0.028922,0.751308,-0.049532,0.741403,0.393352,0.173778,0.327739,0.463791,-0.849091,-0.438801,0.861154,-0.549561,-0.484901,-0.558794,0.504022
0.154000,-0.008153,-0.002653,0.291605,0.999533,0.016606,-0.015945,0.020101,-0.054085,-0.016786,0.050262,-0.235083,0.302079,-0.225912,-0.029259,-0.814577,0.008211,0.066378,0.823606,-0.032427,0.045347,-0.788063,0.092989,-0.029095,0.750071,-0.048320,0.283801,0.237231,0.367110,-0.530762,0.695764,-1.236358,-0.045118,0.837764,-0.513860,-0.086399,-0.618701,0.606339
0.156000,-0.008249,-0.002638,0.291713,0.999539,0.016764,-0.015684,0.019887,-0.047830,0.007662,0.054325,0.158855,0.253765,-0.221325,-0.029595,-0.814353,0.009078,0.064173,0.824284,-0.029883,0.046110,-0.786697,0.092278,-0.028346,0.749131,-0.047270,-0.167986,0.112163,0.433593,-1.102589,0.339246,1.271696,0.381339,0.683072,-0.355308,0.374147,-0.469760,0.524646
0.158000,-0.008332,-0.002629,0.291818,0.999546,0.016785,-0.015464,0.019667,-0.041566,0.004759,0.052629,0.022295,0.215980,-0.223794,-0.029625,-0.814035,0.009666,0.062236,0.824593,-0.024850,0.046603,-0.785424,0.091548,-0.027803,0.748689,-0.046770,-0.015016,0.158907,0.294129,-0.968147,0.154143,2.516702,0.246575,0.636313,-0.365102,0.271543,-0.221368,0.250123
0.160000,-0.008405,-0.002668,0.291900,0.999563,0.016214,-0.015262,0.019441,-0.036221,-0.019643,0.040963,-0.570459,0.209683,-0.220539,-0.028414,-0.813496,0.009853,0.061504,0.825378,-0.022648,0.045858,-0.784024,0.090501,-0.028641,0.748777,-0.047006,0.605583,0.269460,0.093385,-0.366080,0.392901,1.100857,-0.372427,0.700245,-0.523292,-0.418610,0.044145,-0.118040
0.162000,-0.008470,-0.002732,0.291961,0.999585,0.015278,-0.015059,0.019225,-0.032719,-0.032319,0.030075,-0.935250,0.217828,-0.205968,-0.026474,-0.812838,0.009840,0.061426,0.826571,-0.023769,0.044345,-0.782547,0.089266,-0.030277,0.749051,-0.047590,0.969972,0.329218,-0.006767,-0.039212,0.596239,-0.560506,-0.756311,0.738418,-0.617504,-0.818273,0.137259,-0.291657
0.164000,-0.008531,-0.002776,0.292010,0.999604,0.014478,-0.014859,0.019035,-0.030284,-0.021980,0.024891,-0.798980,0.212342,-0.180594,-0.024918,-0.812335,0.009962,0.061100,0.827295,-0.024303,0.043100,-0.781234,0.088211,-0.031626,0.749192,-0.048023,0.777737,0.251265,0.061170,-0.162819,0.362144,-0.266740,-0.622661,0.656615,-0.527647,-0.674498,0.070498,-0.216779
0.166000,-0.008587,-0.002772,0.292057,0.999615,0.014108,-0.014669,0.018882,-0.028113,0.002112,0.023099,-0.368590,0.195450,-0.150691,-0.024401,-0.812159,0.010412,0.060000,0.827060,-0.021845,0.042733,-0.780231,0.087555,-0.032084,0.749113,-0.048102,0.258745,0.087958,0.225010,-0.549784,-0.117680,1.229006,-0.183315,0.501371,-0.327883,-0.228912,-0.039544,-0.039559
0.168000,-0.008640,-0.002719,0.292095,0.999619,0.014163,-0.014470,0.018768,-0.026572,0.026672,0.019281,0.056691,0.196051,-0.117790,-0.024928,-0.812334,0.011271,0.058051,0.826179,-0.017979,0.043231,-0.779486,0.087264,-0.031666,0.748769,-0.047801,-0.263651,-0.087181,0.429515,-0.974541,-0.440502,1.932646,0.249052,0.372515,-0.145720,0.208721,-0.172097,0.150611
0.170000,-0.008691,-0.002666,0.292116,0.999624,0.014122,-0.014246,0.018676,-0.025300,0.026458,0.010521,-0.037876,0.223632,-0.095182,-0.025306,-0.812468,0.012137,0.056322,0.825541,-0.016721,0.043515,-0.778691,0.086903,-0.031451,0.748318,-0.047477,-0.188979,-0.066994,0.432976,-0.864784,-0.318806,0.629206,0.141787,0.397527,-0.180340,0.107755,-0.225502,0.162013
0.172000,-0.008737,-0.002652,0.292117,0.999636,0.013630,-0.014001,0.018586,-0.023283,0.007186,0.000501,-0.488682,0.253318,-0.085772,-0.024723,-0.812375,0.012743,0.055788,0.825337,-0.018283,0.042843,-0.777681,0.086208,-0.032178,0.747928,-0.047408,0.291319,0.046115,0.303159,-0.266842,-0.102263,-0.780934,-0.335803,0.504853,-0.347610,-0.363519,-0.195151,0.034765
0.174000,-0.008777,-0.002659,0.292108,0.999651,0.012891,-0.013763,0.018498,-0.019858,-0.003736,-0.004353,-0.735580,0.250020,-0.081230,-0.023601,-0.812129,0.013091,0.056217,0.824917,-0.018622,0.041651,-0.776627,0.085373,-0.033420,0.747636,-0.047515,0.561078,0.122914,0.173954,0.214286,-0.209758,-0.169509,-0.596196,0.527000,-0.417260,-0.620955,-0.146012,-0.053736
0.176000,-0.008807,-0.002655,0.292096,0.999664,0.012235,-0.013550,0.018421,-0.015255,0.002046,-0.006291,-0.653064,0.224723,-0.071691,-0.022660,-0.811882,0.013333,0.056785,0.824005,-0.015912,0.040632,-0.775743,0.084687,-0.034487,0.747394,-0.047622,0.470713,0.123675,0.121142,0.284059,-0.456070,1.354996,-0.509468,0.442213,-0.343135,-0.533410,-0.120716,-0.053657
0.178000,-0.008829,-0.002616,0.292075,0.999672,0.011830,-0.013344,0.018365,-0.010631,0.019486,-0.010454,-0.402672,0.213006,-0.052827,-0.022310,-0.811741,0.013665,0.056670,0.823201,-0.012988,0.040147,-0.775072,0.084251,-0.035018,0.747110,-0.047610,0.174813,0.070792,0.165658,-0.057455,-0.402075,1.461750,-0.242352,0.335433,-0.217766,-0.265663,-0.142274,0.006012
0.180000,-0.008841,-0.002535,0.292041,0.999677,0.011716,-0.013127,0.018336,-0.006381,0.040494,-0.017024,-0.109691,0.218215,-0.030066,-0.022662,-0.811758,0.014217,0.055547,0.822909,-0.011919,0.040288,-0.774588,0.084071,-0.034924,0.746720,-0.047428,-0.176025,-0.008822,0.276026,-0.561590,-0.146126,0.534601,0.070255,0.241869,-0.090314,0.047244,-0.194671,0.091390
0.182000,-0.008846,-0.002441,0.291994,0.999681,0.011637,-0.012900,0.018320,-0.002495,0.047159,-0.023620,-0.075662,0.228505,-0.017398,-0.023118,-0.811816,0.014825,0.054189,0.823084,-0.012414,0.040511,-0.774143,0.083926,-0.034747,0.746319,-0.047247,-0.227872,-0.028679,0.304232,-0.678830,0.087929,-0.247269,0.111531,0.222271,-0.072399,0.088471,-0.200614,0.090021
0.184000,-0.008844,-0.002360,0.291938,0.999687,0.011390,-0.012673,0.018302,0.001065,0.040454,-0.027978,-0.242758,0.231276,-0.017674,-0.023198,-0.811812,0.015326,0.053468,0.823195,-0.011873,0.040391,-0.773646,0.083661,-0.034914,0.746006,-0.047211,-0.039962,0.001603,0.250138,-0.360649,0.055164,0.270102,-0.060182,0.248804,-0.132382,-0.083919,-0.156525,0.018296
0.186000,-0.008836,-0.002298,0.291875,0.999696,0.010929,-0.012446,0.018278,0.004081,0.030697,-0.031399,-0.456837,0.234800,-0.020807,-0.022800,-0.811723,0.015687,0.053579,0.823093,-0.009740,0.039828,-0.773058,0.083225,-0.035525,0.745792,-0.047341,0.198996,0.044523,0.180603,0.055547,-0.050716,1.066883,-0.281042,0.293824,-0.217916,-0.305392,-0.106938,-0.065008
0.188000,-0.008823,-0.002248,0.291803,0.999706,0.010317,-0.012209,0.018256,0.006498,0.025354,-0.036071,-0.608257,0.248403,-0.017058,-0.022081,-0.811593,0.016005,0.054179,0.823016,-0.007613,0.038954,-0.772389,0.082655,-0.036447,0.745617,-0.047577,0.359369,0.065288,0.158921,0.300075,-0.038687,1.063355,-0.437262,0.334752,-0.285440,-0.460999,-0.087760,-0.118239
0.190000,-0.008806,-0.002183,0.291721,0.999714,0.009762,-0.011953,0.018249,0.008480,0.032512,-0.040912,-0.550529,0.266571,-0.003087,-0.021517,-0.811519,0.016441,0.054508,0.823174,-0.006837,0.038207,-0.771722,0.082095,-0.037240,0.745376,-0.047765,0.281918,0.036727,0.218292,0.164325,0.078794,0.387905,-0.373255,0.333556,-0.279581,-0.396328,-0.120174,-0.093746
0.192000,-0.008785,-0.002082,0.291633,0.999720,0.009485,-0.011682,0.018264,0.010389,0.050498,-0.043947,-0.271542,0.275807,0.015818,-0.021590,-0.811601,0.017123,0.054056,0.823287,-0.006246,0.038048,-0.771180,0.081729,-0.037446,0.745003,-0.047754,-0.036239,-0.040862,0.341085,-0.225644,0.056596,0.295647,-0.079723,0.270659,-0.182945,-0.102940,-0.186650,0.005474
0.194000,-0.008761,-0.001956,0.291541,0.999723,0.009388,-0.011404,0.018296,0.012346,0.062599,-0.046060,-0.091644,0.279789,0.030155,-0.022064,-0.811783,0.017951,0.053169,0.823214,-0.005115,0.038266,-0.770730,0.081489,-0.037275,0.744555,-0.047625,-0.237149,-0.090931,0.413927,-0.443667,-0.036148,0.565188,0.108834,0.224915,-0.120158,0.085206,-0.223912,0.064219
0.196000,-0.008732,-0.001828,0.291444,0.999727,0.009290,-0.011122,0.018336,0.014328,0.064409,-0.048656,-0.091929,0.284397,0.038190,-0.022542,-0.811991,0.018815,0.052398,0.822907,-0.003211,0.038479,-0.770293,0.081248,-0.037110,0.744109,-0.047511,-0.238871,-0.104069,0.432079,-0.385415,-0.153848,0.952034,0.106838,0.218856,-0.120628,0.082771,-0.223092,0.057006
0.198000,-0.008699,-0.001715,0.291338,0.999732,0.008989,-0.010831,0.018378,0.016239,0.056271,-0.052878,-0.295493,0.297239,0.042199,-0.022594,-0.812143,0.019612,0.052180,0.822641,-0.001833,0.038266,-0.769757,0.080844,-0.037371,0.743730,-0.047554,-0.025961,-0.076063,0.398495,-0.109021,-0.133016,0.688969,-0.106528,0.267944,-0.201854,-0.130532,-0.189808,-0.021208
0.200000,-0.008660,-0.001659,0.291225,0.999742,0.008094,-0.010561,0.018389,0.019803,0.028102,-0.056188,-0.890289,0.286197,0.017998,-0.021346,-0.812073,0.020042,0.053543,0.821931,0.003257,0.036842,-0.768972,0.079970,-0.038813,0.744000,-0.048751,0.623936,0.035171,0.214687,0.681204,-0.354979,2.545362,-0.712062,0.392231,-0.436937,-0.721153,0.135292,-0.598481
0.202000,-0.008617,-0.001610,0.291101,0.999753,0.006988,-0.010273,0.018401,0.021655,0.024442,-0.062167,-1.099767,0.308469,0.021839,-0.019699,-0.811963,0.020470,0.054869,0.821688,0.006882,0.035013,-0.768036,0.078861,-0.040616,0.744408,-0.050195,0.823239,0.054677,0.214069,0.662986,-0.121119,1.812368,-0.914784,0.467973,-0.554763,-0.901561,0.203726,-0.721853
0.204000,-0.008564,-0.001499,0.290945,0.999761,0.006293,-0.009931,0.018424,0.026165,0.055709,-0.077947,-0.688681,0.354606,0.027801,-0.019438,-0.812419,0.022267,0.054369,0.822237,0.007142,0.034112,-0.767208,0.078018,-0.040975,0.745352,-0.052985,0.130590,-0.227780,0.898630,-0.249816,0.274419,0.130006,-0.450065,0.414233,-0.421553,-0.179298,0.472428,-1.395433
0.206000,-0.008507,-0.001336,0.290771,0.999766,0.005964,-0.009558,0.018476,0.028638,0.081113,-0.087295,-0.321478,0.379489,0.052186,-0.020288,-0.813323,0.024885,0.052446,0.822921,0.006792,0.033996,-0.766536,0.077448,-0.040572,0.746154,-0.055414,-0.424694,-0.452235,1.308911,-0.961498,0.341607,-0.174991,-0.058352,0.336212,-0.284604,0.201263,0.400981,-1.214415
0.208000,-0.008430,-0.001154,0.290552,0.999770,0.005806,-0.009177,0.018502,0.038682,0.091002,-0.109153,-0.150938,0.384578,0.025301,-0.021224,-0.815992,0.033368,0.050276,0.823119,0.009448,0.034294,-0.766070,0.077211,-0.039196,0.748402,-0.061635,-0.468005,-1.334184,4.241409,-1.085150,0.099098,1.328039,0.148960,0.232645,-0.118853,0.687940,1.123606,-3.110517
0.210000,-0.008341,-0.001013,0.290319,0.999776,0.005199,-0.008803,0.018544,0.044260,0.070470,-0.116754,-0.599461,0.384927,0.044879,-0.021629,-0.818319,0.037632,0.049272,0.822989,0.013410,0.033625,-0.765532,0.076744,-0.039305,0.750609,-0.065037,-0.202850,-1.163438,2.131940,-0.502061,-0.064985,1.980699,-0.334196,0.269365,-0.233274,-0.054456,1.103900,-1.701103
0.212000,-0.008227,-0.000935,0.290015,0.999785,0.003913,-0.008445,0.018542,0.057288,0.039128,-0.151687,-1.278785,0.381709,0.007406,-0.019907,-0.822500,0.047506,0.049952,0.823366,0.015294,0.031612,-0.764967,0.076167,-0.040502,0.755146,-0.076097,0.861398,-2.090561,4.937165,0.340082,0.188505,0.942317,-1.006618,0.282107,-0.288794,-0.598294,2.268497,-5.529873
0.214000,-0.008108,-0.000851,0.289693,0.999792,0.002575,-0.008038,0.018579,0.059339,0.041923,-0.161300,-1.329672,0.431920,0.046647,-0.018939,-0.826465,0.053591,0.050545,0.823766,0.015573,0.029470,-0.764328,0.075511,-0.042287,0.759075,-0.082576,0.483530,-1.982461,3.042454,0.296519,0.199975,0.139520,-1.070887,0.319650,-0.328017,-0.892325,1.964107,-3.239347
0.216000,-0.007972,-0.000712,0.289310,0.999797,0.001719,-0.007585,0.018592,0.067838,0.069833,-0.191310,-0.847516,0.468904,0.018663,-0.018849,-0.832836,0.068106,0.050089,0.823808,0.017046,0.028431,-0.763942,0.075393,-0.042146,0.764648,-0.094484,0.045464,-3.185811,7.257730,-0.227885,0.021150,0.736549,-0.519388,0.192835,-0.058912,0.070282,2.786806,-5.954181
0.218000,-0.007837,-0.000534,0.288912,0.999801,0.001096,-0.007065,0.018649,0.067562,0.088623,-0.198945,-0.613098,0.532103,0.061255,-0.020564,-0.838643,0.077367,0.049383,0.824354,0.016869,0.027872,-0.763521,0.075327,-0.041846,0.769407,-0.101543,-0.857828,-2.903433,4.630580,-0.353094,0.272842,-0.088663,-0.279795,0.210584,-0.032747,0.150005,2.379611,-3.529482
0.220000,-0.007683,-0.000349,0.288454,0.999804,0.000493,-0.006545,0.018664,0.077067,0.092855,-0.229418,-0.592882,0.530557,0.017920,-0.021912,-0.846475,0.093572,0.048959,0.825641,0.015177,0.027462,-0.763288,0.075587,-0.040716,0.776355,-0.116714,-0.673679,-3.916099,8.102195,-0.212077,0.643590,-0.846116,-0.204992,0.116351,0.129763,0.565039,3.473665,-7.585399
0.222000,-0.007528,-0.000177,0.288001,0.999807,-0.000287,-0.006038,0.018707,0.077486,0.085679,-0.226161,-0.770630,0.521673,0.048448,-0.023621,-0.853533,0.103783,0.049069,0.827314,0.012461,0.026648,-0.763030,0.075712,-0.040750,0.782634,-0.127433,-0.854520,-3.528883,5.105723,0.055320,0.836586,-1.358088,-0.407167,0.129291,0.062648,-0.017097,3.139616,-5.359680
0.224000,-0.007358,-0.000032,0.287516,0.999809,-0.001255,-0.005588,0.018699,0.084780,0.072477,-0.242504,-0.958879,0.467929,-0.002352,-0.023873,-0.862595,0.121527,0.049854,0.829485,0.008934,0.025512,-0.762948,0.076019,-0.040829,0.790812,-0.145167,-0.126249,-4.530890,8.871616,0.392526,1.085610,-1.763297,-0.567815,0.041106,0.153483,-0.039343,4.088845,-8.866705
0.226000,-0.007197,0.000116,0.287067,0.999809,-0.002122,-0.005170,0.018721,0.080822,0.073998,-0.224585,-0.858650,0.434503,0.027017,-0.024814,-0.870991,0.134591,0.050562,0.831601,0.005287,0.024527,-0.762914,0.076299,-0.041620,0.797829,-0.156698,-0.470266,-4.198266,6.532064,0.354093,1.057915,-1.823359,-0.492342,0.016939,0.139747,-0.395466,3.508777,-5.765363
0.228000,-0.007032,0.000280,0.286616,0.999810,-0.002712,-0.004822,0.018694,0.082506,0.082012,-0.225329,-0.584184,0.358794,-0.022693,-0.025423,-0.881077,0.154658,0.050940,0.833720,0.001783,0.024181,-0.763179,0.076968,-0.041322,0.806312,-0.174052,-0.304510,-5.042691,10.033830,0.188706,1.059663,-1.752134,-0.173303,-0.132483,0.334685,0.148891,4.241230,-8.677201
0.230000,-0.006879,0.000458,0.286223,0.999810,-0.003084,-0.004547,0.018685,0.076319,0.089254,-0.196916,-0.366590,0.282145,-0.006281,-0.027000,-0.890157,0.169083,0.050965,0.835540,-0.001221,0.024249,-0.763579,0.077683,-0.041242,0.813958,-0.187221,-0.788859,-4.539955,7.212280,0.012439,0.909679,-1.501928,0.034122,-0.199912,0.357386,0.040033,3.823256,-6.584429
0.232000,-0.006728,0.000624,0.285844,0.999811,-0.003447,-0.004369,0.018622,0.075409,0.083126,-0.189236,-0.359376,0.185287,-0.061053,-0.027592,-0.900370,0.188821,0.051174,0.837342,-0.003946,0.024388,-0.764158,0.078550,-0.040782,0.823030,-0.206631,-0.295693,-5.106565,9.869298,0.104586,0.901154,-1.362443,0.069431,-0.289510,0.433641,0.230121,4.536075,-9.704933
0.234000,-0.006595,0.000775,0.285526,0.999811,-0.003851,-0.004251,0.018570,0.066827,0.075258,-0.158801,-0.402329,0.125072,-0.050245,-0.028294,-0.909634,0.204231,0.051549,0.838902,-0.006286,0.024381,-0.764669,0.079193,-0.041299,0.831118,-0.221652,-0.351368,-4.631810,7.704643,0.187678,0.779899,-1.169929,-0.003527,-0.255535,0.321587,-0.258845,4.044039,-7.510513
0.236000,-0.006470,0.000906,0.285233,0.999811,-0.004303,-0.004202,0.018469,0.062195,0.065302,-0.146653,-0.451151,0.058220,-0.098177,-0.027918,-0.919827,0.224889,0.052188,0.840396,-0.008358,0.024302,-0.765187,0.079803,-0.041778,0.840058,-0.240831,0.188072,-5.096722,10.328892,0.319505,0.747103,-1.036104,-0.039096,-0.259070,0.304723,-0.239175,4.469562,-9.589650
0.238000,-0.006366,0.001037,0.285000,0.999812,-0.004649,-0.004189,0.018378,0.052074,0.065951,-0.116444,-0.346662,0.019427,-0.089681,-0.028131,-0.929128,0.241847,0.052659,0.841575,-0.009954,0.024396,-0.765609,0.080224,-0.042710,0.848023,-0.255946,-0.106264,-4.650719,8.479202,0.235325,0.589592,-0.798248,0.046642,-0.211030,0.210663,-0.466216,3.982477,-7.557638
0.240000,-0.006274,0.001174,0.284797,0.999813,-0.004847,-0.004228,0.018248,0.046118,0.068469,-0.101666,-0.199016,-0.035136,-0.129972,-0.028174,-0.938969,0.262183,0.052938,0.842577,-0.011118,0.024831,-0.766063,0.080689,-0.042998,0.856688,-0.274646,-0.021410,-4.920339,10.167803,0.139384,0.500864,-0.581864,0.217444,-0.227270,0.232575,-0.143817,4.332555,-9.349746
0.242000,-0.006199,0.001317,0.284650,0.999814,-0.004916,-0.004309,0.018120,0.037588,0.071508,-0.073640,-0.071243,-0.078345,-0.127892,-0.028924,-0.948017,0.278980,0.052985,0.843280,-0.011765,0.025499,-0.766471,0.081031,-0.043430,0.864750,-0.290721,-0.374918,-4.523802,8.398701,0.023568,0.351557,-0.323465,0.334172,-0.203555,0.170819,-0.216333,4.031278,-8.037519
0.244000,-0.006134,0.001453,0.284536,0.999817,-0.004949,-0.004445,0.017961,0.032548,0.067985,-0.056794,-0.035428,-0.134977,-0.159625,-0.029336,-0.957405,0.297890,0.053047,0.843834,-0.012006,0.026250,-0.766894,0.081350,-0.043668,0.873282,-0.308918,-0.206071,-4.694135,9.454994,0.031169,0.277070,-0.120456,0.375417,-0.211733,0.159742,-0.118776,4.266118,-9.098729
0.246000,-0.006082,0.001576,0.284472,0.999818,-0.005013,-0.004626,0.017800,0.025965,0.061342,-0.031852,-0.068142,-0.178468,-0.161634,-0.029796,-0.966327,0.314687,0.053214,0.844190,-0.011857,0.026888,-0.767250,0.081494,-0.044468,0.881324,-0.324619,-0.230302,-4.460770,8.398455,0.083567,0.178079,0.074498,0.318937,-0.177977,0.071746,-0.399943,4.020601,-7.850531
0.248000,-0.006039,0.001677,0.284439,0.999820,-0.005194,-0.004851,0.017615,0.021339,0.050618,-0.016472,-0.185614,-0.221147,-0.184842,-0.029652,-0.975420,0.332749,0.053685,0.844491,-0.011499,0.027271,-0.767549,0.081501,-0.045568,0.889601,-0.341412,0.072221,-4.546983,9.031198,0.235125,0.150178,0.178931,0.191521,-0.149314,0.003698,-0.550199,4.138791,-8.396513
0.250000,-0.006009,0.001772,0.284443,0.999821,-0.005382,-0.005096,0.017428,0.015056,0.047350,0.001870,-0.193413,-0.240738,-0.187525,-0.029710,-0.984133,0.349270,0.054184,0.844664,-0.010924,0.027607,-0.767756,0.081357,-0.046915,0.897521,-0.356752,-0.028835,-4.356390,8.260619,0.249807,0.086682,0.287593,0.168304,-0.103678,-0.071971,-0.673230,3.960059,-7.669772
0.252000,-0.005991,0.001870,0.284474,0.999822,-0.005498,-0.005348,0.017233,0.008940,0.049128,0.015185,-0.121604,-0.248489,-0.195387,-0.030123,-0.992628,0.365437,0.054546,0.844730,-0.010181,0.028080,-0.767893,0.081140,-0.048037,0.905295,-0.371923,-0.206761,-4.247285,8.083508,0.181095,0.032799,0.371467,0.236427,-0.068407,-0.108360,-0.561129,3.886846,-7.585447
0.254000,-0.005986,0.001974,0.284529,0.999824,-0.005540,-0.005594,0.017037,0.002556,0.051649,0.027728,-0.047267,-0.245021,-0.197147,-0.031014,-1.000781,0.380697,0.054751,0.844693,-0.009323,0.028688,-0.767936,0.080834,-0.048961,0.912751,-0.386320,-0.445718,-4.076523,7.629705,0.102540,-0.018338,0.429150,0.303916,-0.021736,-0.153292,-0.461922,3.728034,-7.198561
0.256000,-0.005993,0.002075,0.284607,0.999826,-0.005573,-0.005835,0.016843,-0.003486,0.050877,0.038976,-0.038497,-0.239185,-0.195014,-0.032213,-1.008490,0.394891,0.054927,0.844594,-0.008425,0.029285,-0.767878,0.080414,-0.049899,0.919797,-0.399529,-0.599231,-3.854359,7.097016,0.087740,-0.049710,0.448876,0.298479,0.029290,-0.209800,-0.469075,3.523151,-6.604651
0.258000,-0.006009,0.002164,0.284700,0.999827,-0.005706,-0.006078,0.016644,-0.008215,0.044324,0.046668,-0.137998,-0.239530,-0.199689,-0.033171,-1.015993,0.409192,0.055307,0.844510,-0.007578,0.029654,-0.767720,0.079866,-0.050984,0.926678,-0.412796,-0.478872,-3.751582,7.150430,0.190196,-0.042055,0.423399,0.184458,0.078885,-0.273971,-0.542697,3.440423,-6.633465
0.260000,-0.006035,0.002238,0.284815,0.999827,-0.005968,-0.006324,0.016456,-0.013050,0.037181,0.057285,-0.267287,-0.239862,-0.188158,-0.034136,-1.022777,0.421131,0.055922,0.844424,-0.006783,0.029711,-0.767464,0.079155,-0.052545,0.932992,-0.424177,-0.482728,-3.392052,5.969530,0.307493,-0.042710,0.397459,0.028382,0.128115,-0.355439,-0.780158,3.156945,-5.690246
0.262000,-0.006069,0.002307,0.284939,0.999827,-0.006265,-0.006570,0.016263,-0.016937,0.034531,0.061858,-0.301857,-0.240065,-0.192051,-0.034910,-1.029394,0.433642,0.056601,0.844347,-0.006018,0.029683,-0.767167,0.078407,-0.053927,0.939204,-0.436096,-0.387102,-3.308349,6.255455,0.339424,-0.038633,0.382473,-0.013957,0.148192,-0.374463,-0.691303,3.106095,-5.959667
0.264000,-0.006114,0.002385,0.285083,0.999826,-0.006479,-0.006803,0.016093,-0.022149,0.038921,0.072208,-0.219054,-0.228709,-0.169932,-0.036380,-1.035087,0.443181,0.057056,0.844166,-0.005183,0.029780,-0.766837,0.077624,-0.055251,0.944577,-0.444895,-0.734596,-2.846819,4.769514,0.227497,-0.090621,0.417519,0.048705,0.165289,-0.391335,-0.661862,2.686548,-4.399315
0.266000,-0.006164,0.002466,0.285231,0.999826,-0.006654,-0.007039,0.015919,-0.025232,0.040215,0.074012,-0.179596,-0.232469,-0.174978,-0.037662,-1.040694,0.454083,0.057423,0.843975,-0.004327,0.029955,-0.766532,0.076902,-0.056042,0.949949,-0.454850,-0.641237,-2.803446,5.451238,0.183632,-0.095412,0.428296,0.087548,0.152194,-0.360801,-0.395441,2.685984,-4.977587
0.268000,-0.006223,0.002546,0.285400,0.999826,-0.006842,-0.007278,0.015772,-0.029285,0.039976,0.084338,-0.192792,-0.234166,-0.147202,-0.039361,-1.045190,0.461187,0.057756,0.843712,-0.003418,0.030048,-0.766218,0.076128,-0.057106,0.954417,-0.461363,-0.849610,-2.247755,3.551773,0.166443,-0.131230,0.454447,0.046176,0.156930,-0.387289,-0.531962,2.233670,-3.256583
0.270000,-0.006284,0.002614,0.285568,0.999824,-0.007128,-0.007538,0.015618,-0.030899,0.034076,0.084257,-0.291718,-0.254610,-0.153924,-0.040267,-1.049641,0.470020,0.058292,0.843509,-0.002541,0.029931,-0.765952,0.075390,-0.057966,0.959008,-0.469735,-0.452927,-2.225792,4.416489,0.267660,-0.101717,0.438287,-0.058265,0.133361,-0.368847,-0.429984,2.295786,-4.185881
0.272000,-0.006353,0.002677,0.285757,0.999821,-0.007477,-0.007805,0.015497,-0.034498,0.031743,0.094537,-0.353644,-0.260546,-0.119687,-0.041491,-1.052814,0.474353,0.058883,0.843246,-0.001630,0.029625,-0.765679,0.074577,-0.059342,0.962553,-0.474111,-0.612185,-1.586368,2.166670,0.295545,-0.131285,0.455498,-0.153283,0.136256,-0.406389,-0.688287,1.772139,-2.188362
0.274000,-0.006426,0.002740,0.285942,0.999819,-0.007821,-0.008084,0.015371,-0.036438,0.031427,0.092430,-0.349159,-0.273401,-0.125792,-0.042123,-1.055986,0.481044,0.059462,0.843006,-0.000714,0.029333,-0.765472,0.073863,-0.060176,0.966183,-0.480463,-0.316004,-1.585881,3.345654,0.289466,-0.120345,0.457926,-0.145878,0.103577,-0.357280,-0.416829,1.815162,-3.175733
0.276000,-0.006508,0.002817,0.286145,0.999816,-0.008055,-0.008349,0.015281,-0.041133,0.038552,0.101683,-0.238783,-0.259971,-0.089721,-0.043603,-1.057839,0.483494,0.059737,0.842630,0.000296,0.029221,-0.765246,0.073123,-0.061044,0.968625,-0.482313,-0.739879,-0.926910,1.224885,0.137675,-0.187656,0.505164,-0.056075,0.112942,-0.369932,-0.434042,1.221154,-0.925124
0.278000,-0.006594,0.002895,0.286341,0.999813,-0.008283,-0.008624,0.015183,-0.042742,0.038987,0.097674,-0.233314,-0.271268,-0.098705,-0.044440,-1.059743,0.488582,0.060001,0.842290,0.001293,0.029139,-0.765077,0.072478,-0.061281,0.971253,-0.486684,-0.418217,-0.951527,2.543712,0.132042,-0.170245,0.498287,-0.041064,0.084498,-0.322373,-0.118473,1.313813,-2.185344
0.280000,-0.006686,0.002974,0.286552,0.999810,-0.008549,-0.008899,0.015120,-0.045852,0.039332,0.105504,-0.270512,-0.270337,-0.062635,-0.045722,-1.060327,0.488892,0.060264,0.841893,0.002300,0.028932,-0.764885,0.071749,-0.061985,0.972821,-0.487003,-0.641265,-0.292049,0.155087,0.131688,-0.198601,0.503918,-0.103085,0.096012,-0.364581,-0.351914,0.783848,-0.159668
0.282000,-0.006778,0.003044,0.286751,0.999805,-0.008904,-0.009193,0.015048,-0.046190,0.035250,0.099773,-0.359884,-0.287989,-0.071582,-0.046058,-1.061043,0.491763,0.060713,0.841586,0.003228,0.028561,-0.764747,0.071080,-0.062369,0.974658,-0.489984,-0.168158,-0.358405,1.435617,0.224181,-0.153267,0.463858,-0.185590,0.069226,-0.334674,-0.191903,0.918918,-1.490216
0.284000,-0.006876,0.003120,0.286962,0.999800,-0.009251,-0.009478,0.015013,-0.048970,0.038076,0.105519,-0.351658,-0.279038,-0.034068,-0.046974,-1.060567,0.490169,0.061067,0.841217,0.004154,0.028163,-0.764585,0.070348,-0.063168,0.975422,-0.488567,-0.457679,0.238201,-0.796794,0.176993,-0.184717,0.462824,-0.198886,0.080784,-0.365909,-0.399391,0.381906,0.708325
0.286000,-0.006975,0.003201,0.287158,0.999794,-0.009573,-0.009767,0.014970,-0.049419,0.040145,0.097623,-0.326988,-0.284438,-0.042227,-0.047300,-1.060337,0.491528,0.061370,0.840902,0.005023,0.027844,-0.764486,0.069733,-0.063354,0.976450,-0.489583,-0.162970,0.115184,0.679466,0.151736,-0.157541,0.434457,-0.159479,0.049483,-0.307548,-0.093017,0.513685,-0.507792
0.288000,-0.007078,0.003294,0.287357,0.999789,-0.009822,-0.010046,0.014960,-0.051438,0.046674,0.099426,-0.252930,-0.274404,-0.009932,-0.048305,-1.059191,0.489427,0.061452,0.840526,0.005898,0.027651,-0.764402,0.069133,-0.063665,0.976652,-0.487229,-0.502659,0.572654,-1.050541,0.040995,-0.187736,0.437424,-0.096640,0.041986,-0.299961,-0.155846,0.101425,1.176607
0.290000,-0.007179,0.003388,0.287536,0.999784,-0.010096,-0.010337,0.014943,-0.050682,0.046730,0.089882,-0.278662,-0.286907,-0.017085,-0.048667,-1.058354,0.489867,0.061586,0.840240,0.006684,0.027434,-0.764401,0.068652,-0.063563,0.977242,-0.487547,-0.180964,0.418719,0.219905,0.066888,-0.143212,0.393356,-0.108790,0.000680,-0.240392,0.051342,0.294707,-0.159049
0.292000,-0.007281,0.003484,0.287715,0.999778,-0.010390,-0.010632,0.014955,-0.050988,0.048394,0.089177,-0.298783,-0.290424,0.012155,-0.049386,-1.056850,0.487188,0.061701,0.839951,0.007435,0.027150,-0.764443,0.068187,-0.063878,0.977259,-0.485276,-0.359698,0.751797,-1.339449,0.057725,-0.144339,0.375190,-0.141884,-0.021059,-0.232250,-0.157678,0.008738,1.135705
0.294000,-0.007381,0.003580,0.287874,0.999771,-0.010723,-0.010939,0.014965,-0.049776,0.047666,0.079655,-0.337578,-0.302438,0.009981,-0.049568,-1.055683,0.486518,0.061893,0.839748,0.008093,0.026806,-0.764566,0.067830,-0.064033,0.977589,-0.484825,-0.090803,0.583575,-0.335320,0.095702,-0.101515,0.329220,-0.171714,-0.061749,-0.178494,-0.077737,0.164790,0.225665
0.296000,-0.007479,0.003682,0.288023,0.999764,-0.011028,-0.011246,0.014993,-0.049435,0.051073,0.074634,-0.309073,-0.302914,0.028702,-0.050043,-1.054327,0.484758,0.061990,0.839552,0.008713,0.026515,-0.764751,0.067550,-0.064365,0.977673,-0.482944,-0.237516,0.677923,-0.879861,0.048632,-0.098017,0.309986,-0.145883,-0.092405,-0.140173,-0.165793,0.042309,0.940411
0.298000,-0.007576,0.003789,0.288153,0.999756,-0.011312,-0.011559,0.015021,-0.048209,0.053639,0.064763,-0.287818,-0.308784,0.027864,-0.050344,-1.053346,0.484660,0.062040,0.839411,0.009270,0.026290,-0.765017,0.067396,-0.064473,0.978079,-0.482473,-0.150238,0.490691,-0.048787,0.024943,-0.070239,0.278497,-0.112348,-0.132685,-0.077139,-0.053889,0.202884,0.235615
0.300000,-0.007668,0.003903,0.288263,0.999749,-0.011566,-0.011881,0.015056,-0.046225,0.057082,0.054921,-0.259077,-0.318491,0.033783,-0.050786,-1.052674,0.485087,0.062016,0.839321,0.009779,0.026141,-0.765391,0.067388,-0.064553,0.978787,-0.482732,-0.221176,0.336174,0.213174,-0.011801,-0.045453,0.254332,-0.074209,-0.187096,-0.004057,-0.040094,0.353913,-0.129514
0.302000,-0.007757,0.004020,0.288355,0.999741,-0.011834,-0.012211,0.015096,-0.044227,0.058344,0.046233,-0.272246,-0.326888,0.039838,-0.051280,-1.052317,0.485703,0.062007,0.839287,0.010220,0.025979,-0.765843,0.067475,-0.064761,0.979764,-0.483437,-0.246849,0.178350,0.308294,-0.004932,-0.016577,0.220643,-0.081109,-0.225985,0.043609,-0.104161,0.488391,-0.352438
0.304000,-0.007848,0.004140,0.288450,0.999733,-0.012111,-0.012524,0.015157,-0.045772,0.060221,0.047690,-0.281405,-0.309499,0.060505,-0.052277,-1.051511,0.483359,0.061980,0.839208,0.010635,0.025785,-0.766209,0.067452,-0.065412,0.980199,-0.480994,-0.498921,0.403061,-1.172001,-0.013245,-0.039574,0.207285,-0.097244,-0.183167,-0.011259,-0.325473,0.217501,1.221134
0.306000,-0.007944,0.004260,0.288542,0.999725,-0.012431,-0.012821,0.015216,-0.047898,0.059865,0.045642,-0.323064,-0.292952,0.059270,-0.053202,-1.050666,0.481028,0.062039,0.839128,0.010981,0.025522,-0.766463,0.067319,-0.066115,0.980557,-0.478400,-0.462065,0.422292,-1.165384,0.029282,-0.040113,0.173352,-0.131169,-0.127009,-0.066495,-0.351352,0.178948,1.297144
0.308000,-0.008053,0.004384,0.288651,0.999716,-0.012766,-0.013078,0.015289,-0.054499,0.061701,0.054474,-0.338715,-0.252245,0.074924,-0.054643,-1.048806,0.475148,0.062099,0.838925,0.011325,0.025219,-0.766454,0.066890,-0.067101,0.979922,-0.472291,-0.720587,0.930297,-2.939987,0.030174,-0.101733,0.171935,-0.151897,0.004608,-0.214723,-0.492967,-0.317564,3.054446
0.310000,-0.008173,0.004505,0.288758,0.999707,-0.013146,-0.013311,0.015337,-0.060040,0.060890,0.053561,-0.382324,-0.228421,0.049591,-0.055503,-1.046914,0.471785,0.062283,0.838703,0.011619,0.024877,-0.766243,0.066289,-0.067515,0.979413,-0.468905,-0.430239,0.945681,-1.681746,0.091864,-0.110691,0.147065,-0.170991,0.105673,-0.300672,-0.207169,-0.254324,1.693088
0.312000,-0.008311,0.004634,0.288891,0.999699,-0.013507,-0.013501,0.015399,-0.068960,0.064210,0.066786,-0.363270,-0.185071,0.064633,-0.056871,-1.043688,0.464621,0.062396,0.838299,0.011985,0.024560,-0.765743,0.065370,-0.068024,0.977623,-0.461751,-0.683963,1.613052,-3.582024,0.056569,-0.201918,0.182727,-0.158148,0.249609,-0.459473,-0.254351,-0.894872,3.576848
0.314000,-0.008460,0.004760,0.289027,0.999691,-0.013900,-0.013680,0.015437,-0.074206,0.063243,0.068068,-0.395058,-0.174040,0.041495,-0.057509,-1.040353,0.459803,0.062605,0.837858,0.012373,0.024218,-0.765107,0.064335,-0.067942,0.975840,-0.456917,-0.318834,1.667384,-2.408838,0.104600,-0.220873,0.194234,-0.170948,0.318258,-0.517099,0.041048,-0.891480,2.417159
0.316000,-0.008623,0.004895,0.289196,0.999683,-0.014250,-0.013832,0.015506,-0.081636,0.067308,0.084013,-0.351286,-0.147509,0.071789,-0.058764,-1.035477,0.449585,0.062669,0.837210,0.012914,0.023922,-0.764295,0.063074,-0.068195,0.972438,-0.446330,-0.627526,2.438032,-5.109329,0.031858,-0.323565,0.270184,-0.148030,0.406067,-0.630595,-0.126832,-1.701355,5.293517
0.318000,-0.008791,0.005026,0.289361,0.999674,-0.014639,-0.014003,0.015552,-0.083882,0.065338,0.082642,-0.390930,-0.165020,0.048752,-0.059010,-1.030704,0.442183,0.062843,0.836571,0.013515,0.023580,-0.763504,0.061853,-0.067851,0.969269,-0.438696,-0.122956,2.386592,-3.700830,0.087169,-0.319519,0.300640,-0.171444,0.395237,-0.610792,0.172065,-1.584213,3.816978
0.320000,-0.008968,0.005163,0.289551,0.999665,-0.014996,-0.014173,0.015631,-0.088539,0.068733,0.095127,-0.358725,-0.165750,0.081105,-0.059681,-1.024550,0.429588,0.062889,0.835781,0.014282,0.023255,-0.762691,0.060555,-0.067859,0.964695,-0.426129,-0.335644,3.077146,-6.297314,0.022881,-0.395376,0.383713,-0.162352,0.406372,-0.648864,-0.004032,-2.286945,6.283219
0.322000,-0.009144,0.005299,0.289728,0.999656,-0.015361,-0.014378,0.015685,-0.088392,0.068112,0.088467,-0.367560,-0.200286,0.056579,-0.059273,-1.018772,0.420793,0.062982,0.835047,0.015105,0.022951,-0.762031,0.059454,-0.067129,0.960643,-0.417586,0.204090,2.888743,-4.397892,0.046764,-0.366646,0.411204,-0.151934,0.330227,-0.550442,0.365128,-2.026176,4.271934
0.324000,-0.009328,0.005448,0.289923,0.999647,-0.015630,-0.014583,0.015780,-0.091864,0.074560,0.097376,-0.271570,-0.202146,0.096189,-0.059532,-1.011704,0.406926,0.062807,0.834175,0.016076,0.022788,-0.761423,0.058383,-0.066743,0.955124,-0.403504,-0.129707,3.534166,-6.933215,-0.087871,-0.436075,0.485640,-0.081529,0.304081,-0.535763,0.193178,-2.759366,7.041031
0.326000,-0.009510,0.005598,0.290098,0.999638,-0.015898,-0.014821,0.015859,-0.090688,0.074650,0.087682,-0.270330,-0.235143,0.078555,-0.058931,-1.005016,0.396503,0.062648,0.833392,0.017043,0.022659,-0.760998,0.057550,-0.065776,0.950074,-0.392796,0.300768,3.344234,-5.211757,-0.079164,-0.391689,0.483711,-0.064652,0.212213,-0.416308,0.483590,-2.525164,5.353616
0.328000,-0.009696,0.005753,0.290287,0.999628,-0.016151,-0.015061,0.015980,-0.093462,0.077630,0.094231,-0.255119,-0.238702,0.121886,-0.058976,-0.996970,0.380375,0.062381,0.832532,0.018058,0.022500,-0.760615,0.056714,-0.065477,0.943562,-0.376479,-0.022855,4.022691,-8.063734,-0.133566,-0.429844,0.507156,-0.079059,0.191822,-0.418139,0.149333,-3.255674,8.158640
0.330000,-0.009881,0.005904,0.290449,0.999618,-0.016455,-0.015331,0.016080,-0.092068,0.075590,0.081362,-0.306985,-0.266630,0.100334,-0.058134,-0.989355,0.367926,0.062246,0.831817,0.018967,0.022278,-0.760376,0.056077,-0.064693,0.937672,-0.364233,0.421102,3.807805,-6.224310,-0.067403,-0.357783,0.454620,-0.111489,0.119152,-0.318201,0.391828,-2.945208,6.122869
0.332000,-0.010071,0.006062,0.290618,0.999607,-0.016743,-0.015592,0.016216,-0.095301,0.078879,0.084585,-0.289579,-0.258042,0.136192,-0.057937,-0.980561,0.350793,0.062012,0.831051,0.019850,0.022047,-0.760127,0.055410,-0.064442,0.930477,-0.347230,0.098672,4.396591,-8.566629,-0.117435,-0.382739,0.441730,-0.115110,0.124728,-0.333651,0.125506,-3.597533,8.501745
0.334000,-0.010260,0.006221,0.290759,0.999596,-0.017034,-0.015863,0.016328,-0.094544,0.079416,0.070325,-0.294073,-0.268451,0.112160,-0.057090,-0.972288,0.337657,0.061817,0.830417,0.020597,0.021859,-0.759966,0.054913,-0.063577,0.923893,-0.334098,0.423222,4.136615,-6.568000,-0.097039,-0.317108,0.373137,-0.093950,0.080695,-0.248563,0.432468,-3.291865,6.566130
0.336000,-0.010457,0.006392,0.290905,0.999586,-0.017256,-0.016111,0.016476,-0.098147,0.085459,0.072903,-0.223982,-0.247208,0.146669,-0.057096,-0.962945,0.320011,0.061419,0.829709,0.021318,0.021780,-0.759757,0.054371,-0.063111,0.915984,-0.315842,-0.002718,4.671531,-8.822917,-0.199087,-0.353746,0.360621,-0.039877,0.104371,-0.270793,0.232991,-3.954538,9.127656
0.338000,-0.010650,0.006561,0.291024,0.999575,-0.017519,-0.016370,0.016598,-0.096916,0.084555,0.059460,-0.265288,-0.256968,0.122743,-0.056499,-0.954101,0.305597,0.061137,0.829140,0.021890,0.021668,-0.759608,0.053950,-0.062188,0.908713,-0.301135,0.298347,4.422052,-7.207265,-0.140953,-0.284632,0.286062,-0.055744,0.074318,-0.210555,0.461812,-3.635670,7.353803
0.340000,-0.010849,0.006732,0.291145,0.999563,-0.017816,-0.016621,0.016746,-0.099181,0.085506,0.060785,-0.298594,-0.247993,0.147880,-0.056374,-0.944396,0.287063,0.060878,0.828555,0.022401,0.021466,-0.759410,0.053450,-0.061799,0.900474,-0.282642,0.062664,4.852635,-9.266904,-0.129567,-0.292692,0.255598,-0.101294,0.098911,-0.249813,0.194116,-4.119667,9.246270
0.342000,-0.011044,0.006899,0.291240,0.999550,-0.018170,-0.016883,0.016865,-0.097433,0.083553,0.047506,-0.356251,-0.259052,0.120898,-0.055599,-0.935319,0.271897,0.060776,0.828109,0.022772,0.021202,-0.759265,0.053055,-0.061017,0.892965,-0.267796,0.387636,4.538479,-7.582978,-0.051234,-0.222795,0.185298,-0.131990,0.072828,-0.197614,0.391338,-3.754030,7.423019
0.344000,-0.011243,0.007074,0.291335,0.999538,-0.018483,-0.017131,0.017004,-0.099477,0.087492,0.047341,-0.315442,-0.245557,0.139624,-0.055341,-0.925723,0.253997,0.060558,0.827621,0.023125,0.021010,-0.759083,0.052630,-0.060512,0.884636,-0.249561,0.128876,4.797738,-8.950242,-0.108841,-0.244145,0.176641,-0.095970,0.091014,-0.212567,0.252190,-4.164916,9.117348
0.346000,-0.011438,0.007251,0.291407,0.999526,-0.018790,-0.017388,0.017121,-0.097865,0.088717,0.035814,-0.309314,-0.253202,0.117298,-0.054739,-0.916738,0.238910,0.060360,0.827222,0.023403,0.020882,-0.758960,0.052325,-0.059597,0.876901,-0.234023,0.301011,4.492762,-7.543110,-0.099123,-0.199531,0.138868,-0.063612,0.061240,-0.152351,0.457741,-3.867537,7.769115
0.348000,-0.011636,0.007435,0.291477,0.999513,-0.019079,-0.017642,0.017251,-0.098871,0.091684,0.035095,-0.290658,-0.251807,0.130911,-0.054565,-0.907376,0.221316,0.060098,0.826794,0.023690,0.020791,-0.758837,0.052017,-0.058960,0.868614,-0.216027,0.087040,4.680745,-8.797195,-0.130855,-0.213665,0.143739,-0.045760,0.061553,-0.154247,0.318396,-4.143378,8.998294
0.350000,-0.011830,0.007616,0.291527,0.999500,-0.019409,-0.017914,0.017361,-0.096849,0.090682,0.025273,-0.333560,-0.268171,0.110258,-0.054035,-0.898540,0.205747,0.059953,0.826462,0.023917,0.020659,-0.758779,0.051803,-0.058142,0.860951,-0.200602,0.264788,4.418081,-7.784578,-0.072716,-0.166431,0.113362,-0.065711,0.029286,-0.106772,0.409144,-3.831526,7.712413
0.352000,-0.012024,0.007798,0.291572,0.999486,-0.019763,-0.018191,0.017473,-0.096933,0.090966,0.022518,-0.357076,-0.273336,0.113531,-0.053649,-0.889652,0.189107,0.059849,0.826139,0.024131,0.020490,-0.758728,0.051594,-0.057600,0.853090,-0.184104,0.193336,4.443915,-8.319770,-0.052045,-0.161291,0.107088,-0.084958,0.025186,-0.104816,0.270745,-3.930156,8.248879
0.354000,-0.012215,0.007981,0.291601,0.999472,-0.020126,-0.018478,0.017569,-0.095528,0.091351,0.014423,-0.366029,-0.282639,0.096833,-0.053081,-0.881286,0.174341,0.059787,0.825876,0.024309,0.020342,-0.758721,0.051462,-0.056944,0.845683,-0.169235,0.283525,4.183236,-7.382961,-0.030743,-0.131312,0.088794,-0.073812,0.003650,-0.065936,0.328389,-3.703813,7.434324
0.356000,-0.012405,0.008168,0.291622,0.999458,-0.020460,-0.018767,0.017662,-0.095187,0.093869,0.010251,-0.337779,-0.285396,0.094259,-0.052710,-0.873149,0.159712,0.059671,0.825615,0.024495,0.020272,-0.758737,0.051376,-0.056362,0.838284,-0.153923,0.185766,4.068599,-7.314618,-0.058294,-0.130509,0.093159,-0.035173,-0.007931,-0.042886,0.290618,-3.699209,7.656112
0.358000,-0.012593,0.008359,0.291632,0.999444,-0.020797,-0.019067,0.017745,-0.093964,0.095268,0.004873,-0.340073,-0.296168,0.083141,-0.052382,-0.865343,0.145702,0.059570,0.825389,0.024680,0.020231,-0.758792,0.051348,-0.055766,0.831239,-0.139505,0.163862,3.902818,-7.004866,-0.050381,-0.113254,0.092644,-0.020369,-0.027731,-0.014130,0.297996,-3.522853,7.209105
0.360000,-0.012777,0.008551,0.291629,0.999430,-0.021151,-0.019383,0.017815,-0.092010,0.095830,-0.001192,-0.358697,-0.310618,0.070685,-0.052042,-0.858005,0.132604,0.059520,0.825214,0.024855,0.020188,-0.758900,0.051385,-0.055198,0.824687,-0.126450,0.170346,3.668993,-6.549418,-0.024981,-0.087603,0.087417,-0.021551,-0.053994,0.018728,0.284161,-3.275703,6.527585
0.362000,-0.012956,0.008740,0.291616,0.999413,-0.021574,-0.019723,0.017869,-0.089541,0.094953,-0.006393,-0.428397,-0.334305,0.055175,-0.051656,-0.850937,0.119503,0.059621,0.825113,0.025016,0.020047,-0.759064,0.051466,-0.054882,0.819834,-0.116755,0.192828,3.534137,-6.550268,0.050743,-0.050163,0.080422,-0.070619,-0.082110,0.040255,0.158213,-2.426520,4.847342
0.364000,-0.013135,0.008940,0.291590,0.999399,-0.021898,-0.020040,0.017915,-0.089291,0.099871,-0.013016,-0.328954,-0.312290,0.045504,-0.051435,-0.844746,0.109240,0.059538,0.825014,0.025126,0.020134,-0.759196,0.051587,-0.054461,0.816189,-0.109590,0.110620,3.095595,-5.131746,-0.041822,-0.049666,0.055106,0.043925,-0.065831,0.060650,0.210550,-1.822439,3.582717
0.366000,-0.013325,0.009159,0.291575,0.999390,-0.022033,-0.020286,0.017980,-0.095358,0.109613,-0.007938,-0.138146,-0.245306,0.062506,-0.052043,-0.838666,0.098344,0.059045,0.824747,0.025238,0.020592,-0.759095,0.051540,-0.053772,0.813124,-0.104023,-0.304178,3.039703,-5.447997,-0.246576,-0.133298,0.055624,0.228657,0.050381,-0.023741,0.344354,-1.532907,2.783362
0.368000,-0.013528,0.009388,0.291564,0.999386,-0.021980,-0.020431,0.018065,-0.101150,0.114495,-0.005454,0.052492,-0.146844,0.080645,-0.052973,-0.833610,0.090750,0.058175,0.824331,0.025228,0.021382,-0.758691,0.051287,-0.052832,0.810354,-0.099589,-0.465169,2.528193,-3.796912,-0.434652,-0.208022,-0.004629,0.395155,0.202045,-0.126352,0.469790,-1.384924,2.217052
0.370000,-0.013750,0.009612,0.291587,0.999385,-0.021895,-0.020458,0.018191,-0.111103,0.111882,0.011772,0.086876,-0.031845,0.123383,-0.054310,-0.828444,0.081019,0.057216,0.823694,0.025093,0.022127,-0.757787,0.050513,-0.052009,0.807503,-0.095735,-0.668175,2.582906,-4.865613,-0.479678,-0.318747,-0.067784,0.372523,0.451928,-0.387180,0.411760,-1.425255,1.927069
0.372000,-0.013981,0.009806,0.291626,0.999384,-0.021899,-0.020376,0.018339,-0.115408,0.096818,0.019313,0.000388,0.079152,0.150084,-0.054853,-0.824665,0.075657,0.056479,0.822990,0.024659,0.022560,-0.756460,0.049308,-0.051553,0.804672,-0.092481,-0.271479,1.889622,-2.680751,-0.368509,-0.352032,-0.216874,0.216637,0.663786,-0.602114,0.228093,-1.415699,1.627042
0.374000,-0.014224,0.009974,0.291705,0.999382,-0.021996,-0.020199,0.018537,-0.121850,0.084054,0.039374,-0.089876,0.174466,0.203671,-0.055281,-0.820896,0.067986,0.055914,0.822106,0.024105,0.022640,-0.754724,0.047606,-0.051492,0.801641,-0.089440,-0.214317,1.884105,-3.835660,-0.282415,-0.442009,-0.277238,0.039624,0.868139,-0.851206,0.030354,-1.515574,1.520314
0.376000,-0.014464,0.010116,0.291791,0.999381,-0.022090,-0.019958,0.018766,-0.119907,0.071080,0.043168,-0.084458,0.236582,0.236348,-0.054973,-0.818839,0.065486,0.055383,0.821164,0.023435,0.022578,-0.752898,0.045825,-0.051605,0.798668,-0.086787,0.154290,1.028502,-1.249833,-0.265367,-0.470781,-0.334912,-0.030578,0.912856,-0.890487,-0.056621,-1.486415,1.326234
0.378000,-0.014703,0.010251,0.291908,0.999380,-0.022097,-0.019691,0.019057,-0.119540,0.067632,0.058812,0.003872,0.261269,0.297076,-0.055120,-0.816698,0.059621,0.054636,0.820025,0.022941,0.022537,-0.751107,0.044021,-0.051727,0.795624,-0.084234,-0.073576,1.070795,-2.932344,-0.373571,-0.569389,-0.246842,-0.020910,0.895334,-0.902088,-0.060959,-1.521745,1.276509
0.380000,-0.014923,0.010379,0.292017,0.999383,-0.021933,-0.019433,0.019381,-0.109715,0.063761,0.054233,0.174995,0.247083,0.325980,-0.054967,-0.816363,0.059205,0.053574,0.818861,0.022590,0.022717,-0.749733,0.042689,-0.051638,0.792897,-0.082139,0.076638,0.167257,-0.208303,-0.531138,-0.582050,-0.175605,0.090403,0.686951,-0.665971,0.044645,-1.363703,1.047565
0.382000,-0.015127,0.010498,0.292143,0.999384,-0.021724,-0.019219,0.019757,-0.102043,0.059656,0.063193,0.220688,0.201834,0.375781,-0.055225,-0.815800,0.055075,0.052383,0.817617,0.022514,0.022782,-0.748934,0.041894,-0.051603,0.790424,-0.080362,-0.128982,0.281720,-2.065097,-0.595189,-0.622409,-0.038112,0.032460,0.399718,-0.397654,0.017391,-1.236539,0.888448
0.384000,-0.015302,0.010591,0.292249,0.999383,-0.021566,-0.019067,0.020133,-0.087526,0.046571,0.053081,0.167560,0.140417,0.376679,-0.054644,-0.816830,0.056467,0.051365,0.816533,0.022493,0.022672,-0.748604,0.041549,-0.051764,0.788600,-0.079361,0.290201,-0.515266,0.696070,-0.509462,-0.542010,-0.010356,-0.055294,0.164732,-0.172180,-0.080417,-0.912170,0.500560
0.386000,-0.015459,0.010666,0.292364,0.999377,-0.021530,-0.018986,0.020526,-0.078466,0.037201,0.057437,0.044948,0.071553,0.393939,-0.054171,-0.817322,0.054153,0.050589,0.815510,0.022641,0.022276,-0.748520,0.041312,-0.052241,0.787237,-0.078883,0.236647,-0.245991,-1.156670,-0.387956,-0.511220,0.074135,-0.197837,0.042090,-0.118586,-0.238751,-0.681107,0.239382
0.388000,-0.015589,0.010717,0.292452,0.999368,-0.021604,-0.018973,0.020895,-0.065050,0.025579,0.043925,-0.067076,0.006183,0.370088,-0.052982,-0.818959,0.056837,0.050112,0.814720,0.022764,0.021678,-0.748724,0.041338,-0.053090,0.786831,-0.079446,0.594647,-0.818192,1.341690,-0.238386,-0.395161,0.061403,-0.298888,-0.101723,0.012814,-0.424534,-0.203126,-0.281933
0.390000,-0.015708,0.010773,0.292543,0.999359,-0.021650,-0.019004,0.021265,-0.059651,0.027932,0.045345,-0.039227,-0.037448,0.370787,-0.052545,-0.819799,0.056064,0.049566,0.813949,0.023046,0.021168,-0.749056,0.041437,-0.053838,0.786666,-0.080265,0.218059,-0.420274,-0.386284,-0.272857,-0.385233,0.141006,-0.254931,-0.166216,0.049776,-0.373609,-0.082569,-0.409360
0.392000,-0.015812,0.010837,0.292609,0.999352,-0.021583,-0.019055,0.021606,-0.052084,0.031993,0.033263,0.071917,-0.059827,0.338407,-0.052314,-0.821314,0.059380,0.048845,0.813290,0.023343,0.020965,-0.749520,0.041732,-0.054254,0.787197,-0.081828,0.115813,-0.757174,1.658152,-0.360639,-0.329629,0.148586,-0.101749,-0.231972,0.147281,-0.208188,0.265371,-0.781465
0.394000,-0.015914,0.010910,0.292680,0.999346,-0.021478,-0.019113,0.021938,-0.050739,0.036759,0.035050,0.109735,-0.068364,0.328898,-0.052891,-0.821964,0.059676,0.048039,0.812634,0.023700,0.020894,-0.749929,0.041943,-0.054525,0.787711,-0.083369,-0.288376,-0.325168,0.147544,-0.402975,-0.328251,0.178537,-0.035259,-0.204474,0.105742,-0.135687,0.257086,-0.770736
0.396000,-0.016011,0.010978,0.292741,0.999339,-0.021435,-0.019165,0.022237,-0.048531,0.033828,0.030625,0.048191,-0.058520,0.296886,-0.053380,-0.822703,0.061773,0.047404,0.812082,0.023930,0.020767,-0.750191,0.042003,-0.054863,0.788360,-0.085079,-0.244919,-0.369657,1.048807,-0.317651,-0.275888,0.114856,-0.063616,-0.131195,0.029804,-0.169064,0.324569,-0.854802
0.398000,-0.016110,0.011037,0.292810,0.999331,-0.021512,-0.019200,0.022514,-0.049356,0.029567,0.034587,-0.072618,-0.039372,0.277696,-0.053962,-0.822801,0.061993,0.047032,0.811576,0.024053,0.020440,-0.750200,0.041746,-0.055385,0.788906,-0.086706,-0.290636,-0.048925,0.109947,-0.185907,-0.253067,0.061621,-0.163347,-0.004430,-0.128651,-0.260906,0.273004,-0.813507
0.400000,-0.016213,0.011086,0.292888,0.999321,-0.021705,-0.019200,0.022764,-0.051821,0.024322,0.038938,-0.188384,-0.001999,0.253898,-0.054356,-0.822514,0.061835,0.046927,0.811101,0.024032,0.019922,-0.749881,0.041116,-0.056079,0.789269,-0.088169,-0.197411,0.143849,-0.078893,-0.052260,-0.237486,-0.010687,-0.259322,0.159496,-0.314876,-0.346908,0.181662,-0.731406
0.402000,-0.016323,0.011136,0.292976,0.999312,-0.021884,-0.019157,0.022999,-0.055065,0.024947,0.044002,-0.173548,0.042504,0.239353,-0.054837,-0.821967,0.061494,0.046812,0.810581,0.023953,0.019463,-0.749287,0.040210,-0.056694,0.789338,-0.089305,-0.240515,0.273412,-0.170724,-0.057800,-0.259935,-0.039403,-0.229468,0.297270,-0.453056,-0.307683,0.034441,-0.568151
0.404000,-0.016441,0.011228,0.293082,0.999314,-0.021645,-0.019044,0.023262,-0.058807,0.046255,0.052984,0.246542,0.101204,0.260824,-0.056534,-0.820883,0.055867,0.045801,0.809822,0.024052,0.019855,-0.748613,0.039346,-0.056435,0.788749,-0.089579,-0.848051,0.541794,-2.813645,-0.505526,-0.379263,0.049439,0.196180,0.336943,-0.431599,0.129813,-0.294751,-0.136980
0.406000,-0.016562,0.011336,0.293190,0.999322,-0.021117,-0.018844,0.023532,-0.060709,0.054187,0.054286,0.537466,0.181644,0.263898,-0.058223,-0.820582,0.052010,0.044235,0.808937,0.024115,0.020808,-0.747786,0.038477,-0.055592,0.787582,-0.089138,-0.844825,0.150676,-1.928094,-0.782898,-0.442434,0.031359,0.476448,0.413274,-0.434475,0.421425,-0.583215,0.220681
0.408000,-0.016681,0.011421,0.293293,0.999332,-0.020613,-0.018574,0.023786,-0.059127,0.042187,0.051151,0.514746,0.253574,0.249816,-0.058616,-0.821612,0.053192,0.042883,0.808224,0.023801,0.021657,-0.746757,0.037479,-0.054835,0.786091,-0.088330,-0.196320,-0.515186,0.590968,-0.675861,-0.356585,-0.156992,0.424542,0.514751,-0.499073,0.378241,-0.745451,0.404012
0.410000,-0.016789,0.011461,0.293395,0.999336,-0.020379,-0.018292,0.024020,-0.054130,0.020271,0.051208,0.244596,0.270886,0.235055,-0.057476,-0.823137,0.055342,0.042241,0.807782,0.023137,0.021897,-0.745623,0.036318,-0.054679,0.784602,-0.087520,0.569765,-0.762543,1.074725,-0.320869,-0.221129,-0.331976,0.119922,0.566779,-0.580852,0.078001,-0.744908,0.404762
0.412000,-0.016882,0.011463,0.293503,0.999334,-0.020457,-0.018057,0.024242,-0.046657,0.000745,0.054148,-0.067855,0.232023,0.228259,-0.055340,-0.824108,0.053427,0.042319,0.807558,0.022349,0.021430,-0.744663,0.035209,-0.055200,0.783350,-0.086936,1.068017,-0.485319,-0.957211,0.038882,-0.111837,-0.394029,-0.233419,0.480214,-0.554495,-0.260439,-0.625576,0.292263
0.414000,-0.016965,0.011471,0.293608,0.999333,-0.020411,-0.017854,0.024467,-0.041214,0.003836,0.052378,0.054385,0.197041,0.227917,-0.053482,-0.824651,0.049046,0.042127,0.807245,0.021829,0.021198,-0.744102,0.034535,-0.055477,0.782187,-0.086333,0.928914,-0.271597,-2.190837,-0.095997,-0.156669,-0.259932,-0.116156,0.280503,-0.336678,-0.138576,-0.581810,0.301578
0.416000,-0.017041,0.011516,0.293693,0.999341,-0.019899,-0.017648,0.024696,-0.038022,0.022647,0.042232,0.521486,0.189597,0.223172,-0.052627,-0.825403,0.046618,0.040982,0.806752,0.021651,0.022028,-0.744037,0.034538,-0.054780,0.780943,-0.085498,0.427547,-0.376021,-1.213609,-0.572804,-0.246623,-0.088893,0.414841,0.032603,0.001340,0.348902,-0.621863,0.417317
0.418000,-0.017112,0.011580,0.293756,0.999355,-0.019091,-0.017426,0.024914,-0.035685,0.032024,0.031756,0.817106,0.197647,0.208150,-0.052299,-0.826420,0.047255,0.039268,0.806165,0.021632,0.023487,-0.744165,0.034890,-0.053461,0.779646,-0.084521,0.164070,-0.508536,0.318207,-0.856565,-0.293377,-0.009637,0.729673,-0.064209,0.175803,0.659218,-0.648361,0.488479
0.420000,-0.017177,0.011625,0.293807,0.999368,-0.018389,-0.017207,0.025107,-0.032496,0.022744,0.025425,0.710645,0.197630,0.184001,-0.051740,-0.827104,0.048217,0.037882,0.805741,0.021447,0.024710,-0.744196,0.035154,-0.052354,0.778477,-0.083682,0.279424,-0.342136,0.481320,-0.693213,-0.212180,-0.092472,0.611773,-0.015681,0.132056,0.553633,-0.584894,0.419641
0.422000,-0.017234,0.011630,0.293853,0.999373,-0.018043,-0.017013,0.025267,-0.028261,0.002451,0.023058,0.353511,0.181943,0.158213,-0.050574,-0.826933,0.046684,0.037353,0.805602,0.020968,0.025187,-0.744066,0.035147,-0.051980,0.777568,-0.083167,0.583177,0.085485,-0.766836,-0.264290,-0.069421,-0.239357,0.238201,0.065219,-0.003161,0.187192,-0.454198,0.257472
0.424000,-0.017282,0.011594,0.293893,0.999373,-0.018060,-0.016836,0.025395,-0.024330,-0.018176,0.020020,-0.010207,0.174965,0.130596,-0.048772,-0.826041,0.043179,0.037700,0.805755,0.020159,0.024912,-0.743743,0.034841,-0.052346,0.776899,-0.082966,0.900923,0.446184,-1.752296,0.173121,0.076641,-0.404585,-0.137567,0.161394,-0.152943,-0.183195,-0.334675,0.100428
0.426000,-0.017328,0.011558,0.293918,0.999374,-0.017997,-0.016639,0.025503,-0.022607,-0.018135,0.012357,0.069668,0.194207,0.110641,-0.047222,-0.825244,0.041428,0.037921,0.805870,0.019369,0.024804,-0.743358,0.034548,-0.052531,0.776206,-0.082718,0.775306,0.398314,-0.875430,0.110479,0.057467,-0.394783,-0.054025,0.192460,-0.146627,-0.092486,-0.346588,0.124083
0.428000,-0.017371,0.011553,0.293923,0.999384,-0.017544,-0.016402,0.025606,-0.021860,-0.002325,0.002524,0.460039,0.223601,0.099758,-0.046681,-0.824916,0.042629,0.037334,0.805789,0.018808,0.025507,-0.743033,0.034502,-0.051889,0.775329,-0.082186,0.270089,0.164317,0.600271,-0.293074,-0.040553,-0.280499,0.351463,0.162427,-0.023166,0.321016,-0.438049,0.265671
0.430000,-0.017409,0.011565,0.293917,0.999396,-0.016883,-0.016157,0.025706,-0.019137,0.006066,-0.002796,0.669470,0.225902,0.092808,-0.046907,-0.824579,0.043500,0.036309,0.805577,0.018465,0.026642,-0.742789,0.034617,-0.050806,0.774412,-0.081533,-0.112978,0.168299,0.435319,-0.512956,-0.105837,-0.171712,0.567648,0.122371,0.057765,0.541315,-0.458924,0.326771
0.432000,-0.017438,0.011566,0.293908,0.999407,-0.016302,-0.015935,0.025795,-0.014145,0.000521,-0.004455,0.587843,0.206030,0.082780,-0.047229,-0.823880,0.041746,0.035456,0.805363,0.018215,0.027604,-0.742576,0.034718,-0.049895,0.773637,-0.080998,-0.160593,0.349411,-0.877012,-0.426323,-0.107276,-0.124763,0.480973,0.106178,0.050226,0.455523,-0.387387,0.267363
0.434000,-0.017454,0.011536,0.293894,0.999414,-0.015960,-0.015731,0.025863,-0.008291,-0.015082,-0.007022,0.348516,0.193558,0.065674,-0.046952,-0.823180,0.039016,0.035143,0.805239,0.017896,0.028058,-0.742315,0.034684,-0.049492,0.773054,-0.080679,0.138172,0.349956,-1.364956,-0.156385,-0.061850,-0.159460,0.227145,0.130658,-0.016838,0.201429,-0.291563,0.159736
0.436000,-0.017460,0.011469,0.293870,0.999418,-0.015885,-0.015530,0.025905,-0.002682,-0.033572,-0.012083,0.080239,0.198220,0.044362,-0.045775,-0.822868,0.037414,0.035451,0.805254,0.017381,0.027944,-0.741945,0.034471,-0.049659,0.772631,-0.080570,0.588441,0.156154,-0.800775,0.153711,0.007705,-0.257631,-0.056873,0.185148,-0.106474,-0.083311,-0.211610,0.054285
0.438000,-0.017457,0.011393,0.293833,0.999421,-0.015812,-0.015313,0.025934,0.001176,-0.038144,-0.018543,0.079176,0.214592,0.030658,-0.044420,-0.823072,0.037667,0.035791,0.805296,0.016812,0.027821,-0.741548,0.034262,-0.049835,0.772209,-0.080452,0.677581,-0.101802,0.126252,0.170019,0.020846,-0.284484,-0.061770,0.198374,-0.104762,-0.087772,-0.210544,0.058843
0.440000,-0.017450,0.011333,0.293786,0.999428,-0.015536,-0.015079,0.025962,0.003630,-0.029788,-0.023686,0.282371,0.226999,0.027582,-0.043735,-0.823381,0.037846,0.035703,0.805267,0.016346,0.028120,-0.741221,0.034205,-0.049585,0.771699,-0.080176,0.342397,-0.154592,0.089527,-0.043662,-0.014335,-0.233190,0.149504,0.163375,-0.028573,0.124757,-0.255217,0.138233
0.442000,-0.017438,0.011290,0.293732,0.999438,-0.015077,-0.014834,0.025992,0.005844,-0.021280,-0.026794,0.465927,0.231799,0.027114,-0.043826,-0.823476,0.036478,0.035222,0.805167,0.016002,0.028802,-0.740974,0.034289,-0.048951,0.771116,-0.079755,-0.045462,-0.047667,-0.683693,-0.240755,-0.050339,-0.171762,0.340990,0.123351,0.042255,0.317009,-0.291431,0.210341
0.444000,-0.017422,0.011251,0.293672,0.999449,-0.014558,-0.014582,0.026016,0.008332,-0.019783,-0.030061,0.525492,0.238442,0.019764,-0.044248,-0.823416,0.034249,0.034621,0.805061,0.015674,0.029610,-0.740745,0.034420,-0.048189,0.770517,-0.079284,-0.210890,0.030213,-1.114630,-0.300498,-0.052785,-0.164385,0.403913,0.114749,0.065510,0.380751,-0.299394,0.235466
0.446000,-0.017399,0.011195,0.293604,0.999459,-0.014133,-0.014319,0.026022,0.011180,-0.028092,-0.034197,0.432547,0.252493,0.003061,-0.044329,-0.823496,0.032979,0.034247,0.805029,0.015217,0.030222,-0.740443,0.034476,-0.047623,0.769953,-0.078861,-0.040308,-0.040195,-0.634794,-0.187024,-0.015856,-0.228466,0.305990,0.151115,0.027834,0.283263,-0.282381,0.211726
0.448000,-0.017370,0.011108,0.293528,0.999466,-0.013937,-0.014049,0.026003,0.014493,-0.043439,-0.037789,0.201993,0.264285,-0.017815,-0.043686,-0.823643,0.032526,0.034395,0.805139,0.014530,0.030354,-0.740013,0.034354,-0.047537,0.769489,-0.078591,0.321351,-0.073440,-0.226450,0.073914,0.054745,-0.343343,0.066119,0.214696,-0.060676,0.042838,-0.231546,0.134971
0.450000,-0.017336,0.011004,0.293447,0.999472,-0.013854,-0.013777,0.025968,0.017309,-0.051808,-0.040589,0.090340,0.270745,-0.033022,-0.042746,-0.823710,0.032100,0.034798,0.805327,0.013727,0.030257,-0.739528,0.034158,-0.047682,0.769087,-0.078396,0.470248,-0.033606,-0.213416,0.201543,0.094012,-0.401433,-0.048646,0.242598,-0.098296,-0.072322,-0.201239,0.097331
0.452000,-0.017297,0.010943,0.293362,0.999483,-0.013332,-0.013510,0.025966,0.019623,-0.030620,-0.042399,0.528388,0.253598,-0.005639,-0.043188,-0.823055,0.026355,0.034238,0.805351,0.013214,0.030876,-0.739768,0.035399,-0.046947,0.768515,-0.077855,-0.221303,0.327911,-2.872168,-0.279832,0.012277,-0.256640,0.309461,-0.119852,0.620406,0.367501,-0.285983,0.270816
0.454000,-0.017256,0.010906,0.293264,0.999498,-0.012456,-0.013204,0.025970,0.020055,-0.018310,-0.049279,0.883753,0.283248,-0.004082,-0.044101,-0.822777,0.021738,0.032967,0.805277,0.012766,0.032183,-0.740181,0.036925,-0.045494,0.767703,-0.076961,-0.456380,0.138767,-2.308743,-0.635432,-0.037397,-0.223783,0.653778,-0.206376,0.762985,0.726233,-0.405816,0.446915
0.456000,-0.017206,0.010849,0.293127,0.999513,-0.011605,-0.012838,0.025973,0.025418,-0.028884,-0.068340,0.859831,0.344041,-0.004305,-0.044152,-0.823513,0.021839,0.032146,0.805680,0.011193,0.032965,-0.741234,0.039980,-0.044153,0.766796,-0.076033,-0.025423,-0.367829,0.050699,-0.410410,0.201779,-0.786447,0.391183,-0.526545,1.527606,0.670565,-0.453495,0.463732
0.458000,-0.017148,0.010753,0.292968,0.999525,-0.011001,-0.012438,0.025948,0.028994,-0.047621,-0.079244,0.613940,0.384161,-0.027980,-0.043053,-0.824494,0.023385,0.032171,0.806548,0.008749,0.033246,-0.742107,0.042650,-0.043338,0.765941,-0.075249,0.549393,-0.490741,0.773045,0.012192,0.433649,-1.222274,0.140261,-0.436613,1.335316,0.407651,-0.427648,0.392267
0.460000,-0.017065,0.010620,0.292766,0.999533,-0.010771,-0.012038,0.025946,0.041221,-0.066821,-0.101118,0.240289,0.393990,-0.001411,-0.041218,-0.824859,0.021329,0.032767,0.809483,-0.000885,0.031987,-0.744435,0.049170,-0.043369,0.765355,-0.074914,0.917581,-0.182649,-1.028002,0.298247,1.467906,-4.816636,-0.629475,-1.163818,3.259622,-0.015481,-0.293136,0.167209
0.462000,-0.016974,0.010502,0.292555,0.999543,-0.010338,-0.011640,0.025921,0.045779,-0.058932,-0.105766,0.443792,0.387287,-0.026013,-0.039984,-0.824632,0.016797,0.033592,0.811926,-0.005545,0.031588,-0.746653,0.052661,-0.042949,0.764810,-0.074525,0.616750,0.113569,-2.266036,0.412418,1.221182,-2.330435,-0.199398,-1.109066,1.745856,0.210204,-0.272404,0.194647
0.464000,-0.016858,0.010434,0.292273,0.999557,-0.009354,-0.011237,0.025936,0.057829,-0.033805,-0.140657,0.994312,0.377408,0.007695,-0.040102,-0.824830,0.013961,0.032751,0.816282,-0.015885,0.031948,-0.751299,0.063915,-0.041453,0.764340,-0.074163,-0.058776,-0.098625,-1.418284,-0.420601,2.178041,-5.169753,0.179879,-2.323102,5.626629,0.747912,-0.235267,0.181125
0.466000,-0.016739,0.010379,0.291970,0.999573,-0.008137,-0.010783,0.025910,0.059720,-0.027475,-0.151600,1.228192,0.422467,-0.036050,-0.040454,-0.825290,0.013947,0.032226,0.820270,-0.021738,0.033467,-0.755359,0.070696,-0.039434,0.763763,-0.073639,-0.176036,-0.230057,-0.006961,-0.262518,1.994255,-2.926535,0.759592,-2.029909,3.390658,1.009484,-0.288383,0.262056
0.468000,-0.016596,0.010302,0.291600,0.999586,-0.007101,-0.010300,0.025912,0.071267,-0.038827,-0.184906,1.047369,0.455588,-0.005244,-0.040405,-0.825707,0.014044,0.031699,0.826878,-0.036848,0.033864,-0.761289,0.083620,-0.037884,0.763356,-0.073480,0.024561,-0.208700,0.048503,-0.263145,3.303796,-7.555003,0.198375,-2.964968,6.462094,0.775085,-0.203152,0.079172
0.470000,-0.016449,0.010184,0.291229,0.999597,-0.006366,-0.009794,0.025869,0.073277,-0.058940,-0.185719,0.747939,0.487733,-0.047142,-0.039603,-0.825347,0.011830,0.032960,0.832894,-0.046459,0.034056,-0.766327,0.091144,-0.036942,0.763004,-0.073434,0.400998,0.180252,-1.107097,0.630429,3.007824,-4.805722,0.096023,-2.519269,3.761798,0.470970,-0.175979,0.023128
0.472000,-0.016280,0.010050,0.290794,0.999606,-0.005728,-0.009284,0.025871,0.084661,-0.066860,-0.217487,0.650804,0.493154,-0.001533,-0.038715,-0.824765,0.008223,0.034041,0.841180,-0.064069,0.033150,-0.773639,0.106885,-0.036322,0.762851,-0.073748,0.443680,0.290972,-1.803483,0.540406,4.143120,-8.804813,-0.452787,-3.656129,7.870377,0.310032,-0.076582,-0.156836
0.474000,-0.016113,0.009931,0.290348,0.999617,-0.004811,-0.008725,0.025836,0.083323,-0.059607,-0.222753,0.931278,0.535361,-0.040429,-0.038241,-0.824272,0.006209,0.035543,0.848442,-0.074842,0.033596,-0.780157,0.118099,-0.035098,0.762505,-0.073783,0.237125,0.246345,-1.006586,0.750931,3.631102,-5.386542,0.222886,-3.258665,5.607175,0.611822,-0.173276,-0.017383
0.476000,-0.015934,0.009841,0.289836,0.999627,-0.003544,-0.008122,0.025847,0.089705,-0.044981,-0.256321,1.282109,0.569872,0.002812,-0.038574,-0.824251,0.006107,0.035675,0.857688,-0.093331,0.034295,-0.788544,0.136473,-0.033244,0.762075,-0.073791,-0.166216,0.010563,-0.051414,0.065838,4.623028,-9.244345,0.349396,-4.193471,9.187107,0.927097,-0.214964,-0.004290
0.478000,-0.015760,0.009744,0.289321,0.999636,-0.002257,-0.007460,0.025822,0.087037,-0.048633,-0.257114,1.302770,0.628893,-0.033675,-0.038812,-0.823938,0.005507,0.036660,0.866107,-0.106663,0.035800,-0.795655,0.148567,-0.031326,0.761449,-0.073593,-0.119062,0.156295,-0.299568,0.492673,4.209448,-6.666156,0.752580,-3.555564,6.047068,0.958890,-0.312847,0.098865
0.480000,-0.015575,0.009631,0.288747,0.999643,-0.001050,-0.006746,0.025840,0.092450,-0.056048,-0.287413,1.225961,0.682304,0.010643,-0.039307,-0.824634,0.006955,0.037367,0.876368,-0.127832,0.036347,-0.804291,0.166845,-0.029686,0.760802,-0.073562,-0.247650,-0.347857,0.723562,0.353577,5.130645,-10.584651,0.273562,-4.318041,9.138883,0.820250,-0.323453,0.015609
0.482000,-0.015394,0.009487,0.288174,0.999648,-0.000043,-0.006000,0.025829,0.090677,-0.072356,-0.286383,1.025909,0.720061,-0.016971,-0.039602,-0.825841,0.009698,0.039514,0.885601,-0.143092,0.036828,-0.812038,0.180741,-0.028472,0.760097,-0.073517,-0.147681,-0.603341,1.371914,1.073278,4.616552,-7.629807,0.240261,-3.873340,6.947749,0.606746,-0.352683,0.022852
0.484000,-0.015201,0.009314,0.287569,0.999651,0.000701,-0.005286,0.025865,0.096417,-0.086602,-0.302212,0.762054,0.694452,0.031156,-0.039656,-0.827580,0.013328,0.041649,0.896279,-0.164298,0.035890,-0.821417,0.201012,-0.027918,0.759633,-0.073866,-0.026601,-0.869907,1.814712,1.067628,5.338752,-10.603180,-0.468874,-4.689715,10.135936,0.276968,-0.231927,-0.174728
0.486000,-0.015012,0.009131,0.286995,0.999653,0.001343,-0.004618,0.025881,0.094407,-0.091075,-0.287328,0.658804,0.650910,0.011941,-0.039672,-0.829497,0.017343,0.044355,0.906084,-0.180337,0.035405,-0.829989,0.216718,-0.027552,0.759280,-0.074259,-0.008168,-0.958098,2.007747,1.353253,4.902428,-8.019180,-0.242421,-4.285927,7.852629,0.183278,-0.176586,-0.196622
0.488000,-0.014819,0.008972,0.286426,0.999653,0.002081,-0.004046,0.025942,0.096472,-0.079717,-0.284537,0.753356,0.553470,0.057095,-0.040167,-0.831705,0.021587,0.045655,0.917020,-0.201223,0.035005,-0.839722,0.236594,-0.027029,0.759169,-0.074839,-0.247670,-1.103946,2.121830,0.649672,5.467923,-10.443213,-0.200175,-4.866762,9.938101,0.261438,-0.055233,-0.289780
0.490000,-0.014636,0.008828,0.285909,0.999652,0.002861,-0.003563,0.025993,0.091732,-0.071749,-0.258128,0.791849,0.462253,0.046205,-0.040905,-0.833867,0.025658,0.046649,0.927229,-0.218290,0.035625,-0.848622,0.252199,-0.026370,0.759185,-0.075382,-0.368904,-1.081368,2.035543,0.497047,5.104827,-8.533257,0.310330,-4.449595,7.802421,0.329223,0.008056,-0.271689
0.492000,-0.014457,0.008696,0.285417,0.999648,0.003627,-0.003181,0.026082,0.089342,-0.066021,-0.246213,0.776694,0.362609,0.085396,-0.041820,-0.836068,0.029542,0.046590,0.938174,-0.239357,0.036096,-0.858328,0.271673,-0.025771,0.759401,-0.076074,-0.457622,-1.100548,1.941811,-0.029251,5.472354,-10.533697,0.235462,-4.853126,9.736923,0.299615,0.107901,-0.345679
0.494000,-0.014294,0.008549,0.284980,0.999645,0.004177,-0.002869,0.026160,0.081345,-0.073786,-0.218466,0.557713,0.297299,0.075755,-0.042367,-0.838024,0.032998,0.047080,0.948269,-0.257068,0.036642,-0.867200,0.288340,-0.025592,0.759693,-0.076775,-0.273423,-0.977638,1.728212,0.244677,5.047712,-8.855389,0.272811,-4.436226,8.333657,0.089479,0.145825,-0.350924
0.496000,-0.014145,0.008379,0.284579,0.999642,0.004423,-0.002627,0.026261,0.074688,-0.085148,-0.200757,0.252786,0.235671,0.099047,-0.042402,-0.839770,0.036013,0.047759,0.958514,-0.276981,0.036369,-0.876226,0.306988,-0.026063,0.760099,-0.077625,-0.017202,-0.873101,1.507483,0.339553,5.122462,-9.956649,-0.136520,-4.512620,9.324093,-0.235392,0.203172,-0.425052
0.498000,-0.014015,0.008199,0.284233,0.999639,0.004513,-0.002441,0.026355,0.064837,-0.089720,-0.172602,0.095199,0.184494,0.093174,-0.042174,-0.841244,0.038582,0.048879,0.967906,-0.294213,0.036275,-0.884429,0.323190,-0.026821,0.760486,-0.078389,0.113853,-0.737321,1.284558,0.560288,4.695675,-8.615966,-0.047220,-4.101878,8.101060,-0.379173,0.193577,-0.381605
0.500000,-0.013902,0.008037,0.283931,0.999636,0.004680,-0.002319,0.026472,0.056459,-0.080978,-0.151223,0.170010,0.117877,0.115388,-0.042215,-0.842604,0.040837,0.049315,0.977135,-0.312460,0.036512,-0.892687,0.340713,-0.027412,0.760841,-0.079022,-0.020781,-0.679661,1.127572,0.218009,4.614903,-9.123254,0.118569,-4.129097,8.761188,-0.295652,0.177474,-0.316459
0.502000,-0.013808,0.007893,0.283681,0.999632,0.004934,-0.002251,0.026594,0.047136,-0.071958,-0.124795,0.256466,0.061975,0.121568,-0.042515,-0.843793,0.042747,0.049378,0.985770,-0.329358,0.037423,-0.900479,0.356887,-0.027784,0.761111,-0.079440,-0.149619,-0.594585,0.954673,0.031081,4.317308,-8.449431,0.455719,-3.895684,8.087423,-0.185935,0.134668,-0.208984
0.504000,-0.013730,0.007758,0.283479,0.999627,0.005191,-0.002238,0.026731,0.039214,-0.067595,-0.101275,0.257245,0.006761,0.136364,-0.042892,-0.844802,0.044259,0.049195,0.994054,-0.346085,0.038510,-0.908128,0.372992,-0.028133,0.761341,-0.079732,-0.188551,-0.504726,0.755972,-0.091326,4.142048,-8.363368,0.543579,-3.824471,8.052169,-0.174524,0.115369,-0.146402
0.506000,-0.013666,0.007614,0.283325,0.999622,0.005289,-0.002271,0.026876,0.031811,-0.071953,-0.077022,0.097773,-0.035142,0.145248,-0.042988,-0.845558,0.045285,0.049359,1.001932,-0.362044,0.039357,-0.915466,0.388042,-0.028790,0.761553,-0.079965,-0.048215,-0.377625,0.513258,0.081927,3.938960,-7.979493,0.423211,-3.669094,7.525064,-0.328393,0.105813,-0.116562
0.508000,-0.013616,0.007458,0.283220,0.999618,0.005202,-0.002351,0.027027,0.025068,-0.077893,-0.052483,-0.088453,-0.076558,0.151567,-0.042737,-0.846042,0.045792,0.050049,1.009294,-0.376684,0.039870,-0.922460,0.401650,-0.029806,0.761767,-0.080165,0.125530,-0.242114,0.253572,0.344900,3.681116,-7.319892,0.256550,-3.496773,6.803840,-0.507709,0.107035,-0.099892
0.510000,-0.013577,0.007306,0.283158,0.999614,0.005070,-0.002485,0.027194,0.019524,-0.075968,-0.030988,-0.136054,-0.129431,0.167650,-0.042448,-0.846341,0.045853,0.050670,1.016445,-0.391247,0.040233,-0.929449,0.415343,-0.030898,0.761993,-0.080312,0.144762,-0.149522,0.030350,0.310489,3.575378,-7.281273,0.181551,-3.494739,6.846969,-0.546427,0.112788,-0.073263
0.512000,-0.013550,0.007173,0.283146,0.999609,0.005038,-0.002671,0.027362,0.013398,-0.066797,-0.005925,-0.036575,-0.184846,0.169497,-0.042403,-0.846484,0.045531,0.051137,1.022896,-0.403324,0.041131,-0.936025,0.427252,-0.031734,0.762190,-0.080295,0.022545,-0.071614,-0.160949,0.233810,3.225690,-6.038812,0.449083,-3.288034,5.954462,-0.417537,0.098777,0.008433
0.514000,-0.013534,0.007060,0.283168,0.999603,0.005122,-0.002897,0.027548,0.007856,-0.056442,0.010943,0.079045,-0.227091,0.186690,-0.042656,-0.846560,0.044977,0.051017,1.029263,-0.416213,0.042230,-0.942601,0.439777,-0.032302,0.762342,-0.080147,-0.126668,-0.038132,-0.277141,-0.060229,3.183214,-6.444542,0.549438,-3.288118,6.262073,-0.284442,0.075808,0.073932
0.516000,-0.013533,0.006954,0.283233,0.999597,0.005235,-0.003135,0.027721,0.000500,-0.052750,0.032393,0.106456,-0.239925,0.174624,-0.042958,-0.846490,0.044215,0.051252,1.034696,-0.425945,0.043745,-0.948287,0.449135,-0.032754,0.762382,-0.079805,-0.150865,0.035349,-0.380992,0.117585,2.716810,-4.866027,0.757431,-2.842822,4.679361,-0.225581,0.019836,0.171035
0.518000,-0.013544,0.006847,0.283318,0.999591,0.005281,-0.003379,0.027908,-0.005310,-0.053822,0.042866,0.039710,-0.243922,0.188353,-0.043145,-0.846338,0.043320,0.051523,1.040050,-0.437134,0.044731,-0.953853,0.459489,-0.033333,0.762351,-0.079409,-0.093491,0.075853,-0.447531,0.135287,2.676804,-5.594374,0.493237,-2.782922,5.176964,-0.289718,-0.015405,0.197772
0.520000,-0.013569,0.006731,0.283439,0.999586,0.005239,-0.003610,0.028074,-0.012561,-0.058047,0.060507,-0.047696,-0.229671,0.167036,-0.043104,-0.846028,0.042294,0.052720,1.044246,-0.444428,0.045753,-0.958312,0.466157,-0.034036,0.762196,-0.078866,0.020362,0.155037,-0.513036,0.598844,2.098093,-3.647123,0.510860,-2.229783,3.333898,-0.351340,-0.077394,0.271707
0.522000,-0.013603,0.006622,0.283570,0.999580,0.005245,-0.003845,0.028255,-0.017085,-0.054143,0.065477,0.000446,-0.234024,0.182332,-0.043183,-0.845741,0.041287,0.053551,1.048415,-0.453566,0.046361,-0.962849,0.474850,-0.034635,0.761980,-0.078266,-0.039360,0.143388,-0.503235,0.415519,2.084544,-4.569008,0.303954,-2.268334,4.346707,-0.299610,-0.107868,0.299799
0.524000,-0.013649,0.006526,0.283731,0.999574,0.005369,-0.004072,0.028410,-0.022846,-0.048236,0.080188,0.118151,-0.229409,0.155597,-0.043452,-0.845412,0.040304,0.054725,1.051346,-0.458146,0.047617,-0.966307,0.479657,-0.034921,0.761649,-0.077465,-0.134815,0.164386,-0.491369,0.586920,1.465402,-2.289905,0.627984,-1.728870,2.403102,-0.142898,-0.165381,0.400669
0.526000,-0.013700,0.006444,0.283893,0.999567,0.005600,-0.004305,0.028579,-0.025623,-0.041156,0.081223,0.225067,-0.238362,0.169709,-0.043961,-0.845164,0.039407,0.055164,1.054395,-0.465167,0.048578,-0.969938,0.486533,-0.034981,0.761300,-0.076642,-0.254418,0.124086,-0.448852,0.219600,1.524313,-3.510668,0.480783,-1.815852,3.438089,-0.030224,-0.174706,0.411623
0.528000,-0.013760,0.006361,0.284080,0.999560,0.005840,-0.004530,0.028715,-0.029671,-0.041209,0.093389,0.233812,-0.230918,0.136164,-0.044415,-0.844843,0.038488,0.056208,1.056221,-0.467529,0.049921,-0.972430,0.488853,-0.034955,0.760906,-0.075723,-0.227107,0.160732,-0.459349,0.521619,0.913330,-1.180869,0.671251,-1.246008,1.160114,0.012887,-0.196797,0.459440
0.530000,-0.013821,0.006277,0.284262,0.999554,0.006045,-0.004765,0.028862,-0.030666,-0.042028,0.091151,0.199197,-0.240595,0.148037,-0.044801,-0.844562,0.037578,0.056814,1.058243,-0.472640,0.050473,-0.975187,0.493506,-0.035010,0.760582,-0.074920,-0.192733,0.140241,-0.454919,0.303308,1.010914,-2.555510,0.276253,-1.378167,2.326407,-0.027327,-0.162003,0.401262
0.532000,-0.013887,0.006184,0.284464,0.999549,0.006186,-0.005001,0.028972,-0.033168,-0.046374,0.100763,0.134671,-0.239270,0.110423,-0.044968,-0.844190,0.036594,0.058197,1.059047,-0.472994,0.051199,-0.976855,0.493702,-0.035135,0.760293,-0.074124,-0.083550,0.186286,-0.491988,0.691386,0.402017,-0.176862,0.362632,-0.833950,0.098164,-0.062719,-0.144782,0.398117
0.534000,-0.013953,0.006098,0.284656,0.999543,0.006374,-0.005260,0.029092,-0.033072,-0.043239,0.096099,0.180500,-0.263300,0.120513,-0.045234,-0.843904,0.035646,0.058828,1.060070,-0.476124,0.051381,-0.978887,0.496677,-0.035175,0.760118,-0.073464,-0.133198,0.143090,-0.474225,0.315547,0.511488,-1.565235,0.090970,-1.016185,1.487491,-0.019594,-0.087611,0.330098
0.536000,-0.014024,0.006015,0.284864,0.999537,0.006622,-0.005521,0.029173,-0.035463,-0.041443,0.104081,0.241258,-0.267771,0.082070,-0.045547,-0.843581,0.034700,0.059841,1.059880,-0.474491,0.052170,-0.979842,0.495353,-0.035027,0.759953,-0.072747,-0.156603,0.161041,-0.472782,0.506356,-0.095196,0.816854,0.394478,-0.477445,-0.662223,0.074042,-0.082424,0.358732
0.538000,-0.014096,0.005939,0.285060,0.999531,0.006931,-0.005799,0.029264,-0.035720,-0.037960,0.098041,0.300806,-0.285983,0.090858,-0.045988,-0.843349,0.033822,0.060054,1.059914,-0.475808,0.052536,-0.981087,0.496632,-0.034769,0.759871,-0.072134,-0.220401,0.116157,-0.439147,0.106471,0.017232,-0.658867,0.183207,-0.622354,0.639426,0.128824,-0.040975,0.306354
0.540000,-0.014171,0.005858,0.285265,0.999526,0.007224,-0.006074,0.029321,-0.037791,-0.040529,0.102339,0.284917,-0.282925,0.056979,-0.046321,-0.843069,0.032943,0.060759,1.058960,-0.473516,0.053210,-0.981393,0.494439,-0.034502,0.759804,-0.071510,-0.166550,0.139990,-0.439430,0.352583,-0.477216,1.146073,0.336975,-0.153359,-1.096183,0.133411,-0.033650,0.311705
0.542000,-0.014247,0.005773,0.285454,0.999520,0.007490,-0.006360,0.029384,-0.037622,-0.042362,0.094608,0.257907,-0.293355,0.063932,-0.046594,-0.842847,0.032106,0.061003,1.058263,-0.474021,0.053258,-0.981995,0.494785,-0.034315,0.759825,-0.071027,-0.136349,0.110932,-0.418308,0.122202,-0.348592,-0.252246,0.024011,-0.300865,0.172711,0.093338,0.010521,0.241473
0.544000,-0.014323,0.005679,0.285645,0.999515,0.007701,-0.006644,0.029417,-0.038419,-0.047257,0.095291,0.203654,-0.289638,0.033576,-0.046685,-0.842588,0.031274,0.061806,1.056842,-0.471619,0.053475,-0.981888,0.492300,-0.034213,0.759886,-0.070583,-0.045275,0.129507,-0.416349,0.401431,-0.710428,1.200672,0.108625,0.053338,-1.242427,0.051092,0.030760,0.222056
0.546000,-0.014398,0.005586,0.285818,0.999511,0.007947,-0.006940,0.029452,-0.037230,-0.046468,0.086725,0.236527,-0.303560,0.036338,-0.046836,-0.842417,0.030521,0.062128,1.055702,-0.471218,0.053416,-0.982106,0.491808,-0.034063,0.760037,-0.070254,-0.075553,0.085874,-0.376624,0.161050,-0.569908,0.200813,-0.029757,-0.109028,-0.246023,0.074893,0.075376,0.164795
0.548000,-0.014470,0.005494,0.285983,0.999506,0.008243,-0.007244,0.029467,-0.036245,-0.045887,0.082479,0.287319,-0.312005,0.015373,-0.047044,-0.842296,0.029849,0.062544,1.054298,-0.469220,0.053719,-0.982096,0.490116,-0.033796,0.760254,-0.069973,-0.104276,0.060320,-0.335546,0.207790,-0.702029,0.998749,0.151663,0.005425,-0.845682,0.133566,0.108693,0.140534
0.550000,-0.014539,0.005403,0.286129,0.999500,0.008570,-0.007557,0.029481,-0.034288,-0.045502,0.072797,0.318104,-0.322729,0.014781,-0.047305,-0.842265,0.029274,0.062625,1.053279,-0.468835,0.053912,-0.982434,0.489893,-0.033485,0.760559,-0.069803,-0.130500,0.015377,-0.287544,0.040537,-0.509522,0.192790,0.096336,-0.169187,-0.111689,0.155633,0.152292,0.084915
0.552000,-0.014602,0.005305,0.286254,0.999495,0.008855,-0.007879,0.029487,-0.031632,-0.049290,0.062726,0.275210,-0.330191,0.006122,-0.047451,-0.842289,0.028759,0.062836,1.052633,-0.469232,0.054028,-0.983054,0.490251,-0.033277,0.760979,-0.069790,-0.072668,-0.011884,-0.257458,0.105703,-0.322934,-0.198576,0.058171,-0.309809,0.179151,0.104128,0.210215,0.006591
