QPZ-918/AT_DOG_AMP/temp/gmr_data_csv/Vx-0.4.csv
time_sec,root_pos_x,root_pos_y,root_pos_z,root_quat_w,root_quat_x,root_quat_y,root_quat_z,base_lin_vel_x,base_lin_vel_y,base_lin_vel_z,base_ang_vel_x,base_ang_vel_y,base_ang_vel_z,FR_hip_joint,FR_thigh_joint,FR_calf_joint,FL_hip_joint,FL_thigh_joint,FL_calf_joint,RR_hip_joint,RR_thigh_joint,RR_calf_joint,RL_hip_joint,RL_thigh_joint,RL_calf_joint,FR_hip_joint_vel,FR_thigh_joint_vel,FR_calf_joint_vel,FL_hip_joint_vel,FL_thigh_joint_vel,FL_calf_joint_vel,RR_hip_joint_vel,RR_thigh_joint_vel,RR_calf_joint_vel,RL_hip_joint_vel,RL_thigh_joint_vel,RL_calf_joint_vel
0.002000,-1.048765,-0.831930,0.307909,0.961690,-0.003336,-0.035855,0.271765,-0.420604,-0.194468,0.044718,0.525166,0.945353,0.440616,-0.072833,-0.881538,-0.000362,0.065551,0.578048,0.254731,0.005531,-0.591072,-0.029352,-0.054986,0.883001,-0.050389,0.990223,2.368006,12.534266,-0.586814,-1.458792,-1.356109,-0.395216,1.080506,0.668018,0.198390,-4.186679,2.538339
0.004000,-1.049588,-0.832334,0.308088,0.961574,-0.003371,-0.034975,0.272289,-0.411653,-0.201871,0.089613,0.223470,0.849397,0.539536,-0.071552,-0.872063,0.000455,0.064700,0.574787,0.252870,0.003953,-0.590043,-0.027232,-0.055390,0.874632,-0.045120,0.640701,4.737319,0.408350,-0.425366,-1.630442,-0.930161,-0.789143,0.514564,1.060042,-0.201965,-4.184386,2.634220
0.006000,-1.050396,-0.832729,0.308359,0.961432,-0.003550,-0.034215,0.272884,-0.403657,-0.197505,0.135216,0.055888,0.772557,0.619907,-0.071295,-0.858689,-0.022175,0.063930,0.571189,0.251900,0.002214,-0.589609,-0.034166,-0.056233,0.866258,-0.039577,0.128330,6.686904,-11.315289,-0.384992,-1.798793,-0.485250,-0.869510,0.217170,-3.466937,-0.421330,-4.186759,2.771728
0.008000,-1.051205,-0.833060,0.308625,0.961275,-0.002938,-0.033280,0.273557,-0.404873,-0.165452,0.133437,0.865588,0.724299,0.671665,-0.072089,-0.846831,-0.044761,0.061430,0.567234,0.251907,0.002346,-0.591198,-0.036973,-0.055524,0.857788,-0.033576,-0.397002,5.929140,-11.292782,-1.250366,-1.977846,0.003370,0.065879,-0.794530,-1.403761,0.354619,-4.235175,3.000705
0.010000,-1.052001,-0.833350,0.308818,0.961127,-0.001498,-0.032026,0.274237,-0.398062,-0.145038,0.096222,1.749644,0.804262,0.650015,-0.071722,-0.841502,-0.042261,0.057428,0.563353,0.251871,0.004413,-0.594386,-0.036059,-0.053071,0.849104,-0.027156,0.183466,2.664573,1.249862,-2.000867,-1.940052,-0.017586,1.033432,-1.594184,0.457038,1.226321,-4.342075,3.210019
0.012000,-1.052736,-0.833676,0.308967,0.960989,-0.000303,-0.030844,0.274861,-0.367149,-0.163187,0.074568,1.492662,0.803001,0.601158,-0.068917,-0.839307,-0.029763,0.054524,0.560203,0.250930,0.006021,-0.597912,-0.033654,-0.051176,0.840979,-0.021313,1.402733,1.097248,6.249149,-1.451721,-1.575483,-0.470548,0.804320,-1.763121,1.202786,0.947816,-4.062366,2.921412
0.014000,-1.053386,-0.834086,0.309133,0.960858,-0.000240,-0.030124,0.275400,-0.325197,-0.204903,0.083183,0.275061,0.670461,0.552534,-0.064162,-0.834459,-0.033915,0.054621,0.558032,0.249026,0.005358,-0.600381,-0.032308,-0.051734,0.834130,-0.016894,2.377165,2.424218,-2.076157,0.048343,-1.085076,-0.951966,-0.331683,-1.234616,0.672741,-0.279026,-3.424829,2.209211
0.016000,-1.054003,-0.834525,0.309319,0.960737,-0.000631,-0.029622,0.275873,-0.308467,-0.219587,0.092977,-0.223585,0.586390,0.498803,-0.059728,-0.826920,-0.052902,0.056868,0.555333,0.257700,0.003873,-0.601386,-0.032329,-0.053203,0.828008,-0.013196,2.216867,3.769466,-9.493175,1.123235,-1.349615,4.336768,-0.742625,-0.502531,-0.010259,-0.734771,-3.060941,1.849027
0.018000,-1.054654,-0.834907,0.309438,0.960637,-0.000454,-0.028768,0.276313,-0.325504,-0.190752,0.059336,0.418052,0.768264,0.446483,-0.057258,-0.820837,-0.063827,0.057786,0.554582,0.261345,0.003959,-0.600923,-0.033063,-0.053171,0.821389,-0.009019,1.235190,3.041480,-5.462608,0.459200,-0.375551,1.822716,0.043327,0.231543,-0.367212,0.016324,-3.309198,2.088604
0.020000,-1.055354,-0.835209,0.309464,0.960553,0.000568,-0.027424,0.276739,-0.349957,-0.151100,0.012773,1.365402,1.006116,0.403587,-0.057053,-0.817564,-0.059384,0.056540,0.556120,0.257413,0.006209,-0.599276,-0.034074,-0.051027,0.813989,-0.004076,0.102730,1.636532,2.221639,-0.622875,0.769118,-1.966025,1.124727,0.823735,-0.505209,1.071610,-3.700255,2.471399
0.022000,-1.056069,-0.835472,0.309451,0.960475,0.001868,-0.025946,0.277150,-0.357379,-0.131830,-0.006093,1.669353,1.058471,0.379200,-0.058507,-0.814025,-0.055055,0.054674,0.558242,0.251804,0.009641,-0.596796,-0.041758,-0.048156,0.806567,0.000900,-0.727039,1.769301,2.164140,-0.933332,1.060839,-2.804727,1.716151,1.239786,-3.842051,1.435554,-3.710887,2.488117
0.024000,-1.056743,-0.835752,0.309439,0.960377,0.002869,-0.024752,0.277589,-0.336902,-0.139578,-0.006228,1.303623,0.867655,0.421263,-0.060407,-0.808057,-0.063477,0.053409,0.559778,0.246849,0.011513,-0.596249,-0.045303,-0.046311,0.800222,0.004794,-0.949919,2.984163,-4.211111,-0.632441,0.767901,-2.477643,0.936193,0.273560,-1.772624,0.922741,-3.172679,1.946938
0.026000,-1.057347,-0.836086,0.309431,0.960264,0.003348,-0.023947,0.278045,-0.302339,-0.167216,-0.003771,0.695220,0.638314,0.454870,-0.060877,-0.801223,-0.077594,0.053085,0.560526,0.243175,0.010870,-0.598186,-0.042819,-0.046243,0.795261,0.007233,-0.235056,3.416803,-7.058340,-0.161676,0.373990,-1.836848,-0.321592,-0.968322,1.241756,0.034050,-2.480371,1.219606
0.028000,-1.057926,-0.836455,0.309419,0.960156,0.003815,-0.023227,0.278473,-0.289363,-0.184745,-0.006387,0.659186,0.560322,0.427530,-0.059980,-0.796239,-0.082544,0.052779,0.560275,0.240862,0.009765,-0.600685,-0.038728,-0.046272,0.790622,0.009466,0.448535,2.491891,-2.474807,-0.153198,-0.125579,-1.156424,-0.552638,-1.249349,2.045693,-0.014538,-2.319236,1.116548
0.030000,-1.058509,-0.836861,0.309409,0.960063,0.004448,-0.022460,0.278847,-0.291704,-0.202666,-0.004716,0.830762,0.559863,0.366954,-0.058405,-0.792878,-0.078245,0.054153,0.555450,0.261002,0.009310,-0.601920,-0.035709,-0.045880,0.785793,0.012024,0.787459,1.680489,2.149480,0.687182,-2.412091,10.070049,-0.227504,-0.617781,1.509417,0.196058,-2.414529,1.278832
0.032000,-1.059087,-0.837299,0.309366,0.959981,0.004578,-0.021672,0.279189,-0.288852,-0.218862,-0.021491,0.352323,0.719379,0.345170,-0.056570,-0.788388,-0.077578,0.056170,0.552971,0.269517,0.008218,-0.601379,-0.034578,-0.046319,0.780618,0.014662,0.917274,2.245442,0.333458,1.008381,-1.239630,4.257448,-0.546149,0.270787,0.565513,-0.219898,-2.587786,1.319086
0.034000,-1.059678,-0.837722,0.309280,0.959901,0.004424,-0.020771,0.279534,-0.295570,-0.211910,-0.042929,0.111566,0.908230,0.353139,-0.055898,-0.781893,-0.085516,0.057300,0.555026,0.256087,0.006984,-0.599309,-0.035051,-0.047070,0.774941,0.017554,0.336165,3.247427,-3.969177,0.565093,1.027613,-6.714785,-0.616703,1.034745,-0.236140,-0.375281,-2.838152,1.445944
0.036000,-1.060318,-0.838080,0.309192,0.959820,0.004917,-0.019620,0.279886,-0.319899,-0.178971,-0.044253,0.802498,0.967123,0.344191,-0.057473,-0.775159,-0.094781,0.056745,0.556416,0.244462,0.008295,-0.595760,-0.046390,-0.046249,0.768725,0.021208,-0.787534,3.366758,-4.632482,-0.277553,0.694887,-5.812759,0.655254,1.774625,-5.669597,0.410286,-3.108154,1.826935
0.038000,-1.060990,-0.838349,0.309087,0.959717,0.006623,-0.018265,0.280295,-0.335853,-0.134584,-0.052241,2.026156,0.822711,0.382108,-0.061141,-0.770506,-0.097114,0.053441,0.556411,0.236300,0.012008,-0.594740,-0.051623,-0.042981,0.762529,0.025324,-1.834279,2.326558,-1.166460,-1.652002,-0.002785,-4.080736,1.856584,0.509779,-2.616550,1.633938,-3.098171,2.058382
0.040000,-1.061613,-0.838629,0.308986,0.959593,0.008518,-0.017117,0.280740,-0.311413,-0.139964,-0.050563,2.148901,0.571686,0.419521,-0.063802,-0.767318,-0.096175,0.049819,0.555344,0.231319,0.014760,-0.597269,-0.046480,-0.039749,0.757244,0.028790,-1.330343,1.593872,0.469688,-1.810873,-0.533300,-2.490834,1.376060,-1.264162,2.571161,1.616281,-2.642615,1.732643
0.042000,-1.062175,-0.839087,0.308965,0.959498,0.009186,-0.016442,0.281083,-0.281312,-0.228806,-0.010447,0.836944,0.461069,0.338693,-0.062354,-0.762589,-0.104420,0.052011,0.547429,0.255840,0.014779,-0.597981,-0.042960,-0.039261,0.752504,0.031604,0.724124,2.364800,-4.122819,1.096033,-3.957543,12.260761,0.009216,-0.356165,1.760393,0.244143,-2.369943,1.407321
0.044000,-1.062685,-0.839691,0.308924,0.959441,0.008367,-0.015968,0.281333,-0.255075,-0.301967,-0.020605,-0.647264,0.686271,0.264394,-0.056908,-0.757497,-0.114021,0.057698,0.541065,0.268886,0.011936,-0.596242,-0.042420,-0.041723,0.747556,0.034055,2.722745,2.546095,-4.800464,2.843404,-3.182145,6.522844,-1.421079,0.869458,0.269901,-1.231308,-2.473707,1.225240
0.046000,-1.063213,-0.840280,0.308793,0.959397,0.007425,-0.015177,0.281553,-0.263804,-0.294612,-0.065473,-0.677580,1.025578,0.232225,-0.051404,-0.753855,-0.116327,0.061953,0.540479,0.253020,0.009292,-0.592801,-0.043385,-0.044058,0.741706,0.037085,2.752065,1.820949,-1.152711,2.127562,-0.292668,-7.932886,-1.322231,1.720425,-0.482373,-1.167325,-2.925150,1.514910
0.048000,-1.063841,-0.840723,0.308626,0.959341,0.007957,-0.013817,0.281800,-0.313783,-0.221621,-0.083717,0.897192,1.155920,0.234291,-0.050209,-0.751084,-0.115369,0.061872,0.540828,0.232438,0.010452,-0.589100,-0.043706,-0.042969,0.734852,0.041495,0.597765,1.385544,0.478849,-0.040631,0.174443,-10.291365,0.580028,1.850757,-0.160713,0.544259,-3.426892,2.205214
0.050000,-1.064539,-0.840987,0.308439,0.959257,0.010355,-0.012135,0.282085,-0.349430,-0.131702,-0.093492,2.779593,0.939044,0.250824,-0.054177,-0.748098,-0.119070,0.057460,0.539743,0.224725,0.016144,-0.587848,-0.034654,-0.037929,0.728245,0.046363,-1.984206,1.492822,-1.850380,-2.205993,-0.542764,-3.856302,2.846087,0.625970,4.526170,2.520424,-3.303414,2.434115
0.052000,-1.065194,-0.841274,0.308274,0.959187,0.012547,-0.010687,0.282293,-0.327088,-0.143641,-0.082555,2.513949,0.771713,0.178243,-0.057297,-0.744244,-0.128012,0.054810,0.536461,0.234604,0.021540,-0.586333,-0.029404,-0.033379,0.722843,0.050201,-1.560122,1.926877,-4.471175,-1.324884,-1.640761,4.939639,2.697715,0.757106,2.624954,2.274997,-2.701301,1.918608
0.054000,-1.065654,-0.841717,0.307972,0.959148,0.012470,-0.009815,0.282461,-0.230350,-0.221292,-0.150798,0.175008,0.859836,0.161589,-0.055432,-0.741605,-0.133276,0.056541,0.540964,0.215281,0.020172,-0.586566,-0.020059,-0.034433,0.719249,0.051126,0.932639,1.319717,-2.632052,0.865124,2.251445,-9.661643,-0.683773,-0.116239,4.672315,-0.527424,-1.796712,0.462779
0.056000,-1.066026,-0.842235,0.307626,0.959136,0.011464,-0.009176,0.282566,-0.186096,-0.259053,-0.172750,-0.783693,0.898675,0.105681,-0.051488,-0.739932,-0.134855,0.061008,0.546949,0.195140,0.016427,-0.586686,-0.015606,-0.037462,0.716196,0.051252,1.972135,0.836346,-0.789193,2.233900,2.992421,-10.070299,-1.872454,-0.060138,2.226725,-1.514412,-1.526591,0.062879
0.058000,-1.066387,-0.842640,0.307217,0.959093,0.011411,-0.008398,0.282738,-0.180514,-0.202374,-0.204968,0.171182,0.762439,0.168975,-0.050045,-0.739548,-0.134147,0.062715,0.555170,0.172595,0.014034,-0.591405,0.002354,-0.038485,0.713400,0.051514,0.721508,0.192046,0.354071,0.853162,4.110348,-11.272834,-1.196596,-2.359216,8.979704,-0.511277,-1.397981,0.130880
0.060000,-1.066810,-0.842936,0.306857,0.959040,0.012656,-0.007376,0.282892,-0.211226,-0.148137,-0.179774,1.484915,0.629522,0.140263,-0.051644,-0.739835,-0.131917,0.062309,0.560266,0.170988,0.015772,-0.596176,0.014018,-0.036610,0.710231,0.052910,-0.799568,-0.143682,1.114527,-0.203033,2.548020,-0.803131,0.868937,-2.385708,5.832063,0.937594,-1.584489,0.697957
0.062000,-1.067212,-0.843178,0.306455,0.958968,0.013975,-0.006336,0.283099,-0.200835,-0.121286,-0.200826,1.561314,0.626716,0.196303,-0.053865,-0.740623,-0.128545,0.060080,0.570460,0.150018,0.017290,-0.603351,0.031020,-0.034533,0.707046,0.054423,-1.110411,-0.393942,1.685992,-1.114568,5.097432,-10.485172,0.759268,-3.587553,8.500987,1.038108,-1.592628,0.756870
0.064000,-1.067588,-0.843479,0.306101,0.958914,0.014578,-0.005493,0.283270,-0.188287,-0.150542,-0.177166,0.819496,0.639465,0.163948,-0.054761,-0.740917,-0.125384,0.059698,0.581161,0.129095,0.017662,-0.609187,0.038780,-0.033887,0.703749,0.056048,-0.447894,-0.147011,1.580723,-0.190510,5.350451,-10.461636,0.185820,-2.917844,3.879913,0.323084,-1.648437,0.812248
0.066000,-1.067893,-0.843835,0.305731,0.958852,0.014305,-0.004996,0.283500,-0.152176,-0.177700,-0.184951,-0.119459,0.556184,0.232330,-0.053998,-0.740994,-0.122739,0.060612,0.595282,0.094921,0.014632,-0.618099,0.057239,-0.035292,0.700992,0.056926,0.381102,-0.038219,1.322689,0.456653,7.060533,-17.086717,-1.514885,-4.456201,9.229714,-0.702579,-1.378345,0.439190
0.068000,-1.068213,-0.844210,0.305452,0.958796,0.014101,-0.004648,0.283706,-0.160071,-0.187688,-0.139694,-0.094514,0.394997,0.208577,-0.053361,-0.740684,-0.120784,0.062830,0.605775,0.080264,0.012233,-0.626809,0.072889,-0.036594,0.698291,0.058082,0.318587,0.154857,0.977422,1.109285,5.246474,-7.328805,-1.199515,-4.354859,7.825114,-0.650688,-1.350804,0.577963
0.070000,-1.068552,-0.844531,0.305181,0.958718,0.014281,-0.004311,0.283968,-0.169729,-0.160532,-0.135434,0.270032,0.274827,0.267921,-0.053754,-0.740579,-0.118768,0.063259,0.618172,0.057994,0.010468,-0.637900,0.097943,-0.037126,0.695714,0.059295,-0.196514,0.052508,1.007665,0.214189,6.198330,-11.134706,-0.882598,-5.545276,12.526879,-0.266209,-1.288177,0.606336
0.072000,-1.068946,-0.844837,0.304981,0.958649,0.014630,-0.003932,0.284188,-0.196906,-0.153012,-0.099768,0.444454,0.266792,0.223531,-0.054624,-0.740164,-0.116860,0.063349,0.629892,0.038082,0.010732,-0.646759,0.113240,-0.037086,0.692762,0.061055,-0.434810,0.207558,0.954439,0.045344,5.859998,-9.956385,0.131906,-4.429778,7.648353,0.019895,-1.476237,0.880241
0.074000,-1.069352,-0.845121,0.304780,0.958570,0.014923,-0.003595,0.284445,-0.203225,-0.141766,-0.100896,0.378666,0.243463,0.262944,-0.055588,-0.739746,-0.114952,0.062219,0.644797,0.002286,0.010953,-0.656699,0.133606,-0.037113,0.689881,0.062645,-0.482080,0.208940,0.953847,-0.565110,7.452699,-17.897557,0.110638,-4.970111,10.183222,-0.013453,-1.440440,0.794862
0.076000,-1.069787,-0.845419,0.304652,0.958501,0.015246,-0.003344,0.284662,-0.217398,-0.148940,-0.063582,0.382246,0.151732,0.223096,-0.056557,-0.738943,-0.113643,0.061981,0.657567,-0.022869,0.012166,-0.665656,0.150084,-0.037020,0.687036,0.064337,-0.484270,0.401384,0.654226,-0.119133,6.384906,-12.577858,0.606679,-4.478332,8.238765,0.046647,-1.422453,0.846069
0.078000,-1.070208,-0.845728,0.304541,0.958425,0.015392,-0.003280,0.284909,-0.210410,-0.154847,-0.055465,0.160516,0.023679,0.256892,-0.057153,-0.738006,-0.112952,0.062105,0.671128,-0.050300,0.012375,-0.676686,0.175465,-0.037408,0.684669,0.065495,-0.298039,0.468484,0.345669,0.061981,6.780439,-13.715263,0.104144,-5.514998,12.690728,-0.194033,-1.183387,0.579038
0.080000,-1.070633,-0.846080,0.304497,0.958366,0.015198,-0.003377,0.285117,-0.212563,-0.176015,-0.022294,-0.211688,-0.034618,0.217826,-0.056948,-0.736556,-0.113058,0.063892,0.683414,-0.070784,0.012489,-0.686706,0.195868,-0.038470,0.682421,0.066530,0.102274,0.725278,-0.052970,0.893680,6.143125,-10.242272,0.057067,-5.010170,10.201329,-0.530822,-1.124253,0.517633
0.082000,-1.071054,-0.846434,0.304467,0.958302,0.014772,-0.003590,0.285351,-0.210656,-0.176944,-0.015091,-0.467960,-0.079520,0.247808,-0.056341,-0.734939,-0.113606,0.065401,0.697770,-0.100662,0.011966,-0.697729,0.218896,-0.040024,0.680380,0.067257,0.303547,0.808454,-0.273950,0.754495,7.177898,-14.938932,-0.261258,-5.511347,11.514038,-0.777234,-1.020363,0.363510
0.084000,-1.071509,-0.846772,0.304498,0.958240,0.014506,-0.003809,0.285572,-0.227227,-0.168969,0.015489,-0.315292,-0.131360,0.233485,-0.056101,-0.733082,-0.114577,0.066598,0.711706,-0.127741,0.012716,-0.708071,0.236837,-0.041154,0.678241,0.068242,0.120043,0.928251,-0.485475,0.598332,6.968027,-13.539160,0.374795,-5.170885,8.970697,-0.564800,-1.069666,0.492266
0.086000,-1.071989,-0.847056,0.304561,0.958158,0.014712,-0.004017,0.285835,-0.240273,-0.141695,0.031589,0.140531,-0.254101,0.277620,-0.056933,-0.731329,-0.115845,0.066095,0.726442,-0.156264,0.014440,-0.720131,0.259389,-0.041331,0.676234,0.069322,-0.415971,0.876733,-0.633999,-0.251526,7.367915,-14.261790,0.861801,-6.030082,11.275946,-0.088688,-1.003274,0.540115
0.088000,-1.072490,-0.847334,0.304687,0.958073,0.015046,-0.004268,0.286096,-0.250494,-0.138945,0.062973,0.250483,-0.332420,0.276207,-0.058009,-0.729334,-0.117691,0.065711,0.740329,-0.178707,0.016787,-0.732153,0.279710,-0.041237,0.674214,0.070597,-0.538181,0.997194,-0.923112,-0.192134,6.943430,-11.221214,1.173708,-6.011036,10.160579,0.047017,-1.010079,0.637445
0.090000,-1.072977,-0.847635,0.304844,0.957986,0.015052,-0.004665,0.286381,-0.243066,-0.150811,0.078634,-0.105076,-0.378346,0.304339,-0.058401,-0.727065,-0.120203,0.065924,0.755077,-0.203522,0.017898,-0.745048,0.301143,-0.041893,0.672355,0.071653,-0.195875,1.134553,-1.256015,0.106550,7.374072,-12.407488,0.555618,-6.447568,10.716479,-0.327924,-0.929580,0.527782
0.092000,-1.073461,-0.847975,0.305043,0.957905,0.014694,-0.005154,0.286664,-0.242156,-0.169767,0.099583,-0.480616,-0.361974,0.302953,-0.058018,-0.724427,-0.123209,0.067279,0.769766,-0.227856,0.018167,-0.757426,0.319228,-0.043296,0.670383,0.072753,0.191606,1.319143,-1.503003,0.677791,7.344499,-12.167133,0.134258,-6.188708,9.042492,-0.701376,-0.985889,0.550088
0.094000,-1.073955,-0.848306,0.305265,0.957816,0.014416,-0.005640,0.286966,-0.246901,-0.165668,0.110769,-0.403350,-0.381944,0.324358,-0.057835,-0.721772,-0.126332,0.068348,0.784897,-0.252824,0.018368,-0.770455,0.338085,-0.044535,0.668345,0.073976,0.091194,1.327511,-1.561550,0.534111,7.565651,-12.484299,0.100519,-6.514899,9.428585,-0.619527,-1.018962,0.611362
0.096000,-1.074480,-0.848616,0.305514,0.957720,0.014462,-0.006033,0.287275,-0.262818,-0.155198,0.124849,-0.065063,-0.385219,0.327913,-0.058364,-0.719172,-0.129311,0.068884,0.799573,-0.275175,0.019466,-0.783385,0.356363,-0.045041,0.666050,0.075600,-0.264525,1.299982,-1.489429,0.268162,7.338039,-11.175486,0.549231,-6.464921,9.138580,-0.253298,-1.147807,0.812101
0.098000,-1.075030,-0.848897,0.305781,0.957618,0.014883,-0.006333,0.287588,-0.274700,-0.140507,0.133504,0.320188,-0.405074,0.331425,-0.059688,-0.716736,-0.132070,0.068705,0.814130,-0.294771,0.021480,-0.796706,0.374661,-0.044729,0.663624,0.077511,-0.661802,1.218175,-1.379278,-0.089217,7.278079,-9.798014,1.006995,-6.660485,9.149047,0.156227,-1.212950,0.955797
0.100000,-1.075588,-0.849194,0.306058,0.957518,0.015219,-0.006609,0.287895,-0.279200,-0.148382,0.138064,0.246094,-0.357069,0.324169,-0.060829,-0.714253,-0.134687,0.068975,0.828629,-0.314649,0.023260,-0.809569,0.391564,-0.044546,0.661008,0.079557,-0.570332,1.241167,-1.308824,0.134979,7.249657,-9.938642,0.890047,-6.431190,8.451778,0.091624,-1.307988,1.022579
0.102000,-1.076134,-0.849521,0.306339,0.957428,0.015271,-0.006937,0.288184,-0.272781,-0.163395,0.140913,-0.041707,-0.324581,0.307422,-0.061309,-0.711668,-0.137352,0.070311,0.843210,-0.333517,0.024273,-0.822238,0.405630,-0.044937,0.658414,0.081470,-0.240332,1.292771,-1.332486,0.668071,7.290601,-9.434383,0.506437,-6.334623,7.032987,-0.195779,-1.296926,0.956770
0.104000,-1.076677,-0.849868,0.306617,0.957342,0.015166,-0.007280,0.288467,-0.271669,-0.173702,0.138854,-0.195873,-0.295072,0.302354,-0.061433,-0.709061,-0.139932,0.072189,0.857821,-0.353203,0.024604,-0.834832,0.419990,-0.045641,0.655805,0.083291,-0.061966,1.303257,-1.289648,0.938736,7.305227,-9.842541,0.165504,-6.296997,7.179828,-0.351691,-1.304487,0.910347
0.106000,-1.077229,-0.850196,0.306902,0.957257,0.015330,-0.007585,0.288733,-0.275900,-0.163836,0.142389,0.072432,-0.335977,0.281835,-0.062050,-0.706603,-0.142386,0.073800,0.871989,-0.367681,0.025684,-0.847715,0.432942,-0.045756,0.653312,0.085115,-0.308385,1.229223,-1.227036,0.805423,7.084132,-7.239385,0.539885,-6.441783,6.475983,-0.057703,-1.246667,0.911926
0.108000,-1.077795,-0.850507,0.307179,0.957169,0.015711,-0.007837,0.288997,-0.283190,-0.155560,0.138461,0.295063,-0.346978,0.279811,-0.063113,-0.704303,-0.144600,0.074686,0.886179,-0.382742,0.027123,-0.860819,0.447062,-0.045394,0.650840,0.086943,-0.531729,1.149958,-1.107171,0.442951,7.094970,-7.530272,0.719387,-6.551999,7.060077,0.180973,-1.235719,0.914368
0.110000,-1.078365,-0.850809,0.307463,0.957088,0.016212,-0.008072,0.289233,-0.284924,-0.151045,0.142219,0.415050,-0.366968,0.248392,-0.064354,-0.702054,-0.146765,0.075484,0.900006,-0.393666,0.029203,-0.873728,0.456919,-0.044734,0.648477,0.088735,-0.620045,1.124433,-1.082364,0.399197,6.913388,-5.461861,1.040140,-6.454352,4.928271,0.330121,-1.181818,0.895559
0.112000,-1.078930,-0.851129,0.307734,0.957009,0.016540,-0.008336,0.289465,-0.282695,-0.160015,0.135449,0.240787,-0.344668,0.246853,-0.065211,-0.699783,-0.148887,0.076322,0.914096,-0.407828,0.030478,-0.886601,0.467203,-0.044434,0.646166,0.090341,-0.428833,1.135395,-1.061285,0.419151,7.045235,-7.081468,0.637518,-6.436419,5.142209,0.149808,-1.155358,0.803402
0.114000,-1.079484,-0.851467,0.308014,0.956943,0.016739,-0.008652,0.289663,-0.276814,-0.168918,0.139840,0.101714,-0.357333,0.212155,-0.065684,-0.697424,-0.151166,0.077881,0.927544,-0.416952,0.031571,-0.899145,0.473233,-0.044395,0.644012,0.091785,-0.236207,1.179680,-1.139437,0.779296,6.723995,-4.561702,0.546646,-6.272086,3.014827,0.019677,-1.077114,0.721804
0.116000,-1.080038,-0.851813,0.308280,0.956876,0.016919,-0.008980,0.289865,-0.277027,-0.173012,0.133069,0.079175,-0.363245,0.217021,-0.066091,-0.695106,-0.153396,0.079113,0.940947,-0.427926,0.032003,-0.911953,0.482025,-0.044424,0.641929,0.093091,-0.203629,1.159143,-1.114814,0.615967,6.701736,-5.487009,0.215889,-6.403995,4.395988,-0.014761,-1.041137,0.653199
0.118000,-1.080601,-0.852147,0.308560,0.956814,0.017338,-0.009271,0.290034,-0.281498,-0.166648,0.139889,0.319856,-0.397217,0.180465,-0.066909,-0.692840,-0.155591,0.080114,0.953333,-0.432050,0.033383,-0.924370,0.487049,-0.043919,0.639903,0.094491,-0.408853,1.132936,-1.097735,0.500458,6.192901,-2.062070,0.690156,-6.208455,2.512181,0.252672,-1.013079,0.700006
0.120000,-1.081174,-0.852480,0.308825,0.956750,0.017818,-0.009532,0.290208,-0.286406,-0.166762,0.132755,0.385718,-0.386343,0.185332,-0.067861,-0.690640,-0.157622,0.080295,0.965774,-0.439584,0.034493,-0.936753,0.494053,-0.043290,0.637834,0.095891,-0.476000,1.100015,-1.015412,0.090806,6.220358,-3.767152,0.554836,-6.191559,3.501796,0.314640,-1.034538,0.699914
0.122000,-1.081746,-0.852825,0.309103,0.956699,0.018269,-0.009790,0.290342,-0.286144,-0.172308,0.138730,0.359471,-0.376187,0.142929,-0.068655,-0.688363,-0.159660,0.080850,0.977293,-0.442180,0.036028,-0.948183,0.495287,-0.042674,0.635753,0.097346,-0.396979,1.138206,-1.018813,0.277499,5.759667,-1.297659,0.767559,-5.714995,0.617295,0.308059,-1.040684,0.727329
0.124000,-1.082316,-0.853189,0.309362,0.956648,0.018580,-0.010066,0.290479,-0.284946,-0.182298,0.129793,0.219656,-0.352223,0.148249,-0.069138,-0.686075,-0.161616,0.081152,0.988889,-0.448652,0.036597,-0.959557,0.498899,-0.042376,0.633659,0.098691,-0.241956,1.144123,-0.978300,0.150779,5.797812,-3.236119,0.284273,-5.686711,1.805991,0.148788,-1.046860,0.672411
0.126000,-1.082881,-0.853565,0.309632,0.956609,0.018892,-0.010352,0.290576,-0.282635,-0.187983,0.134834,0.216375,-0.362991,0.105717,-0.069478,-0.683768,-0.163560,0.081972,0.999335,-0.448693,0.037492,-0.970208,0.498458,-0.042060,0.631630,0.100032,-0.169696,1.153758,-0.971839,0.409766,5.223047,-0.020419,0.447691,-5.325904,-0.220520,0.157996,-1.014751,0.670570
0.128000,-1.083449,-0.853946,0.309882,0.956569,0.019232,-0.010634,0.290678,-0.283837,-0.190398,0.125230,0.245870,-0.367253,0.111068,-0.069859,-0.681537,-0.165376,0.082127,1.009783,-0.451557,0.037841,-0.981083,0.501489,-0.041714,0.629641,0.101278,-0.190712,1.115380,-0.908032,0.077711,5.223942,-1.432055,0.174635,-5.437459,1.515540,0.173061,-0.994079,0.623330
0.130000,-1.084017,-0.854327,0.310139,0.956538,0.019663,-0.010901,0.290740,-0.283988,-0.190450,0.128307,0.335980,-0.380027,0.068855,-0.070269,-0.679409,-0.166994,0.082395,1.019259,-0.449207,0.038939,-0.991193,0.500218,-0.041147,0.627710,0.102552,-0.205081,1.063787,-0.808739,0.134169,4.738052,1.174959,0.548754,-5.054876,-0.635689,0.283679,-0.965722,0.636878
0.132000,-1.084586,-0.854714,0.310374,0.956507,0.020069,-0.011169,0.290804,-0.284408,-0.193672,0.117587,0.311856,-0.372692,0.071327,-0.070603,-0.677364,-0.168441,0.082011,1.028971,-0.450929,0.039567,-1.001343,0.501049,-0.040648,0.625812,0.103713,-0.166538,1.022525,-0.723503,-0.192058,4.855758,-0.860919,0.313924,-5.075018,0.415422,0.249038,-0.948799,0.580191
0.134000,-1.085148,-0.855113,0.310609,0.956488,0.020423,-0.011457,0.290830,-0.280891,-0.199263,0.117307,0.255240,-0.378277,0.032087,-0.070737,-0.675255,-0.169955,0.082064,1.037963,-0.449037,0.040507,-1.010786,0.498186,-0.040240,0.624017,0.104779,-0.067289,1.054676,-0.756999,0.026493,4.496369,0.945818,0.470331,-4.721311,-1.431198,0.204281,-0.897791,0.533445
0.136000,-1.085705,-0.855521,0.310821,0.956470,0.020726,-0.011767,0.290854,-0.278903,-0.204280,0.106294,0.200488,-0.384258,0.031528,-0.070767,-0.673136,-0.171500,0.081807,1.047085,-0.449847,0.040866,-1.020435,0.498023,-0.039970,0.622321,0.105665,-0.014871,1.059643,-0.772854,-0.128711,4.560785,-0.405059,0.179112,-4.824726,-0.081754,0.134890,-0.847778,0.442655
0.138000,-1.086259,-0.855933,0.311026,0.956460,0.021069,-0.012084,0.290852,-0.276631,-0.205659,0.102065,0.235438,-0.402982,0.003481,-0.070829,-0.671002,-0.173102,0.081739,1.055720,-0.447897,0.041557,-1.029849,0.496591,-0.039620,0.620745,0.106452,-0.031318,1.066827,-0.800778,-0.033754,4.317464,0.975049,0.345481,-4.706871,-0.715706,0.175059,-0.788104,0.393736
0.140000,-1.086811,-0.856347,0.311208,0.956450,0.021428,-0.012400,0.290846,-0.276224,-0.207334,0.091201,0.251996,-0.406849,-0.001041,-0.070933,-0.668900,-0.174658,0.081364,1.064502,-0.447950,0.042083,-1.039408,0.496987,-0.039254,0.619232,0.107128,-0.051502,1.051093,-0.778017,-0.187759,4.390964,-0.026326,0.263409,-4.779327,0.198016,0.183188,-0.756231,0.337694
0.142000,-1.087356,-0.856766,0.311368,0.956445,0.021760,-0.012725,0.290823,-0.272587,-0.209521,0.080159,0.222764,-0.408499,-0.016803,-0.070960,-0.666826,-0.176168,0.081064,1.073553,-0.448744,0.042695,-1.049025,0.497082,-0.038952,0.617826,0.107648,-0.013831,1.037034,-0.754921,-0.149772,4.525432,-0.397125,0.305848,-4.808756,0.047407,0.150602,-0.703431,0.260386
0.144000,-1.087897,-0.857191,0.311506,0.956443,0.022069,-0.013050,0.290789,-0.270235,-0.212542,0.068763,0.200739,-0.401463,-0.029090,-0.070929,-0.664786,-0.177583,0.080866,1.082827,-0.450613,0.043334,-1.058663,0.497540,-0.038708,0.616471,0.108062,0.015625,1.020048,-0.707689,-0.099070,4.637205,-0.934442,0.319625,-4.818922,0.228917,0.122442,-0.677559,0.206796
0.146000,-1.088435,-0.857622,0.311642,0.956451,0.022401,-0.013350,0.290727,-0.269254,-0.215426,0.068038,0.229496,-0.384897,-0.059291,-0.070906,-0.662715,-0.178946,0.081168,1.091480,-0.448806,0.044523,-1.067594,0.494757,-0.038390,0.615056,0.108576,0.011411,1.035119,-0.681674,0.150761,4.326690,0.903571,0.594104,-4.465794,-1.391250,0.158591,-0.707433,0.257045
0.148000,-1.088976,-0.858059,0.311768,0.956458,0.022770,-0.013620,0.290661,-0.270211,-0.218360,0.062863,0.273169,-0.366260,-0.064432,-0.070960,-0.660660,-0.180200,0.081485,1.099885,-0.446736,0.045664,-1.076360,0.492518,-0.038005,0.613544,0.109186,-0.027090,1.027754,-0.626554,0.158727,4.202492,1.034985,0.570629,-4.382812,-1.119634,0.192713,-0.756016,0.305093
0.150000,-1.089522,-0.858510,0.311907,0.956474,0.023129,-0.013839,0.290569,-0.272912,-0.225565,0.069814,0.277585,-0.316346,-0.092908,-0.070971,-0.658484,-0.181408,0.082456,1.106989,-0.440359,0.047229,-1.083691,0.486005,-0.037594,0.611768,0.110118,-0.005119,1.088096,-0.604321,0.485361,3.551751,3.188386,0.782654,-3.665333,-3.256744,0.205338,-0.887910,0.465894
0.152000,-1.090076,-0.858971,0.312039,0.956485,0.023497,-0.014018,0.290496,-0.277415,-0.230567,0.065744,0.298607,-0.279714,-0.073689,-0.071051,-0.656293,-0.182507,0.082862,1.113986,-0.437241,0.048068,-1.090927,0.482204,-0.037184,0.609774,0.111232,-0.040441,1.095093,-0.549237,0.203272,3.498470,1.558816,0.419577,-3.617992,-1.900138,0.205210,-0.997062,0.557122
0.154000,-1.090641,-0.859449,0.312193,0.956505,0.023842,-0.014151,0.290396,-0.282173,-0.239102,0.076925,0.289987,-0.228901,-0.103404,-0.071058,-0.653932,-0.183624,0.083803,1.119271,-0.429980,0.049255,-1.096274,0.474013,-0.036763,0.607500,0.112687,-0.003440,1.180525,-0.558535,0.470356,2.642772,3.630643,0.593459,-2.673873,-4.095868,0.210342,-1.136942,0.727541
0.156000,-1.091214,-0.859933,0.312343,0.956519,0.024236,-0.014259,0.290312,-0.286873,-0.241788,0.075219,0.344486,-0.219630,-0.087164,-0.071196,-0.651561,-0.184718,0.083903,1.124252,-0.425487,0.049739,-1.101500,0.468823,-0.036263,0.605121,0.114236,-0.068932,1.185526,-0.547138,0.049846,2.490283,2.246401,0.241943,-2.612808,-2.595059,0.250132,-1.189634,0.774202
0.158000,-1.091795,-0.860431,0.312524,0.956547,0.024620,-0.014343,0.290182,-0.290137,-0.249185,0.090381,0.339779,-0.194277,-0.136291,-0.071232,-0.648998,-0.185936,0.084716,1.126949,-0.414421,0.050943,-1.104345,0.457598,-0.035714,0.602599,0.116022,-0.017716,1.281514,-0.608873,0.406616,1.348524,5.532964,0.601790,-1.422209,-5.612408,0.274272,-1.260631,0.893267
0.160000,-1.092379,-0.860933,0.312698,0.956571,0.025028,-0.014439,0.290065,-0.291985,-0.250931,0.087076,0.359817,-0.213534,-0.122194,-0.071321,-0.646442,-0.187219,0.084489,1.129477,-0.406671,0.051296,-1.107220,0.449697,-0.035151,0.600149,0.117707,-0.044588,1.278258,-0.641612,-0.113259,1.264033,3.875363,0.176672,-1.437767,-3.950171,0.281818,-1.225074,0.842183
0.162000,-1.092963,-0.861453,0.312897,0.956611,0.025345,-0.014549,0.289897,-0.291915,-0.259943,0.099292,0.268434,-0.200706,-0.173713,-0.071124,-0.643693,-0.188683,0.084976,1.129851,-0.393504,0.052134,-1.107692,0.435871,-0.034708,0.597698,0.119436,0.098291,1.374229,-0.731856,0.243307,0.186852,6.583120,0.418900,-0.236190,-6.913319,0.221371,-1.225333,0.864687
0.164000,-1.093545,-0.861973,0.313079,0.956646,0.025680,-0.014695,0.289746,-0.291461,-0.260120,0.091158,0.274536,-0.240115,-0.155451,-0.070956,-0.641019,-0.190200,0.084181,1.130395,-0.385003,0.051912,-1.108571,0.426472,-0.034284,0.595493,0.120855,0.084128,1.337372,-0.758643,-0.397634,0.272122,4.250772,-0.110758,-0.439333,-4.699278,0.212147,-1.102553,0.709572
0.166000,-1.094128,-0.862504,0.313282,0.956697,0.026000,-0.014845,0.289540,-0.291184,-0.265213,0.101526,0.258803,-0.241065,-0.213036,-0.070625,-0.638266,-0.191763,0.084050,1.128639,-0.370206,0.052472,-1.107071,0.411254,-0.033806,0.593485,0.122136,0.165414,1.376433,-0.781504,-0.065561,-0.877780,7.398634,0.279774,0.750045,-7.609268,0.238991,-1.004004,0.640291
0.168000,-1.094707,-0.863031,0.313466,0.956742,0.026376,-0.015025,0.289349,-0.289807,-0.263450,0.092141,0.303473,-0.284552,-0.197050,-0.070306,-0.635788,-0.193067,0.082735,1.126983,-0.359180,0.052174,-1.106015,0.400142,-0.033270,0.591767,0.123083,0.159331,1.238686,-0.651855,-0.657386,-0.828073,5.512760,-0.149003,0.528168,-5.555623,0.267982,-0.859349,0.473393
0.170000,-1.095285,-0.863573,0.313668,0.956805,0.026684,-0.015206,0.289104,-0.288560,-0.271115,0.100975,0.237039,-0.268546,-0.252458,-0.069677,-0.633303,-0.194244,0.082376,1.123029,-0.342038,0.052594,-1.102439,0.382704,-0.032805,0.590077,0.124051,0.314621,1.242839,-0.588858,-0.179252,-1.976986,8.571261,0.209909,1.787776,-8.719388,0.232275,-0.844856,0.484081
0.172000,-1.095860,-0.864114,0.313847,0.956859,0.027020,-0.015409,0.288882,-0.287891,-0.270730,0.089242,0.257631,-0.295518,-0.227362,-0.069075,-0.631016,-0.195241,0.080925,1.119396,-0.329627,0.052026,-1.099398,0.369610,-0.032358,0.588453,0.124899,0.301234,1.143422,-0.498297,-0.725671,-1.816498,6.205528,-0.283757,1.520717,-6.546896,0.223490,-0.811727,0.424340
0.174000,-1.096438,-0.864668,0.314037,0.956927,0.027328,-0.015598,0.288617,-0.288866,-0.276908,0.095221,0.234340,-0.276578,-0.273121,-0.068377,-0.628572,-0.196355,0.080319,1.113671,-0.311884,0.052150,-1.094101,0.351307,-0.031921,0.586704,0.125934,0.348767,1.222054,-0.557109,-0.302935,-2.862380,8.871139,0.061855,2.648384,-9.151452,0.218551,-0.874501,0.517161
0.176000,-1.097016,-0.865217,0.314201,0.956986,0.027709,-0.015798,0.288377,-0.289081,-0.274341,0.081931,0.301201,-0.306751,-0.247160,-0.067886,-0.626219,-0.197480,0.078669,1.108339,-0.298418,0.051464,-1.089492,0.337555,-0.031403,0.585033,0.126843,0.245683,1.176576,-0.562557,-0.824966,-2.666155,6.733153,-0.343045,2.304537,-6.875897,0.259108,-0.835510,0.454812
0.178000,-1.097594,-0.865777,0.314372,0.957058,0.028058,-0.015991,0.288093,-0.288933,-0.280070,0.085760,0.272552,-0.292286,-0.292856,-0.067279,-0.623733,-0.198699,0.077976,1.101067,-0.279498,0.051515,-1.082760,0.318637,-0.030907,0.583292,0.127871,0.303626,1.242659,-0.609278,-0.346804,-3.636196,9.460153,0.025375,3.365702,-9.458848,0.247806,-0.870677,0.513811
0.180000,-1.098169,-0.866333,0.314514,0.957122,0.028445,-0.016203,0.287830,-0.287230,-0.278125,0.070750,0.303491,-0.320277,-0.270395,-0.066783,-0.621365,-0.199884,0.076474,1.094322,-0.264602,0.050851,-1.076681,0.303520,-0.030400,0.581675,0.128707,0.247678,1.183896,-0.592588,-0.750729,-3.372638,7.447656,-0.331638,3.039955,-7.558624,0.253605,-0.808793,0.418221
0.182000,-1.098739,-0.866902,0.314655,0.957199,0.028768,-0.016418,0.287529,-0.285479,-0.284232,0.070329,0.240202,-0.306359,-0.309317,-0.066099,-0.618914,-0.201107,0.075889,1.086083,-0.245609,0.050737,-1.068793,0.283937,-0.029996,0.580038,0.129568,0.342053,1.225955,-0.611628,-0.292752,-4.119318,9.496635,-0.057348,3.943844,-9.791860,0.201909,-0.818111,0.430338
0.184000,-1.099306,-0.867463,0.314761,0.957267,0.029151,-0.016649,0.287250,-0.283218,-0.280809,0.053363,0.293553,-0.338121,-0.285716,-0.065565,-0.616638,-0.202227,0.074527,1.078504,-0.230546,0.050017,-1.061724,0.268303,-0.029537,0.578559,0.130203,0.266958,1.137831,-0.559789,-0.681049,-3.789319,7.531324,-0.359587,3.534335,-7.816516,0.229532,-0.739886,0.317585
0.186000,-1.099870,-0.868030,0.314862,0.957344,0.029546,-0.016874,0.286941,-0.282196,-0.283364,0.050341,0.305977,-0.336891,-0.317841,-0.065002,-0.614350,-0.203318,0.073851,1.069650,-0.211675,0.049920,-1.053287,0.249420,-0.029037,0.577096,0.130840,0.281457,1.143864,-0.545376,-0.337978,-4.426993,9.435949,-0.048528,4.218358,-9.441747,0.250070,-0.731212,0.318301
0.188000,-1.100430,-0.868590,0.314930,0.957412,0.030007,-0.017110,0.286651,-0.279616,-0.279799,0.034040,0.366579,-0.365783,-0.298426,-0.064593,-0.612231,-0.204292,0.072585,1.061369,-0.195850,0.049424,-1.045565,0.233703,-0.028463,0.575782,0.131270,0.204813,1.059346,-0.487092,-0.632759,-4.140396,7.912402,-0.248086,3.861006,-7.858738,0.286874,-0.656967,0.215003
0.190000,-1.100984,-0.869159,0.314987,0.957489,0.030417,-0.017351,0.286337,-0.277233,-0.284698,0.028620,0.315705,-0.355848,-0.322066,-0.064038,-0.610080,-0.205246,0.072026,1.052228,-0.177722,0.049266,-1.036708,0.215232,-0.027992,0.574478,0.131666,0.277386,1.075682,-0.476996,-0.279384,-4.570520,9.063903,-0.079138,4.428825,-9.235295,0.235771,-0.652155,0.198058
0.192000,-1.101532,-0.869725,0.315014,0.957559,0.030856,-0.017603,0.286041,-0.273968,-0.283044,0.013227,0.341314,-0.375293,-0.303558,-0.063565,-0.608053,-0.206108,0.071091,1.043664,-0.162386,0.048723,-1.028466,0.199293,-0.027520,0.573290,0.131881,0.236589,1.013590,-0.431170,-0.467675,-4.282142,7.667802,-0.271419,4.120767,-7.969485,0.236098,-0.593845,0.107282
0.194000,-1.102077,-0.870296,0.315026,0.957631,0.031305,-0.017852,0.285734,-0.272622,-0.285438,0.006145,0.351163,-0.374524,-0.315253,-0.063095,-0.606018,-0.206939,0.070583,1.034530,-0.145581,0.048453,-1.019614,0.182250,-0.027043,0.572114,0.132070,0.235074,1.017394,-0.415377,-0.254093,-4.567156,8.402687,-0.134864,4.426355,-8.521462,0.238338,-0.588323,0.094627
0.196000,-1.102618,-0.870861,0.315012,0.957696,0.031825,-0.018101,0.285442,-0.270201,-0.282661,-0.006826,0.419011,-0.395145,-0.299598,-0.062790,-0.604088,-0.207692,0.069768,1.025802,-0.130425,0.048050,-1.011310,0.167200,-0.026477,0.571026,0.132139,0.152159,0.965232,-0.376657,-0.407195,-4.363803,7.577981,-0.201482,4.152021,-7.524806,0.283073,-0.543651,0.034696
0.198000,-1.103155,-0.871431,0.314982,0.957762,0.032349,-0.018348,0.285149,-0.268627,-0.284831,-0.015363,0.424247,-0.394219,-0.301066,-0.062492,-0.602172,-0.208395,0.069216,1.016913,-0.115167,0.047776,-1.002742,0.151979,-0.025929,0.569944,0.132174,0.149045,0.957845,-0.351140,-0.276062,-4.444363,7.628756,-0.137260,4.283810,-7.610531,0.273661,-0.540876,0.017596
0.200000,-1.103685,-0.872000,0.314930,0.957822,0.032894,-0.018600,0.284866,-0.265216,-0.284507,-0.025908,0.443036,-0.405457,-0.290278,-0.062245,-0.600322,-0.209045,0.068603,1.008384,-0.101020,0.047437,-0.994471,0.137527,-0.025388,0.568924,0.132117,0.123733,0.924960,-0.325358,-0.306531,-4.264693,7.073766,-0.169484,4.135402,-7.226056,0.270547,-0.510430,-0.028828
0.202000,-1.104210,-0.872576,0.314857,0.957881,0.033408,-0.018863,0.284591,-0.262168,-0.287783,-0.036340,0.410028,-0.405347,-0.280274,-0.061939,-0.598504,-0.209642,0.068168,1.000154,-0.088344,0.046944,-0.986360,0.124146,-0.024962,0.567923,0.131981,0.152584,0.908927,-0.298227,-0.217690,-4.115227,6.337733,-0.246549,4.055351,-6.690618,0.213303,-0.500180,-0.068111
0.204000,-1.104727,-0.873150,0.314769,0.957936,0.033960,-0.019130,0.284324,-0.258571,-0.287380,-0.043954,0.445563,-0.421048,-0.273478,-0.061707,-0.596748,-0.210201,0.067807,0.992086,-0.075482,0.046558,-0.978483,0.110991,-0.024504,0.566981,0.131783,0.116198,0.877852,-0.279667,-0.180366,-4.033608,6.431420,-0.192664,3.938598,-6.577526,0.228704,-0.471071,-0.098604
0.206000,-1.105240,-0.873724,0.314658,0.957982,0.034555,-0.019399,0.284076,-0.256409,-0.286956,-0.055565,0.487393,-0.434824,-0.252319,-0.061587,-0.595083,-0.210673,0.067290,0.984642,-0.064973,0.046046,-0.971316,0.100591,-0.024022,0.566080,0.131506,0.059955,0.832599,-0.236125,-0.258633,-3.722231,5.254156,-0.255993,3.583777,-5.200044,0.241358,-0.450445,-0.138673
0.208000,-1.105746,-0.874299,0.314538,0.958027,0.035182,-0.019672,0.283829,-0.252986,-0.287126,-0.059901,0.517271,-0.446659,-0.252235,-0.061515,-0.593451,-0.211130,0.066981,0.977241,-0.053425,0.045853,-0.964111,0.089137,-0.023509,0.565213,0.131212,0.036022,0.816154,-0.228366,-0.154254,-3.700571,5.774190,-0.096862,3.602099,-5.726836,0.256168,-0.433749,-0.146803
0.210000,-1.106244,-0.874876,0.314393,0.958064,0.035785,-0.019957,0.283609,-0.249123,-0.288856,-0.072698,0.490613,-0.451644,-0.222869,-0.061426,-0.591897,-0.211508,0.066503,0.970957,-0.046111,0.045268,-0.957831,0.081001,-0.023122,0.564386,0.130795,0.044329,0.777208,-0.189156,-0.238910,-3.142013,3.656847,-0.292544,3.140416,-4.068056,0.193717,-0.413182,-0.208834
0.212000,-1.106734,-0.875458,0.314246,0.958102,0.036394,-0.020249,0.283384,-0.245008,-0.291018,-0.073662,0.494577,-0.459753,-0.228052,-0.061317,-0.590340,-0.211907,0.066457,0.964535,-0.036734,0.045058,-0.951332,0.070967,-0.022753,0.563578,0.130386,0.054657,0.778190,-0.199478,-0.023369,-3.210874,4.688584,-0.104911,3.249254,-5.017179,0.184370,-0.404175,-0.204295
0.214000,-1.107216,-0.876038,0.314071,0.958126,0.037041,-0.020555,0.283195,-0.241337,-0.289733,-0.087493,0.528663,-0.483169,-0.190205,-0.061326,-0.588917,-0.212213,0.066007,0.959430,-0.032087,0.044441,-0.946307,0.066084,-0.022395,0.562863,0.129817,-0.004188,0.711346,-0.152955,-0.225051,-2.552450,2.323773,-0.308251,2.512727,-2.441375,0.178952,-0.357681,-0.284741
0.216000,-1.107692,-0.876621,0.313900,0.958153,0.037712,-0.020867,0.282994,-0.237804,-0.291620,-0.085399,0.549893,-0.495103,-0.201990,-0.061335,-0.587480,-0.212560,0.066064,0.953990,-0.024317,0.044396,-0.940897,0.058528,-0.022009,0.562165,0.129283,-0.004958,0.718575,-0.173658,0.028738,-2.720146,3.884792,-0.022446,2.704622,-3.778133,0.192979,-0.348940,-0.266603
0.218000,-1.108160,-0.877201,0.313699,0.958166,0.038413,-0.021197,0.282832,-0.234037,-0.290005,-0.100293,0.573870,-0.520305,-0.161877,-0.061447,-0.586190,-0.212803,0.065609,0.950174,-0.022509,0.044083,-0.937255,0.056643,-0.021654,0.561579,0.128555,-0.055595,0.645270,-0.121292,-0.227724,-1.907733,0.903789,-0.156596,1.821037,-0.942596,0.177627,-0.293022,-0.364028
0.220000,-1.108619,-0.877793,0.313507,0.958181,0.039081,-0.021539,0.282664,-0.229215,-0.295854,-0.096096,0.539751,-0.523098,-0.166133,-0.061447,-0.584854,-0.213120,0.065873,0.945912,-0.017206,0.043875,-0.934598,0.056032,-0.021400,0.560961,0.127904,-0.000152,0.667972,-0.158301,0.132351,-2.131401,2.651571,-0.103980,1.328800,-0.305255,0.126981,-0.309090,-0.325452
0.222000,-1.109068,-0.878398,0.313299,0.958198,0.039550,-0.021897,0.282511,-0.224876,-0.302649,-0.104246,0.344179,-0.481772,-0.147873,-0.061082,-0.583486,-0.213369,0.066159,0.943397,-0.018545,0.043383,-0.932637,0.056392,-0.021575,0.560268,0.127196,0.182286,0.684171,-0.124509,0.142846,-1.257278,-0.669255,-0.245983,0.980162,0.179891,-0.087483,-0.346288,-0.354234
0.224000,-1.109517,-0.879021,0.313117,0.958226,0.039934,-0.022230,0.282336,-0.224309,-0.311450,-0.090684,0.268999,-0.433384,-0.170291,-0.060511,-0.581949,-0.213675,0.067350,0.940154,-0.015318,0.042896,-0.930919,0.057173,-0.021888,0.559316,0.126825,0.285755,0.768208,-0.153009,0.595532,-1.621344,1.613574,-0.243542,0.859430,0.390583,-0.156694,-0.476213,-0.185666
0.226000,-1.109974,-0.879639,0.312936,0.958252,0.040307,-0.022502,0.282174,-0.228757,-0.308922,-0.090740,0.275628,-0.372151,-0.159702,-0.060006,-0.580398,-0.213786,0.067960,0.938451,-0.017851,0.042532,-0.929516,0.058492,-0.022171,0.558105,0.126694,0.252455,0.775648,-0.055894,0.305118,-0.851678,-1.266521,-0.182062,0.701365,0.659641,-0.141215,-0.605090,-0.065543
0.228000,-1.110445,-0.880254,0.312790,0.958281,0.040778,-0.022694,0.281993,-0.235293,-0.307454,-0.073065,0.391842,-0.323012,-0.184404,-0.059710,-0.578731,-0.213856,0.068759,0.936070,-0.016060,0.042555,-0.928161,0.060000,-0.022163,0.556567,0.127051,0.148011,0.833445,-0.034535,0.399542,-1.190665,0.895347,0.011295,0.677475,0.754023,0.003657,-0.769200,0.178736
0.230000,-1.110927,-0.880856,0.312644,0.958307,0.041275,-0.022826,0.281822,-0.240776,-0.301158,-0.072811,0.434649,-0.272994,-0.177701,-0.059557,-0.577071,-0.213740,0.068719,0.935305,-0.020442,0.042754,-0.926990,0.061854,-0.022030,0.554845,0.127580,0.076246,0.830028,0.057899,-0.020216,-0.382308,-2.191191,0.099794,0.585190,0.927091,0.066493,-0.861056,0.264448
0.232000,-1.111412,-0.881460,0.312527,0.958341,0.041780,-0.022932,0.281623,-0.242613,-0.302232,-0.058252,0.447427,-0.251963,-0.207635,-0.059384,-0.575284,-0.213717,0.069066,0.933921,-0.020743,0.043097,-0.925819,0.063766,-0.021817,0.553013,0.128317,0.086602,0.893174,0.011369,0.173662,-0.692186,-0.150106,0.171277,0.585979,0.956003,0.106783,-0.915798,0.368449
0.234000,-1.111894,-0.882066,0.312412,0.958381,0.042183,-0.023057,0.281415,-0.241104,-0.302581,-0.057837,0.344325,-0.240832,-0.214653,-0.059007,-0.573446,-0.213753,0.069242,0.933523,-0.024502,0.043293,-0.924782,0.065874,-0.021778,0.551251,0.128927,0.188782,0.919277,-0.018047,0.087621,-0.199015,-1.879663,0.098122,0.518079,1.053692,0.019215,-0.881210,0.304874
0.236000,-1.112371,-0.882678,0.312317,0.958433,0.042514,-0.023210,0.281175,-0.238576,-0.306038,-0.047516,0.266821,-0.248400,-0.245051,-0.058414,-0.571486,-0.213996,0.069964,0.932538,-0.024725,0.043417,-0.923769,0.068002,-0.021851,0.549578,0.129484,0.296422,0.979884,-0.121406,0.361101,-0.492408,-0.111675,0.062142,0.506910,1.064277,-0.036030,-0.836603,0.278492
0.238000,-1.112848,-0.883286,0.312223,0.958489,0.042802,-0.023379,0.280928,-0.238174,-0.303934,-0.046791,0.220238,-0.252133,-0.252273,-0.057732,-0.569506,-0.214298,0.070405,0.932170,-0.027644,0.043498,-0.922881,0.070291,-0.021979,0.548013,0.129897,0.340854,0.990156,-0.150892,0.220822,-0.183727,-1.459292,0.040170,0.443643,1.144145,-0.064300,-0.782487,0.206822
0.240000,-1.113326,-0.883888,0.312145,0.958549,0.043119,-0.023549,0.280662,-0.239159,-0.301451,-0.039286,0.247849,-0.262039,-0.272310,-0.057081,-0.567485,-0.214689,0.070868,0.931398,-0.028860,0.043702,-0.922044,0.072637,-0.022004,0.546511,0.130299,0.325369,1.010512,-0.195880,0.231083,-0.386109,-0.608186,0.102285,0.418646,1.173299,-0.012355,-0.751051,0.200663
0.242000,-1.113811,-0.884487,0.312081,0.958611,0.043468,-0.023702,0.280381,-0.242363,-0.299074,-0.031873,0.282239,-0.255932,-0.288437,-0.056488,-0.565421,-0.215112,0.071205,0.930220,-0.029323,0.044034,-0.921157,0.074952,-0.021910,0.544989,0.130764,0.296898,1.031865,-0.211065,0.168594,-0.589311,-0.231599,0.165706,0.443392,1.157172,0.046783,-0.760795,0.232959
0.244000,-1.114301,-0.885085,0.312033,0.958681,0.043789,-0.023842,0.280080,-0.244970,-0.299306,-0.024048,0.258098,-0.234631,-0.308865,-0.055825,-0.563280,-0.215563,0.071586,0.928619,-0.029123,0.044378,-0.920085,0.077077,-0.021814,0.543408,0.131317,0.331470,1.070405,-0.225890,0.190785,-0.800318,0.100116,0.171945,0.536228,1.062749,0.048298,-0.790459,0.276449
0.246000,-1.114802,-0.885762,0.312072,0.958795,0.043829,-0.023954,0.279672,-0.250897,-0.338587,0.019499,-0.007401,-0.134335,-0.419244,-0.054349,-0.560564,-0.216326,0.076051,0.919331,-0.001920,0.044290,-0.917654,0.077816,-0.022147,0.541592,0.132200,0.737740,1.358197,-0.381300,2.232128,-4.644086,13.601586,-0.043598,1.215514,0.369372,-0.166832,-0.907798,0.441334
0.248000,-1.115346,-0.886484,0.312161,0.958936,0.043647,-0.023922,0.279221,-0.272042,-0.360947,0.044791,-0.183267,0.065303,-0.468771,-0.052479,-0.557493,-0.216777,0.081837,0.906026,0.031993,0.043942,-0.913750,0.077177,-0.022691,0.539324,0.133444,0.935235,1.535609,-0.225587,2.893094,-6.652463,16.956683,-0.174377,1.951604,-0.319373,-0.271877,-1.134234,0.621811
0.250000,-1.115959,-0.887196,0.312238,0.959084,0.043249,-0.023616,0.278801,-0.306092,-0.355866,0.038126,-0.312585,0.389749,-0.448791,-0.050919,-0.554433,-0.215763,0.085173,0.895337,0.043050,0.043450,-0.908305,0.075214,-0.023157,0.536656,0.134475,0.779754,1.530028,0.507240,1.668240,-5.344176,5.528052,-0.245565,2.722663,-0.981671,-0.232962,-1.334093,0.515799
0.252000,-1.116632,-0.887860,0.312297,0.959228,0.042842,-0.023047,0.278414,-0.336491,-0.332031,0.029619,-0.246432,0.646119,-0.426456,-0.050063,-0.551547,-0.213383,0.084999,0.888670,0.029623,0.043252,-0.901810,0.072358,-0.023013,0.534184,0.134590,0.428241,1.442895,1.189854,-0.087299,-3.333745,-6.713144,-0.099449,3.247436,-1.427964,0.072198,-1.235862,0.057512
0.254000,-1.117337,-0.888473,0.312376,0.959363,0.042672,-0.022354,0.278031,-0.352480,-0.306290,0.039518,0.014678,0.698574,-0.430282,-0.049782,-0.548781,-0.210822,0.082543,0.882671,0.010448,0.043716,-0.895123,0.069298,-0.022053,0.532580,0.133654,0.140476,1.382798,1.280655,-1.227853,-2.999715,-9.587748,0.232136,3.343550,-1.529826,0.479619,-0.801876,-0.467914
0.256000,-1.118037,-0.889051,0.312528,0.959489,0.043010,-0.021704,0.277598,-0.350110,-0.289046,0.076158,0.489985,0.513629,-0.485092,-0.050229,-0.545904,-0.209204,0.080385,0.871767,0.016431,0.045223,-0.889132,0.066761,-0.020103,0.532199,0.132052,-0.223418,1.438858,0.809058,-1.079131,-5.451574,2.991669,0.753568,2.995419,-1.268794,0.975265,-0.190565,-0.801332
0.258000,-1.118696,-0.889644,0.312734,0.959623,0.043293,-0.021220,0.277126,-0.329666,-0.296406,0.102893,0.389797,0.369015,-0.517877,-0.050231,-0.542751,-0.208766,0.079597,0.857766,0.042295,0.046484,-0.883584,0.064376,-0.018875,0.532259,0.137488,-0.001029,1.576339,0.218618,-0.393763,-7.000491,12.932097,0.630344,2.774305,-1.192083,0.613731,0.029824,2.718176
0.260000,-1.119281,-0.890296,0.312884,0.959811,0.042378,-0.021079,0.276628,-0.292445,-0.326322,0.075041,-0.857352,0.370786,-0.516415,-0.047639,-0.539227,-0.209268,0.079866,0.848065,0.053792,0.045179,-0.877825,0.061430,-0.020479,0.533842,0.139178,1.295956,1.762023,-0.250750,0.134415,-4.850596,5.748126,-0.652510,2.879357,-1.473210,-0.801568,0.791521,0.845032
0.262000,-1.119816,-0.890964,0.312957,0.960024,0.040604,-0.021133,0.276149,-0.267750,-0.333743,0.036670,-1.737367,0.423254,-0.478861,-0.043413,-0.535895,-0.209752,0.079578,0.844374,0.042461,0.042067,-0.871975,0.058187,-0.023976,0.536453,0.137989,2.113028,1.665846,-0.242261,-0.143764,-1.845593,-5.665462,-1.555794,2.924786,-1.621523,-1.748671,1.305429,-0.594383
0.264000,-1.120363,-0.891549,0.313024,0.960196,0.039470,-0.021097,0.275717,-0.273236,-0.292726,0.033477,-1.093926,0.333853,-0.439810,-0.040709,-0.533463,-0.209550,0.077419,0.840891,0.035052,0.040275,-0.867050,0.055909,-0.026028,0.539090,0.136198,1.351816,1.216034,0.101147,-1.079677,-1.741339,-3.704463,-0.895961,2.462554,-1.138843,-1.026256,1.318538,-0.895620
0.266000,-1.120959,-0.892011,0.313124,0.960294,0.039783,-0.020799,0.275354,-0.297971,-0.231035,0.050015,0.370751,0.187534,-0.394477,-0.041351,-0.532151,-0.208234,0.073136,0.833921,0.048198,0.041464,-0.863500,0.055221,-0.025066,0.540550,0.135823,-0.321212,0.655943,0.657797,-2.141572,-3.484932,6.573086,0.594491,1.774965,-0.344406,0.481334,0.729887,-0.187433
0.268000,-1.121569,-0.892441,0.313220,0.960366,0.040365,-0.020417,0.275048,-0.305179,-0.214717,0.047790,0.654582,0.196520,-0.340743,-0.043803,-0.530425,-0.215912,0.068771,0.826369,0.065781,0.043156,-0.860215,0.054836,-0.023566,0.540787,0.136444,-1.225868,0.862997,-3.838926,-2.182574,-3.776101,8.791617,0.845960,1.642948,-0.192188,0.749840,0.118783,0.310378
0.270000,-1.122138,-0.892947,0.313233,0.960473,0.039906,-0.020083,0.274766,-0.284387,-0.252920,0.006367,-0.358781,0.437649,-0.303513,-0.044064,-0.529999,-0.219587,0.066508,0.822131,0.067065,0.042637,-0.855919,0.053407,-0.024231,0.539882,0.137284,-0.130172,0.212898,-1.837367,-1.131505,-2.119062,0.641927,-0.259414,2.147857,-0.714495,-0.332285,-0.452542,0.419788
0.272000,-1.122665,-0.893526,0.313169,0.960614,0.038564,-0.019787,0.274486,-0.263244,-0.289681,-0.031614,-1.218378,0.644607,-0.292795,-0.042307,-0.531138,-0.217813,0.066742,0.819657,0.059061,0.040254,-0.850752,0.051103,-0.026721,0.538116,0.138208,0.878395,-0.569080,0.886885,0.117111,-1.237049,-4.001787,-1.191576,2.583553,-1.152165,-1.245318,-0.883260,0.462245
0.274000,-1.123180,-0.894116,0.313088,0.960755,0.037231,-0.019477,0.274197,-0.257972,-0.295266,-0.040970,-1.207249,0.655311,-0.302484,-0.040484,-0.532931,-0.214240,0.068587,0.815096,0.060667,0.037861,-0.845645,0.048906,-0.029192,0.535925,0.139346,0.911342,-0.896847,1.786848,0.922285,-2.280385,0.802677,-1.196753,2.553306,-1.098498,-1.235229,-1.095363,0.568973
0.276000,-1.123716,-0.894663,0.313012,0.960877,0.036438,-0.019102,0.273904,-0.267859,-0.273535,-0.037655,-0.669371,0.568621,-0.313088,-0.039751,-0.534399,-0.210348,0.070340,0.808160,0.073719,0.036614,-0.841108,0.047370,-0.030406,0.533909,0.140256,0.366555,-0.733928,1.945807,0.876689,-3.468123,6.526359,-0.623149,2.268539,-0.767887,-0.607008,-1.007730,0.454789
0.278000,-1.124283,-0.895147,0.312932,0.960975,0.036114,-0.018667,0.273633,-0.283176,-0.241603,-0.039999,-0.200698,0.498757,-0.297188,-0.039914,-0.535280,-0.206759,0.070393,0.801877,0.083738,0.036420,-0.837112,0.046441,-0.030397,0.532298,0.140504,-0.081536,-0.440333,1.794304,0.026711,-3.141353,5.009074,-0.097170,1.997914,-0.464688,0.004239,-0.805810,0.123978
0.280000,-1.124867,-0.895590,0.312847,0.961064,0.035880,-0.018222,0.273380,-0.292446,-0.221526,-0.042552,-0.111452,0.484094,-0.279361,-0.040182,-0.535457,-0.203717,0.068903,0.797936,0.082408,0.036488,-0.833241,0.045595,-0.029727,0.531049,0.144028,-0.133943,-0.088587,1.520944,-0.745167,-1.970769,-0.664914,0.034253,1.935670,-0.422953,0.335279,-0.624549,1.762021
0.282000,-1.125438,-0.896036,0.312762,0.961168,0.035338,-0.017988,0.273100,-0.285402,-0.223361,-0.042532,-0.464733,0.365641,-0.296148,-0.039571,-0.534830,-0.201913,0.067775,0.794750,0.078270,0.035926,-0.829618,0.044779,-0.029503,0.531318,0.144435,0.305517,0.313536,0.902350,-0.563924,-1.592778,-2.069107,-0.281221,1.811193,-0.407967,0.111934,0.134502,0.203631
0.284000,-1.125997,-0.896492,0.312704,0.961282,0.034653,-0.017969,0.272787,-0.279191,-0.227757,-0.029222,-0.663552,0.195894,-0.320309,-0.038369,-0.533485,-0.201480,0.067709,0.789909,0.082909,0.035020,-0.826393,0.044127,-0.029599,0.532774,0.142710,0.600753,0.672536,0.216532,-0.032894,-2.420524,2.319789,-0.453096,1.612916,-0.325745,-0.048014,0.728263,-0.862465
0.286000,-1.126560,-0.896951,0.312668,0.961394,0.033918,-0.018070,0.272478,-0.281570,-0.229659,-0.017600,-0.743439,0.094628,-0.310943,-0.036923,-0.531583,-0.202002,0.068202,0.783850,0.093219,0.033963,-0.823385,0.043545,-0.030013,0.534125,0.140737,0.723326,0.950976,-0.261297,0.246417,-3.029625,5.154882,-0.528543,1.503805,-0.290992,-0.207208,0.675296,-0.986539
0.288000,-1.127146,-0.897400,0.312636,0.961494,0.033175,-0.018160,0.272211,-0.292987,-0.224143,-0.015952,-0.747294,0.109020,-0.267088,-0.035523,-0.529324,-0.202825,0.068135,0.778639,0.098328,0.032892,-0.820282,0.042827,-0.030593,0.534608,0.139366,0.700020,1.129416,-0.411257,-0.033638,-2.605691,2.554510,-0.535153,1.551332,-0.358973,-0.290072,0.241720,-0.685537
0.290000,-1.127768,-0.897814,0.312603,0.961571,0.032658,-0.018128,0.272005,-0.311220,-0.207020,-0.016744,-0.494495,0.166226,-0.210379,-0.034754,-0.526954,-0.203444,0.066734,0.774639,0.096420,0.032329,-0.817080,0.042072,-0.030783,0.534085,0.138875,0.384118,1.184804,-0.309751,-0.700676,-1.999905,-0.954194,-0.281791,1.601087,-0.377590,-0.094604,-0.261799,-0.245367
0.292000,-1.128421,-0.898195,0.312580,0.961625,0.032478,-0.017982,0.271843,-0.326332,-0.190850,-0.011567,-0.138193,0.184568,-0.172694,-0.034768,-0.524576,-0.203868,0.064616,0.770149,0.096206,0.032478,-0.813923,0.041424,-0.030358,0.532765,0.139200,-0.006983,1.189205,-0.211738,-1.058949,-2.245087,-0.106800,0.074408,1.578791,-0.324347,0.212501,-0.659607,0.162562
0.294000,-1.129081,-0.898572,0.312564,0.961673,0.032406,-0.017807,0.271696,-0.330127,-0.188130,-0.007781,-0.025559,0.184439,-0.158361,-0.034982,-0.522156,-0.204258,0.062943,0.764474,0.101793,0.032830,-0.810772,0.040776,-0.029813,0.530970,0.139970,-0.106846,1.209808,-0.194900,-0.836365,-2.837159,2.793667,0.176171,1.575407,-0.323830,0.272447,-0.897444,0.384996
0.296000,-1.129726,-0.898968,0.312535,0.961728,0.032072,-0.017680,0.271548,-0.322477,-0.197997,-0.014619,-0.291593,0.208465,-0.155446,-0.034603,-0.519655,-0.204658,0.062348,0.758763,0.108287,0.032616,-0.807446,0.039878,-0.029900,0.528970,0.140720,0.189551,1.250760,-0.200401,-0.297368,-2.855617,3.247024,-0.107015,1.663067,-0.448694,-0.043451,-1.000273,0.374696
0.298000,-1.130368,-0.899437,0.312517,0.961801,0.031044,-0.017595,0.271414,-0.320749,-0.234555,-0.009221,-0.969965,0.357759,-0.133459,-0.032827,-0.516552,-0.205357,0.063437,0.753433,0.114366,0.030921,-0.803103,0.037780,-0.031510,0.526118,0.141952,0.888142,1.551603,-0.349217,0.544271,-2.665016,3.039118,-0.847474,2.171509,-1.049403,-0.805001,-1.425986,0.616136
0.300000,-1.131021,-0.899924,0.312496,0.961872,0.029755,-0.017464,0.271315,-0.326622,-0.243817,-0.010339,-1.208428,0.474110,-0.095139,-0.030645,-0.513182,-0.205962,0.064577,0.749297,0.116519,0.028688,-0.798201,0.035060,-0.033664,0.522585,0.143642,1.090778,1.684739,-0.302412,0.570049,-2.067879,1.076767,-1.116360,2.451051,-1.360026,-1.076951,-1.766339,0.844921
0.302000,-1.131704,-0.900337,0.312443,0.961916,0.029041,-0.017131,0.271258,-0.341612,-0.206581,-0.026519,-0.598748,0.513685,-0.064098,-0.030535,-0.510447,-0.204797,0.063814,0.745840,0.118227,0.027740,-0.793623,0.032872,-0.034246,0.518997,0.144396,0.054864,1.367641,0.582399,-0.381380,-1.728463,0.854107,-0.474379,2.288852,-1.093930,-0.291476,-1.794018,0.377302
0.304000,-1.132404,-0.900683,0.312364,0.961938,0.028847,-0.016675,0.271230,-0.349985,-0.172799,-0.039383,-0.063840,0.491065,-0.043486,-0.032088,-0.508238,-0.202494,0.061569,0.742457,0.122466,0.027918,-0.789569,0.031352,-0.033321,0.515753,0.143615,-0.776409,1.104572,1.151406,-1.122798,-1.691457,2.119347,0.089291,2.026772,-0.759953,0.462605,-1.622258,-0.390457
0.306000,-1.133048,-0.900995,0.312199,0.961972,0.028601,-0.016313,0.271156,-0.321970,-0.155983,-0.082464,-0.140238,0.412672,-0.086573,-0.033025,-0.508995,-0.190436,0.059577,0.739717,0.127930,0.028026,-0.786236,0.030578,-0.031788,0.516127,0.129717,-0.468376,-0.378762,6.028886,-0.995941,-1.370323,2.732177,0.054083,1.666730,-0.386999,0.766419,0.187306,-6.949164
0.308000,-1.133653,-0.901340,0.312014,0.962005,0.027877,-0.016110,0.271128,-0.302561,-0.172401,-0.092633,-0.643128,0.391424,-0.030036,-0.033503,-0.509167,-0.185450,0.058635,0.737454,0.132018,0.026982,-0.782999,0.029691,-0.032335,0.515739,0.122812,-0.239168,-0.086065,2.493020,-0.470830,-1.131245,2.043643,-0.522043,1.618450,-0.443309,-0.273388,-0.193971,-3.452509
0.310000,-1.134181,-0.901695,0.311746,0.962052,0.026713,-0.016057,0.271080,-0.264120,-0.177811,-0.134190,-1.107507,0.365809,-0.041696,-0.032331,-0.512617,-0.170817,0.058919,0.735948,0.134140,0.024974,-0.780131,0.029081,-0.033944,0.517808,0.110529,0.586014,-1.724687,7.316815,0.142099,-0.753302,1.061322,-1.004062,1.433809,-0.305366,-0.804551,1.034462,-6.141366
0.312000,-1.134699,-0.902042,0.311474,0.962082,0.025532,-0.016029,0.271088,-0.258675,-0.173321,-0.136027,-1.129080,0.347502,0.017892,-0.031975,-0.515649,-0.163550,0.059247,0.733956,0.137370,0.022846,-0.777466,0.028574,-0.036366,0.519166,0.106519,0.178223,-1.516218,3.633360,0.163736,-0.995812,1.614964,-1.063852,1.332903,-0.253421,-1.210848,0.678949,-2.005145
0.314000,-1.135179,-0.902311,0.311116,0.962117,0.024734,-0.015947,0.271043,-0.240058,-0.134335,-0.178811,-0.746887,0.295133,-0.041808,-0.031859,-0.522849,-0.142410,0.058903,0.731736,0.142450,0.021667,-0.775557,0.028997,-0.036713,0.524946,0.088706,0.057729,-3.599831,10.569934,-0.171811,-1.109960,2.539761,-0.589700,0.954138,0.211849,-0.173511,2.889886,-8.906499
0.316000,-1.135675,-0.902543,0.310761,0.962135,0.024139,-0.015800,0.271044,-0.248351,-0.116263,-0.177366,-0.533288,0.302978,0.001679,-0.033448,-0.529082,-0.130442,0.057828,0.729055,0.147138,0.020936,-0.773725,0.029486,-0.036834,0.530406,0.076672,-0.794447,-3.116702,5.983863,-0.537301,-1.340521,2.344304,-0.365462,0.916029,0.244147,-0.060592,2.729987,-6.017004
0.318000,-1.136132,-0.902750,0.310328,0.962169,0.023442,-0.015650,0.270990,-0.228455,-0.103221,-0.216606,-0.632128,0.332193,-0.053349,-0.034316,-0.538527,-0.107328,0.057070,0.726713,0.149415,0.020136,-0.772009,0.030160,-0.036274,0.539178,0.054249,-0.433656,-4.722243,11.557034,-0.379351,-1.171230,1.138535,-0.399840,0.857842,0.337323,0.280051,4.385998,-11.211554
0.320000,-1.136598,-0.902981,0.309912,0.962196,0.022484,-0.015490,0.270985,-0.233066,-0.115559,-0.208080,-0.878577,0.414541,-0.000859,-0.035730,-0.546503,-0.093929,0.056919,0.723660,0.151469,0.018770,-0.769772,0.030193,-0.037126,0.546137,0.042861,-0.707299,-3.988362,6.699412,-0.075575,-1.526466,1.026595,-0.683392,1.118922,0.016350,-0.426050,3.479557,-5.694063
0.322000,-1.137022,-0.903211,0.309425,0.962248,0.021278,-0.015357,0.270906,-0.211599,-0.115142,-0.243530,-1.127329,0.453102,-0.075071,-0.035737,-0.557656,-0.067826,0.057787,0.720252,0.154856,0.017027,-0.767465,0.030204,-0.037651,0.556161,0.020501,-0.003244,-5.576159,13.051806,0.433960,-1.703854,1.693742,-0.871210,1.153124,0.005403,-0.262185,5.012130,-11.180026
0.324000,-1.137463,-0.903446,0.308951,0.962293,0.019976,-0.015184,0.270855,-0.220477,-0.117352,-0.237066,-1.206768,0.519245,-0.044649,-0.036559,-0.567527,-0.049744,0.058761,0.716166,0.159203,0.015124,-0.764765,0.029768,-0.038807,0.565027,0.004686,-0.411275,-4.935826,9.040738,0.486995,-2.043099,2.173470,-0.951553,1.350426,-0.217974,-0.578399,4.433049,-7.907525
0.326000,-1.137888,-0.903638,0.308407,0.962352,0.018789,-0.014938,0.270745,-0.212539,-0.096289,-0.271601,-1.078694,0.557041,-0.109086,-0.037133,-0.580092,-0.020687,0.059286,0.712487,0.162464,0.013655,-0.762180,0.029616,-0.038606,0.576680,-0.022176,-0.286891,-6.282274,14.528725,0.262826,-1.839298,1.630405,-0.734336,1.292294,-0.076144,0.100934,5.826456,-13.430986
0.328000,-1.138345,-0.903813,0.307879,0.962394,0.017716,-0.014587,0.270686,-0.228596,-0.087079,-0.264033,-0.938998,0.627805,-0.058732,-0.039241,-0.591146,-0.000793,0.058965,0.708785,0.164676,0.012465,-0.759326,0.029206,-0.038727,0.586600,-0.040389,-1.053742,-5.527007,9.947043,-0.160347,-1.851050,1.106334,-0.595339,1.427073,-0.204846,-0.060861,4.959703,-9.106511
0.330000,-1.138781,-0.903961,0.307294,0.962448,0.016661,-0.014214,0.270580,-0.218224,-0.074121,-0.292755,-0.917617,0.643268,-0.107601,-0.040827,-0.604366,0.027615,0.058412,0.705443,0.167044,0.011436,-0.756629,0.029062,-0.038193,0.598534,-0.066253,-0.793039,-6.609831,14.203789,-0.276832,-1.670933,1.183820,-0.514509,1.348524,-0.072088,0.267105,5.966956,-12.931677
0.332000,-1.139221,-0.904122,0.306715,0.962496,0.015425,-0.013861,0.270503,-0.219799,-0.080331,-0.289495,-1.095669,0.673590,-0.075271,-0.042688,-0.616536,0.049131,0.057997,0.701943,0.170504,0.010014,-0.753737,0.028644,-0.038844,0.609233,-0.085518,-0.930525,-6.084930,10.758329,-0.207559,-1.750206,1.730005,-0.710995,1.445894,-0.208984,-0.325407,5.349841,-9.632814
0.334000,-1.139620,-0.904288,0.306075,0.962561,0.013890,-0.013599,0.270367,-0.199478,-0.083253,-0.319702,-1.409840,0.665921,-0.130860,-0.043031,-0.630642,0.078310,0.058223,0.698970,0.173913,0.008046,-0.750966,0.028353,-0.039740,0.622008,-0.112853,-0.171616,-7.053473,14.589271,0.113056,-1.486177,1.704336,-0.983688,1.385313,-0.145310,-0.448088,6.387162,-13.667295
0.336000,-1.140027,-0.904453,0.305434,0.962617,0.012281,-0.013320,0.270259,-0.203423,-0.082645,-0.320713,-1.475037,0.702563,-0.101226,-0.043870,-0.643913,0.101808,0.058226,0.696169,0.176840,0.005937,-0.748069,0.027914,-0.041412,0.633718,-0.134484,-0.419657,-6.635226,11.748945,0.001630,-1.400497,1.463807,-1.054474,1.448817,-0.219479,-0.835824,5.855085,-10.815784
0.338000,-1.140428,-0.904582,0.304746,0.962678,0.010843,-0.012983,0.270120,-0.200483,-0.064538,-0.344012,-1.296399,0.713010,-0.135210,-0.044759,-0.658610,0.130633,0.057591,0.693704,0.179728,0.004297,-0.745397,0.027847,-0.042194,0.646736,-0.160511,-0.444147,-7.348416,14.412357,-0.317445,-1.232668,1.443901,-0.819958,1.335731,-0.033758,-0.391242,6.509173,-13.013139
0.340000,-1.140843,-0.904701,0.304043,0.962731,0.009422,-0.012566,0.270004,-0.207664,-0.059074,-0.351685,-1.256530,0.784515,-0.112638,-0.046522,-0.672490,0.154313,0.057413,0.692375,0.179662,0.002750,-0.742550,0.027670,-0.043268,0.658825,-0.181540,-0.881548,-6.939876,11.840048,-0.089307,-0.664658,-0.032865,-0.773934,1.423570,-0.088292,-0.536702,6.044530,-10.514832
0.342000,-1.141252,-0.904792,0.303299,0.962791,0.008133,-0.012112,0.269852,-0.204535,-0.045616,-0.371831,-1.121823,0.784085,-0.150707,-0.048285,-0.687385,0.181334,0.057499,0.692105,0.177394,0.001574,-0.739915,0.027832,-0.043522,0.672188,-0.206646,-0.881718,-7.447806,13.510660,0.043257,-0.134904,-1.134259,-0.587587,1.317516,0.080881,-0.127078,6.681375,-12.552958
0.344000,-1.141676,-0.904867,0.302565,0.962847,0.007045,-0.011620,0.269704,-0.212139,-0.037577,-0.366890,-0.916555,0.767159,-0.148610,-0.050756,-0.701793,0.204768,0.057568,0.692367,0.173816,0.000833,-0.737391,0.028148,-0.043552,0.685141,-0.228611,-1.235307,-7.203743,11.716739,0.034328,0.131075,-1.788974,-0.370591,1.262038,0.158207,-0.015022,6.476577,-10.982461
0.346000,-1.142091,-0.904934,0.301838,0.962911,0.006104,-0.011188,0.269519,-0.207393,-0.033352,-0.363472,-0.792396,0.669275,-0.187356,-0.052733,-0.716997,0.229991,0.057802,0.693063,0.169576,0.000387,-0.735249,0.028839,-0.043163,0.699111,-0.252692,-0.988536,-7.602168,12.611656,0.116884,0.347990,-2.120218,-0.223339,1.070812,0.345253,0.194560,6.984742,-12.040457
0.348000,-1.142512,-0.905008,0.301160,0.962974,0.005318,-0.010825,0.269324,-0.210374,-0.037224,-0.339295,-0.661443,0.561078,-0.197539,-0.054527,-0.731913,0.252805,0.058095,0.693810,0.165297,0.000180,-0.733358,0.029694,-0.042996,0.712724,-0.273671,-0.896966,-7.458246,11.406859,0.146790,0.373470,-2.139508,-0.103260,0.945804,0.427396,0.083403,6.806432,-10.489380
0.350000,-1.142922,-0.905098,0.300521,0.963043,0.004572,-0.010596,0.269101,-0.204798,-0.044941,-0.319197,-0.659397,0.420630,-0.226544,-0.055323,-0.747305,0.275926,0.058686,0.694662,0.161116,-0.000036,-0.731812,0.030766,-0.043110,0.726891,-0.294914,-0.398234,-7.695544,11.560632,0.295533,0.425958,-2.090488,-0.107928,0.773135,0.536067,-0.057004,7.083580,-10.621779
0.352000,-1.143341,-0.905207,0.299938,0.963113,0.003910,-0.010450,0.268866,-0.209559,-0.054279,-0.291812,-0.600998,0.318139,-0.238753,-0.055649,-0.762393,0.297676,0.059383,0.695433,0.157164,-0.000165,-0.730392,0.031859,-0.043562,0.740704,-0.314680,-0.162962,-7.544168,10.875286,0.348290,0.385707,-1.976029,-0.064370,0.709849,0.546577,-0.225949,6.906898,-9.882893
0.354000,-1.143767,-0.905325,0.299407,0.963186,0.003380,-0.010385,0.268616,-0.213115,-0.059080,-0.265127,-0.495702,0.204963,-0.255565,-0.055588,-0.777533,0.318286,0.060053,0.696083,0.153621,-0.000096,-0.729170,0.033045,-0.044060,0.754661,-0.334004,0.030727,-7.570107,10.304870,0.335271,0.324594,-1.771117,0.034360,0.611025,0.593020,-0.249076,6.978288,-9.661705
0.356000,-1.144221,-0.905447,0.298934,0.963260,0.003096,-0.010323,0.268356,-0.227048,-0.061415,-0.236461,-0.259884,0.135808,-0.267724,-0.055709,-0.792308,0.338399,0.060394,0.696460,0.150562,0.000439,-0.727970,0.034226,-0.044249,0.768188,-0.352789,-0.060793,-7.387438,10.056426,0.170385,0.188952,-1.529477,0.267510,0.600009,0.590643,-0.094466,6.763240,-9.392770
0.358000,-1.144693,-0.905576,0.298524,0.963333,0.003007,-0.010299,0.268094,-0.235804,-0.064170,-0.205422,-0.082451,0.047281,-0.271019,-0.055988,-0.806870,0.356095,0.060487,0.696560,0.148109,0.001298,-0.726875,0.035427,-0.044417,0.781526,-0.369537,-0.139530,-7.280924,8.847991,0.046668,0.049695,-1.226915,0.429488,0.547371,0.600314,-0.084092,6.669031,-8.373735
0.360000,-1.145185,-0.905720,0.298167,0.963409,0.003051,-0.010308,0.267819,-0.245984,-0.072096,-0.178109,0.036865,-0.020151,-0.285739,-0.056151,-0.821192,0.374165,0.060461,0.696393,0.146172,0.002368,-0.725767,0.036566,-0.044531,0.794623,-0.386380,-0.081540,-7.160905,9.034935,-0.013436,-0.083505,-0.968186,0.535124,0.553984,0.569532,-0.056952,6.548746,-8.421551
0.362000,-1.145681,-0.905887,0.297876,0.963484,0.003096,-0.010416,0.267544,-0.248251,-0.083335,-0.145652,0.011754,-0.116867,-0.285294,-0.056086,-0.835248,0.388645,0.060566,0.695983,0.144843,0.003324,-0.724721,0.037600,-0.045264,0.807616,-0.400389,0.032576,-7.028246,7.240058,0.052806,-0.205051,-0.664522,0.477916,0.522814,0.517230,-0.366773,6.496680,-7.004705
0.364000,-1.146189,-0.906076,0.297634,0.963565,0.003181,-0.010586,0.267246,-0.253971,-0.094593,-0.120783,0.032885,-0.186703,-0.308303,-0.055593,-0.849287,0.404382,0.060741,0.695346,0.144034,0.004294,-0.723653,0.038541,-0.046032,0.820717,-0.415377,0.246641,-7.019421,7.868298,0.087265,-0.318379,-0.404574,0.485020,0.534267,0.470490,-0.384012,6.550179,-7.493881
0.366000,-1.146704,-0.906280,0.297459,0.963643,0.003321,-0.010829,0.266953,-0.257331,-0.102165,-0.087584,0.066514,-0.270894,-0.304603,-0.055239,-0.863053,0.415749,0.060897,0.694413,0.143920,0.005270,-0.722634,0.039378,-0.047230,0.833721,-0.426392,0.177086,-6.883117,5.683946,0.078000,-0.466459,-0.056880,0.488107,0.509387,0.418306,-0.598581,6.501922,-5.507628
0.368000,-1.147235,-0.906495,0.297330,0.963728,0.003597,-0.011090,0.266632,-0.265436,-0.107625,-0.064743,0.192495,-0.325505,-0.333392,-0.054799,-0.876933,0.429042,0.060893,0.693212,0.144398,0.006494,-0.721591,0.040169,-0.047923,0.847000,-0.438843,0.219781,-6.940116,6.646402,-0.001620,-0.600772,0.239081,0.611869,0.521519,0.395329,-0.346439,6.639507,-6.225537
0.370000,-1.147775,-0.906720,0.297267,0.963810,0.003972,-0.011396,0.266318,-0.270386,-0.112088,-0.031179,0.275822,-0.395031,-0.327604,-0.054849,-0.890438,0.437222,0.060748,0.691677,0.145614,0.007830,-0.720569,0.040841,-0.048831,0.860100,-0.446638,-0.024934,-6.752282,4.089751,-0.072695,-0.767231,0.607831,0.667790,0.510790,0.336210,-0.454284,6.550148,-3.897514
0.372000,-1.148327,-0.906962,0.297247,0.963900,0.004390,-0.011743,0.265971,-0.275639,-0.121236,-0.010178,0.306315,-0.446222,-0.362483,-0.054546,-0.904079,0.447792,0.060639,0.689926,0.147357,0.009222,-0.719483,0.041406,-0.049302,0.873552,-0.456688,0.151702,-6.820317,5.284930,-0.054332,-0.875656,0.871299,0.696130,0.543206,0.282351,-0.235647,6.726259,-5.024786
0.374000,-1.148878,-0.907230,0.297290,0.963987,0.004712,-0.012176,0.265630,-0.275908,-0.133886,0.021568,0.191090,-0.503614,-0.353654,-0.054346,-0.917166,0.452661,0.060782,0.687945,0.149623,0.010307,-0.718317,0.041694,-0.050526,0.886628,-0.461917,0.099756,-6.543697,2.434800,0.071567,-0.990602,1.133128,0.542604,0.582878,0.144196,-0.611651,6.537888,-2.614385
0.376000,-1.149437,-0.907524,0.297361,0.964082,0.004949,-0.012645,0.265257,-0.279521,-0.147228,0.035303,0.098820,-0.515945,-0.384960,-0.053570,-0.930348,0.460579,0.061196,0.685878,0.152052,0.011197,-0.716953,0.041749,-0.051527,0.899849,-0.469705,0.387953,-6.591174,3.959104,0.206777,-1.033035,1.214399,0.444674,0.682004,0.027552,-0.500790,6.610573,-3.894287
0.378000,-1.150006,-0.907833,0.297477,0.964171,0.005149,-0.013125,0.264906,-0.284200,-0.154534,0.058312,0.060412,-0.516054,-0.362418,-0.053431,-0.942802,0.462908,0.061661,0.683649,0.154678,0.011937,-0.715420,0.041524,-0.053048,0.912267,-0.472027,0.069412,-6.226830,1.164500,0.232316,-1.114536,1.313292,0.370240,0.766782,-0.112361,-0.760431,6.208991,-1.160895
0.380000,-1.150590,-0.908153,0.297603,0.964266,0.005373,-0.013571,0.264535,-0.292124,-0.159560,0.062726,0.092566,-0.490045,-0.383711,-0.053254,-0.955305,0.468561,0.062098,0.681393,0.157242,0.012747,-0.713695,0.041171,-0.053847,0.924682,-0.477212,0.088651,-6.251634,2.826181,0.218532,-1.128041,1.282015,0.405012,0.862288,-0.176743,-0.399477,6.207341,-2.592722
0.382000,-1.151185,-0.908476,0.297758,0.964352,0.005596,-0.013999,0.264195,-0.297504,-0.161915,0.077593,0.097206,-0.472618,-0.351239,-0.053994,-0.966974,0.468448,0.062457,0.679057,0.159814,0.013500,-0.711855,0.040643,-0.054969,0.936215,-0.477275,-0.369836,-5.834543,-0.056294,0.179755,-1.168125,1.285748,0.376208,0.920192,-0.263887,-0.561201,5.766302,-0.031219
0.384000,-1.151786,-0.908813,0.297908,0.964442,0.005751,-0.014427,0.263839,-0.300496,-0.168484,0.074938,0.030260,-0.454127,-0.366348,-0.054342,-0.978751,0.471624,0.062969,0.676819,0.162150,0.014113,-0.709908,0.040058,-0.055584,0.947882,-0.480656,-0.174261,-5.888489,1.588116,0.255815,-1.119057,1.168217,0.306658,0.973458,-0.292671,-0.307361,5.833446,-1.690623
0.386000,-1.152385,-0.909162,0.298074,0.964523,0.005782,-0.014885,0.263517,-0.299528,-0.174389,0.083084,-0.095898,-0.450759,-0.330067,-0.055048,-0.989798,0.469687,0.063660,0.674624,0.164347,0.014395,-0.707940,0.039368,-0.056875,0.958804,-0.479620,-0.352925,-5.523125,-0.968937,0.345392,-1.097570,1.098587,0.141084,0.984025,-0.344708,-0.645615,5.461206,0.518046
0.388000,-1.152985,-0.909521,0.298227,0.964606,0.005747,-0.015353,0.263187,-0.299989,-0.179230,0.076438,-0.162259,-0.442815,-0.337397,-0.055194,-1.001058,0.471208,0.064485,0.672557,0.166305,0.014535,-0.705978,0.038740,-0.057731,0.969902,-0.481459,-0.072711,-5.630109,0.760966,0.412822,-1.033660,0.978829,0.070231,0.980948,-0.314030,-0.428027,5.549096,-0.919675
0.390000,-1.153587,-0.909876,0.298385,0.964678,0.005731,-0.015814,0.262893,-0.301187,-0.177558,0.079132,-0.142060,-0.441414,-0.299359,-0.055909,-1.011747,0.469028,0.065185,0.670500,0.168202,0.014656,-0.704113,0.038197,-0.058822,0.980350,-0.479374,-0.357733,-5.344808,-1.090060,0.349859,-1.028098,0.948258,0.060446,0.932609,-0.271854,-0.545406,5.223976,1.042641
0.392000,-1.154194,-0.910229,0.298527,0.964750,0.005744,-0.016271,0.262601,-0.303040,-0.176521,0.070696,-0.112614,-0.444093,-0.298521,-0.056365,-1.022592,0.469672,0.065805,0.668527,0.169972,0.014835,-0.702360,0.037844,-0.059287,0.990994,-0.479838,-0.228108,-5.422422,0.322006,0.310111,-0.986471,0.885054,0.089416,0.876535,-0.176086,-0.232204,5.321881,-0.232200
0.394000,-1.154798,-0.910578,0.298663,0.964813,0.005756,-0.016748,0.262340,-0.301986,-0.174394,0.067922,-0.118173,-0.464343,-0.265201,-0.057136,-1.033061,0.467796,0.066359,0.666607,0.171698,0.014958,-0.700801,0.037681,-0.059937,1.001356,-0.478438,-0.385300,-5.234322,-0.938294,0.277087,-0.960415,0.862949,0.061279,0.779267,-0.081606,-0.325169,5.181200,0.700121
0.396000,-1.155399,-0.910929,0.298780,0.964873,0.005729,-0.017255,0.262087,-0.300944,-0.175651,0.058711,-0.163902,-0.482659,-0.256349,-0.057512,-1.043627,0.467883,0.066978,0.664787,0.173305,0.014976,-0.699392,0.037705,-0.060403,1.011891,-0.479096,-0.187872,-5.283110,0.043756,0.309228,-0.909589,0.803511,0.008968,0.704633,0.011937,-0.233122,5.267239,-0.328997
0.398000,-1.155995,-0.911279,0.298879,0.964927,0.005666,-0.017798,0.261854,-0.297876,-0.174952,0.049318,-0.207380,-0.507227,-0.235390,-0.057753,-1.054357,0.468260,0.067635,0.663076,0.174804,0.014884,-0.698182,0.037942,-0.061047,1.022570,-0.479966,-0.120947,-5.365174,0.188406,0.328701,-0.855697,0.749625,-0.046066,0.604985,0.118541,-0.321869,5.339767,-0.434649
0.400000,-1.156592,-0.911625,0.298959,0.964975,0.005612,-0.018347,0.261638,-0.298407,-0.173284,0.040193,-0.199961,-0.515822,-0.217165,-0.057997,-1.065185,0.469691,0.068235,0.661423,0.176209,0.014795,-0.697096,0.038346,-0.061701,1.033234,-0.481370,-0.121575,-5.413899,0.715645,0.299830,-0.826245,0.702596,-0.044383,0.543011,0.201667,-0.327096,5.332030,-0.702228
0.402000,-1.157196,-0.911965,0.299043,0.965014,0.005598,-0.018868,0.261459,-0.302122,-0.169783,0.041958,-0.153140,-0.499957,-0.178889,-0.058914,-1.075305,0.467681,0.068658,0.659711,0.177605,0.014767,-0.695998,0.038720,-0.062663,1.043040,-0.478925,-0.458612,-5.059699,-1.004971,0.211733,-0.855992,0.697806,-0.013784,0.549024,0.187316,-0.480977,4.902956,1.222454
0.404000,-1.157808,-0.912304,0.299122,0.965049,0.005569,-0.019378,0.261293,-0.305982,-0.169758,0.039484,-0.164526,-0.485230,-0.166699,-0.059853,-1.085051,0.465650,0.069069,0.657988,0.178932,0.014721,-0.694831,0.039034,-0.063482,1.052531,-0.476757,-0.469627,-4.873060,-1.015630,0.205081,-0.861628,0.663679,-0.023341,0.583426,0.156793,-0.409532,4.745266,1.083819
0.406000,-1.158432,-0.912649,0.299219,0.965076,0.005481,-0.019866,0.261158,-0.312000,-0.172158,0.048744,-0.215486,-0.447582,-0.132164,-0.061300,-1.093354,0.459069,0.069507,0.656160,0.180222,0.014540,-0.693434,0.039040,-0.064739,1.060635,-0.470662,-0.723367,-4.151738,-3.290546,0.219001,-0.914312,0.645231,-0.090488,0.698673,0.003193,-0.628351,4.052273,3.047710
0.408000,-1.159066,-0.913004,0.299313,0.965107,0.005305,-0.020351,0.261010,-0.316826,-0.177500,0.046932,-0.299719,-0.422234,-0.145423,-0.061920,-1.101396,0.455526,0.070124,0.654330,0.181404,0.014221,-0.691829,0.038846,-0.065411,1.068643,-0.467725,-0.310248,-4.020734,-1.771312,0.308804,-0.914812,0.590745,-0.159385,0.802309,-0.096969,-0.336168,4.004033,1.468270
0.410000,-1.159720,-0.913362,0.299434,0.965130,0.005123,-0.020775,0.260895,-0.327005,-0.179330,0.060433,-0.288684,-0.362396,-0.110233,-0.063096,-1.107623,0.447915,0.070645,0.652315,0.182593,0.013890,-0.689901,0.038268,-0.066336,1.074721,-0.460076,-0.588047,-3.113567,-3.805666,0.260395,-1.007374,0.594562,-0.165534,0.964115,-0.289347,-0.462146,3.038949,3.824874
0.412000,-1.160386,-0.913726,0.299555,0.965156,0.004916,-0.021184,0.260771,-0.333091,-0.181900,0.060558,-0.308505,-0.340239,-0.120587,-0.063461,-1.113491,0.443276,0.071207,0.650257,0.183763,0.013548,-0.687814,0.037548,-0.066466,1.080548,-0.455112,-0.182486,-2.933924,-2.319677,0.281248,-1.029323,0.584755,-0.171061,1.043156,-0.359619,-0.065049,2.913190,2.482068
0.414000,-1.161072,-0.914087,0.299711,0.965168,0.004751,-0.021539,0.260700,-0.343030,-0.180509,0.077730,-0.254157,-0.300277,-0.066821,-0.064740,-1.117031,0.432160,0.071550,0.647965,0.185076,0.013257,-0.685534,0.036549,-0.067050,1.084003,-0.443900,-0.639136,-1.770289,-5.557815,0.171022,-1.145628,0.656840,-0.145480,1.140180,-0.499476,-0.292009,1.727769,5.605954
0.416000,-1.161762,-0.914453,0.299862,0.965182,0.004539,-0.021924,0.260618,-0.345133,-0.182795,0.075786,-0.306724,-0.316050,-0.076033,-0.064839,-1.120365,0.424161,0.071996,0.645677,0.186440,0.012883,-0.683279,0.035577,-0.066852,1.087513,-0.436378,-0.049425,-1.666650,-3.999695,0.223077,-1.144192,0.681768,-0.186914,1.127423,-0.486168,0.098742,1.754645,3.760910
0.418000,-1.162466,-0.914816,0.300042,0.965182,0.004346,-0.022288,0.260592,-0.351771,-0.181822,0.089712,-0.281875,-0.300961,-0.019369,-0.065542,-1.121471,0.410430,0.072277,0.643214,0.187946,0.012486,-0.680983,0.034475,-0.067244,1.088726,-0.423199,-0.351693,-0.553000,-6.865623,0.140647,-1.231580,0.752871,-0.198351,1.148122,-0.550937,-0.195982,0.606955,6.589658
0.420000,-1.163170,-0.915181,0.300207,0.965184,0.004137,-0.022690,0.260554,-0.351868,-0.182159,0.082589,-0.307022,-0.333789,-0.030754,-0.064829,-1.122753,0.401375,0.072602,0.640825,0.189468,0.012058,-0.678862,0.033582,-0.066735,1.090269,-0.414436,0.356332,-0.641142,-4.527196,0.162404,-1.194544,0.761314,-0.214058,1.060639,-0.446461,0.254523,0.771429,4.381352
0.422000,-1.163888,-0.915532,0.300395,0.965169,0.004042,-0.023048,0.260581,-0.359277,-0.175769,0.093856,-0.184588,-0.320902,0.033498,-0.065110,-1.121774,0.386592,0.072438,0.638404,0.190822,0.011792,-0.676825,0.032724,-0.066754,1.089357,-0.399234,-0.140449,0.489522,-7.391366,-0.081889,-1.210329,0.676688,-0.132912,1.018567,-0.429019,-0.009315,-0.456379,7.600898
0.424000,-1.164605,-0.915879,0.300564,0.965154,0.003954,-0.023450,0.260601,-0.358153,-0.173282,0.084747,-0.188878,-0.365378,0.026775,-0.064259,-1.120903,0.375633,0.072159,0.636214,0.191884,0.011550,-0.675123,0.032235,-0.065943,1.088830,-0.388110,0.425706,0.435664,-5.479488,-0.139674,-1.094927,0.531346,-0.120904,0.850659,-0.244741,0.405117,-0.263041,5.562094
0.426000,-1.165329,-0.916222,0.300752,0.965122,0.003865,-0.023850,0.260682,-0.362147,-0.171694,0.094040,-0.188386,-0.363433,0.090042,-0.064271,-1.117637,0.358308,0.071745,0.633928,0.193002,0.011221,-0.673477,0.031712,-0.066035,1.085954,-0.371078,-0.006051,1.632543,-8.662955,-0.206751,-1.143343,0.558663,-0.164580,0.822875,-0.261345,-0.045856,-1.437994,8.516029
0.428000,-1.166048,-0.916569,0.300917,0.965094,0.003710,-0.024310,0.260746,-0.359552,-0.173266,0.082381,-0.267329,-0.403966,0.074960,-0.062989,-1.114614,0.345331,0.071538,0.631722,0.194191,0.010768,-0.672024,0.031409,-0.065427,1.083658,-0.358759,0.640701,1.511733,-6.488050,-0.103380,-1.103004,0.594911,-0.226630,0.726644,-0.151438,0.304056,-1.148260,6.159508
0.430000,-1.166781,-0.916908,0.301095,0.965052,0.003623,-0.024725,0.260866,-0.366580,-0.169641,0.089029,-0.188964,-0.378877,0.130349,-0.062784,-1.109423,0.327284,0.071109,0.629327,0.195554,0.010410,-0.670511,0.031011,-0.065445,1.078998,-0.340585,0.102578,2.595403,-9.023589,-0.214814,-1.197174,0.681539,-0.178721,0.756777,-0.199102,-0.009038,-2.330115,9.086931
0.432000,-1.167513,-0.917245,0.301246,0.965013,0.003533,-0.025163,0.260967,-0.366154,-0.168288,0.075769,-0.198623,-0.399764,0.111288,-0.061628,-1.104603,0.313751,0.070745,0.627049,0.196891,0.010084,-0.669073,0.030753,-0.064585,1.074893,-0.326703,0.578149,2.410086,-6.766481,-0.181831,-1.138892,0.668384,-0.163066,0.718892,-0.129018,0.429886,-2.052479,6.940887
0.434000,-1.168257,-0.917575,0.301405,0.964962,0.003477,-0.025569,0.261116,-0.371638,-0.165053,0.079413,-0.155827,-0.377340,0.160113,-0.061486,-1.097827,0.295221,0.070224,0.624675,0.198269,0.009803,-0.667560,0.030384,-0.064330,1.068725,-0.307843,0.070947,3.387991,-9.265139,-0.260577,-1.187007,0.688936,-0.140714,0.756304,-0.184483,0.127834,-3.083857,9.430237
0.436000,-1.168993,-0.917906,0.301535,0.964916,0.003348,-0.026023,0.261244,-0.367957,-0.165429,0.064663,-0.240042,-0.405416,0.140447,-0.060349,-1.091491,0.280333,0.069905,0.622569,0.199435,0.009404,-0.666138,0.030140,-0.063465,1.063276,-0.293295,0.568731,3.168226,-7.444113,-0.159279,-1.053422,0.582834,-0.199611,0.711030,-0.121719,0.432164,-2.724581,7.273883
0.438000,-1.169735,-0.918232,0.301666,0.964858,0.003217,-0.026460,0.261415,-0.371260,-0.163422,0.065555,-0.235388,-0.388176,0.184718,-0.060036,-1.083519,0.260962,0.069509,0.620443,0.200545,0.008979,-0.664658,0.029802,-0.063296,1.055993,-0.274186,0.156076,3.985666,-9.685348,-0.198173,-1.062865,0.554889,-0.212403,0.740178,-0.169300,0.084528,-3.641646,9.554600
0.440000,-1.170471,-0.918557,0.301765,0.964805,0.003057,-0.026928,0.261567,-0.368132,-0.162052,0.049757,-0.273383,-0.410924,0.166601,-0.058903,-1.076176,0.245415,0.069222,0.618528,0.201486,0.008526,-0.663290,0.029634,-0.062543,1.049375,-0.258728,0.566676,3.671588,-7.773401,-0.143636,-0.957487,0.470725,-0.226256,0.684132,-0.083934,0.376861,-3.308756,7.728726
0.442000,-1.171217,-0.918871,0.301860,0.964742,0.002967,-0.027359,0.261756,-0.372832,-0.157203,0.047259,-0.194268,-0.392927,0.202560,-0.058605,-1.067684,0.227002,0.068726,0.616497,0.202490,0.008213,-0.661906,0.029468,-0.062145,1.041254,-0.239608,0.149165,4.246250,-9.206757,-0.248072,-1.015258,0.501880,-0.156586,0.691767,-0.083057,0.198866,-4.060764,9.560287
0.444000,-1.171956,-0.919181,0.301923,0.964682,0.002851,-0.027825,0.261929,-0.369604,-0.155040,0.031533,-0.228408,-0.420700,0.186900,-0.057690,-1.059778,0.211655,0.068331,0.614571,0.203454,0.007879,-0.660665,0.029500,-0.061250,1.033859,-0.223960,0.457520,3.952925,-7.673168,-0.197139,-0.963025,0.482130,-0.167327,0.620427,0.016285,0.447403,-3.697241,7.823793
0.446000,-1.172699,-0.919487,0.301977,0.964614,0.002723,-0.028294,0.262129,-0.371236,-0.153103,0.027134,-0.240340,-0.420223,0.216089,-0.057339,-1.050896,0.193541,0.067925,0.612549,0.204489,0.007506,-0.659447,0.029547,-0.060846,1.025416,-0.205949,0.175215,4.440688,-9.057413,-0.203047,-1.011208,0.517594,-0.186213,0.609238,0.023171,0.201970,-4.221374,9.005302
0.448000,-1.173433,-0.919792,0.302002,0.964548,0.002538,-0.028806,0.262317,-0.367165,-0.152180,0.012415,-0.307914,-0.446499,0.204696,-0.056474,-1.042498,0.177686,0.067682,0.610594,0.205506,0.007037,-0.658355,0.029755,-0.060241,1.017577,-0.190533,0.432752,4.199251,-7.927208,-0.121462,-0.977603,0.508474,-0.234811,0.546018,0.103993,0.302415,-3.919423,7.708461
0.450000,-1.174172,-0.920089,0.302012,0.964478,0.002378,-0.029300,0.262523,-0.369632,-0.148939,0.004941,-0.277772,-0.435897,0.223104,-0.056077,-1.033616,0.161015,0.067357,0.608578,0.206530,0.006630,-0.657266,0.030000,-0.059895,1.008964,-0.173420,0.198201,4.441050,-8.335796,-0.162604,-1.007770,0.511876,-0.203034,0.544539,0.122393,0.173214,-4.306892,8.556158
0.452000,-1.174907,-0.920381,0.301993,0.964409,0.002199,-0.029813,0.262718,-0.367168,-0.145885,-0.009181,-0.301123,-0.449902,0.213040,-0.055438,-1.025196,0.146332,0.067094,0.606633,0.207500,0.006220,-0.656270,0.030387,-0.059335,1.000839,-0.158174,0.319736,4.209611,-7.341178,-0.131306,-0.972328,0.484933,-0.205084,0.497705,0.193603,0.280040,-4.062090,7.622943
0.454000,-1.175643,-0.920667,0.301955,0.964339,0.002018,-0.030325,0.262920,-0.368316,-0.142705,-0.019064,-0.303193,-0.447776,0.219300,-0.055097,-1.016577,0.131562,0.066823,0.604706,0.208405,0.005831,-0.655294,0.030829,-0.058883,0.992500,-0.143012,0.170326,4.309679,-7.384879,-0.135701,-0.963697,0.452851,-0.194696,0.487935,0.221192,0.225946,-4.169699,7.581255
0.456000,-1.176374,-0.920946,0.301894,0.964269,0.001792,-0.030865,0.263114,-0.365332,-0.139794,-0.030845,-0.353654,-0.462857,0.213605,-0.054677,-1.008199,0.117342,0.066654,0.602868,0.209230,0.005380,-0.654398,0.031370,-0.058436,0.984558,-0.129003,0.210091,4.189146,-7.110427,-0.084341,-0.918981,0.412134,-0.225507,0.448149,0.270172,0.223677,-3.970962,7.004368
0.458000,-1.177105,-0.921220,0.301808,0.964200,0.001554,-0.031406,0.263304,-0.365486,-0.136890,-0.042606,-0.365622,-0.461295,0.209429,-0.054333,-1.000056,0.104435,0.066511,0.601086,0.209949,0.004943,-0.653518,0.031973,-0.058002,0.976767,-0.116067,0.172135,4.071352,-6.453091,-0.071601,-0.890898,0.359820,-0.218233,0.440082,0.301543,0.216960,-3.895558,6.467970
0.460000,-1.177832,-0.921486,0.301705,0.964131,0.001300,-0.031958,0.263492,-0.363564,-0.132999,-0.051950,-0.384650,-0.467053,0.208413,-0.054075,-0.992143,0.091684,0.066397,0.599365,0.210601,0.004502,-0.652686,0.032640,-0.057688,0.969111,-0.102974,0.129085,3.956595,-6.375474,-0.056905,-0.860628,0.325653,-0.220503,0.415981,0.333639,0.156764,-3.828121,6.546570
0.462000,-1.178559,-0.921744,0.301573,0.964066,0.001058,-0.032506,0.263665,-0.363710,-0.128851,-0.065538,-0.371392,-0.466188,0.192412,-0.053754,-0.984935,0.081855,0.066275,0.597714,0.211150,0.004145,-0.651878,0.033402,-0.057145,0.962030,-0.092261,0.160254,3.603814,-4.914658,-0.061044,-0.825539,0.274418,-0.178557,0.404099,0.381204,0.271584,-3.540274,5.356273
0.464000,-1.179280,-0.921995,0.301426,0.964001,0.000739,-0.033103,0.263829,-0.360090,-0.125660,-0.073677,-0.460488,-0.493344,0.186956,-0.053527,-0.977727,0.070733,0.066318,0.596156,0.211654,0.003657,-0.651155,0.034225,-0.056977,0.956557,-0.084562,0.113506,3.604018,-5.560924,0.021433,-0.778881,0.252298,-0.244396,0.361229,0.411160,0.084007,-2.736688,3.849652
0.466000,-1.180003,-0.922235,0.301255,0.963939,0.000492,-0.033660,0.263985,-0.361615,-0.120203,-0.085343,-0.379191,-0.473493,0.175319,-0.053340,-0.971492,0.063252,0.066217,0.594617,0.212073,0.003375,-0.650412,0.035117,-0.056801,0.952319,-0.079263,0.093762,3.117740,-3.740869,-0.050633,-0.769384,0.209599,-0.140741,0.371668,0.446340,0.087949,-2.118853,2.649667
0.468000,-1.180742,-0.922458,0.301090,0.963873,0.000404,-0.034114,0.264168,-0.369348,-0.111346,-0.082537,-0.198305,-0.416533,0.196146,-0.054099,-0.965129,0.053940,0.065709,0.592923,0.212527,0.003461,-0.649496,0.035873,-0.056437,0.948684,-0.075466,-0.379535,3.181552,-4.655714,-0.254050,-0.847380,0.227059,0.043093,0.457904,0.378055,0.182124,-1.817555,1.898570
0.470000,-1.181495,-0.922674,0.300919,0.963809,0.000491,-0.034414,0.264363,-0.376489,-0.108083,-0.085624,0.011325,-0.314275,0.202731,-0.054987,-0.960131,0.049902,0.064808,0.591087,0.212840,0.003951,-0.648274,0.036446,-0.055802,0.945346,-0.072744,-0.444064,2.498914,-2.018850,-0.450248,-0.918051,0.156153,0.244951,0.610955,0.286163,0.317146,-1.668863,1.360856
0.472000,-1.182257,-0.922897,0.300777,0.963738,0.000583,-0.034605,0.264598,-0.381368,-0.111323,-0.071093,0.045983,-0.210865,0.242033,-0.056380,-0.954810,0.042898,0.063809,0.589049,0.213060,0.004434,-0.646625,0.036522,-0.055308,0.941982,-0.070595,-0.696352,2.660414,-3.502178,-0.499881,-1.018944,0.110230,0.241236,0.824447,0.038262,0.247377,-1.682185,1.074327
0.474000,-1.183011,-0.923148,0.300642,0.963667,0.000543,-0.034727,0.264840,-0.377083,-0.125383,-0.067472,-0.062926,-0.109306,0.253323,-0.056777,-0.950944,0.040964,0.063094,0.586969,0.212963,0.004606,-0.644569,0.036162,-0.055215,0.938721,-0.069104,-0.198746,1.933097,-0.967208,-0.357217,-1.039751,-0.048355,0.086429,1.027965,-0.180121,0.046568,-1.630504,0.745708
0.476000,-1.183760,-0.923420,0.300544,0.963586,0.000374,-0.034802,0.265123,-0.374402,-0.135972,-0.049176,-0.172331,-0.030411,0.299572,-0.057174,-0.946704,0.035360,0.062577,0.584741,0.212779,0.004438,-0.642172,0.035309,-0.055555,0.935353,-0.067884,-0.198305,2.120135,-2.801897,-0.258714,-1.114214,-0.092170,-0.084355,1.198898,-0.426295,-0.170390,-1.684072,0.609812
0.478000,-1.184498,-0.923706,0.300446,0.963504,0.000223,-0.034809,0.265421,-0.368694,-0.143183,-0.048651,-0.137411,0.031125,0.314799,-0.056762,-0.944252,0.035968,0.062043,0.582456,0.212481,0.004245,-0.639662,0.034376,-0.055975,0.932067,-0.067069,0.205827,1.225619,0.303816,-0.267083,-1.142209,-0.149125,-0.096237,1.254929,-0.466528,-0.209917,-1.642707,0.407528
0.480000,-1.185232,-0.923989,0.300377,0.963409,0.000164,-0.034766,0.265773,-0.366982,-0.141456,-0.034744,-0.032473,0.053023,0.366017,-0.056970,-0.941435,0.032802,0.061241,0.579994,0.212387,0.004161,-0.637193,0.033419,-0.056353,0.928738,-0.066370,-0.104196,1.408509,-1.582806,-0.400540,-1.231332,-0.046745,-0.042206,1.234169,-0.478567,-0.188859,-1.664820,0.349616
0.482000,-1.185951,-0.924267,0.300297,0.963310,0.000256,-0.034688,0.266141,-0.359782,-0.139221,-0.039718,0.121591,0.048169,0.378380,-0.056797,-0.940303,0.035474,0.060164,0.577507,0.212407,0.004320,-0.634977,0.032799,-0.056514,0.925698,-0.066112,0.086878,0.566094,1.336287,-0.538952,-1.243196,0.009660,0.079732,1.108112,-0.310208,-0.080594,-1.519698,0.128934
0.484000,-1.186655,-0.924541,0.300236,0.963198,0.000376,-0.034647,0.266549,-0.352027,-0.136831,-0.030840,0.140930,0.003722,0.417856,-0.057139,-0.938562,0.033693,0.058995,0.574966,0.212696,0.004437,-0.633066,0.032394,-0.056758,0.922936,-0.066190,-0.171288,0.870706,-0.890653,-0.584403,-1.270664,0.144507,0.058394,0.955752,-0.202167,-0.121869,-1.381262,-0.039061
0.486000,-1.187328,-0.924824,0.300157,0.963087,0.000425,-0.034683,0.266947,-0.336245,-0.141317,-0.039370,0.051802,-0.052236,0.411492,-0.056591,-0.938129,0.036892,0.058061,0.572584,0.212996,0.004331,-0.631497,0.032331,-0.057233,0.920789,-0.066996,0.273893,0.216406,1.599600,-0.466987,-1.190945,0.150128,-0.052978,0.784166,-0.031526,-0.237675,-1.073315,-0.403041
0.488000,-1.187978,-0.925109,0.300086,0.962968,0.000387,-0.034811,0.267358,-0.324939,-0.142473,-0.035545,-0.056862,-0.116793,0.429320,-0.056234,-0.937031,0.036547,0.057321,0.570274,0.213445,0.003966,-0.630216,0.032444,-0.057993,0.919080,-0.068279,0.178899,0.549016,-0.172730,-0.369760,-1.155186,0.224620,-0.182639,0.640744,0.056492,-0.379774,-0.854552,-0.641104
0.490000,-1.188606,-0.925395,0.299994,0.962852,0.000328,-0.034990,0.267753,-0.313987,-0.142965,-0.045732,-0.091277,-0.160527,0.412973,-0.055418,-0.936830,0.040672,0.056700,0.568124,0.213861,0.003534,-0.629190,0.032842,-0.058813,0.917868,-0.070133,0.408026,0.100665,2.062300,-0.310859,-1.074889,0.207964,-0.216020,0.512741,0.198948,-0.410234,-0.605871,-0.927001
0.492000,-1.189226,-0.925670,0.299906,0.962732,0.000300,-0.035199,0.268156,-0.310275,-0.137750,-0.044157,-0.068197,-0.197903,0.421231,-0.055322,-0.935805,0.041664,0.056001,0.566005,0.214398,0.003156,-0.628340,0.033375,-0.059589,0.916891,-0.072227,0.048000,0.512205,0.496459,-0.349169,-1.059439,0.268264,-0.189022,0.425104,0.266168,-0.387646,-0.488845,-1.047181
0.494000,-1.189844,-0.925936,0.299808,0.962616,0.000355,-0.035393,0.268549,-0.308949,-0.132821,-0.048978,0.014398,-0.205593,0.407806,-0.055520,-0.934901,0.044526,0.055155,0.563931,0.214941,0.002979,-0.627557,0.034019,-0.060151,0.916070,-0.074508,-0.099206,0.452144,1.430883,-0.422994,-1.037002,0.271639,-0.088590,0.391714,0.322011,-0.281352,-0.410229,-1.140526
0.496000,-1.190462,-0.926196,0.299717,0.962499,0.000427,-0.035578,0.268941,-0.309089,-0.130097,-0.045708,0.033307,-0.201015,0.406735,-0.056278,-0.933277,0.045293,0.054260,0.561856,0.215496,0.002861,-0.626718,0.034574,-0.060653,0.915239,-0.076784,-0.379135,0.811798,0.383371,-0.447487,-1.037603,0.277324,-0.058868,0.419141,0.277637,-0.250886,-0.415638,-1.137819
0.498000,-1.191163,-0.926432,0.299719,0.962364,0.000754,-0.035535,0.269430,-0.350245,-0.117958,0.000939,0.344308,-0.051163,0.494614,-0.061716,-0.923907,0.019757,0.052519,0.559201,0.216259,0.003356,-0.625093,0.034224,-0.060541,0.912868,-0.077501,-2.718819,4.685296,-12.767922,-0.870478,-1.327408,0.381913,0.247329,0.812615,-0.174911,0.056232,-1.185250,-0.358760
0.500000,-1.191919,-0.926705,0.299778,0.962231,0.001018,-0.035258,0.269941,-0.377940,-0.136433,0.029529,0.346744,0.191567,0.518342,-0.068296,-0.910237,-0.012924,0.051046,0.556405,0.216208,0.003791,-0.622264,0.032641,-0.060452,0.908939,-0.076808,-3.290312,6.835020,-16.340489,-0.736720,-1.397938,-0.025486,0.217844,1.414554,-0.791775,0.044516,-1.964789,0.346554
0.502000,-1.192703,-0.927061,0.299832,0.962122,0.001195,-0.034624,0.270411,-0.392061,-0.177957,0.027161,0.358820,0.558586,0.474401,-0.072086,-0.898597,-0.023352,0.050322,0.553826,0.214391,0.004086,-0.618036,0.029946,-0.060405,0.903277,-0.074652,-1.894721,5.819847,-5.213876,-0.362009,-1.289442,-0.908504,0.147318,2.114079,-1.347324,0.023224,-2.830911,1.078198
0.504000,-1.193486,-0.927494,0.299879,0.962025,0.001331,-0.033694,0.270870,-0.391725,-0.216514,0.023418,0.397359,0.855225,0.462529,-0.072412,-0.890671,-0.009739,0.050134,0.551365,0.211288,0.003815,-0.613869,0.028081,-0.060451,0.896185,-0.071220,-0.163202,3.963135,6.806104,-0.094114,-1.230809,-1.551829,-0.135495,2.083485,-0.932529,-0.023100,-3.546247,1.715672
0.506000,-1.194250,-0.927967,0.299959,0.961917,0.001425,-0.032706,0.271374,-0.381975,-0.236672,0.040237,0.375472,0.922023,0.509205,-0.070951,-0.883251,0.008095,0.050023,0.548637,0.208444,0.002759,-0.611298,0.028479,-0.060761,0.888467,-0.067073,0.730439,3.710069,8.917373,-0.055502,-1.363954,-1.421758,-0.527682,1.285635,0.199261,-0.155045,-3.858735,2.073771
0.508000,-1.194989,-0.928437,0.300128,0.961776,0.001431,-0.031913,0.271967,-0.369643,-0.234959,0.084317,0.240594,0.757137,0.607627,-0.070285,-0.871638,0.002105,0.049792,0.545413,0.207097,0.001115,-0.610795,0.030868,-0.061532,0.880952,-0.062809,0.333074,5.806023,-2.995163,-0.115240,-1.612000,-0.673729,-0.822076,0.251112,1.194209,-0.385490,-3.757376,2.132092
0.510000,-1.195713,-0.928871,0.300368,0.961616,0.001741,-0.031210,0.272611,-0.361912,-0.217276,0.120221,0.510023,0.587757,0.651656,-0.070738,-0.857761,-0.022077,0.049544,0.540537,0.221219,0.000378,-0.611520,0.033855,-0.061827,0.873729,-0.058388,-0.226366,6.938949,-12.091059,-0.124124,-2.437730,7.060858,-0.368452,-0.362064,1.493699,-0.147375,-3.611494,2.210476
0.512000,-1.196413,-0.929286,0.300561,0.961471,0.002197,-0.030252,0.273227,-0.349994,-0.207204,0.096260,0.719199,0.793804,0.616320,-0.069656,-0.847752,-0.033295,0.048728,0.538427,0.227088,0.000889,-0.611548,0.025427,-0.061617,0.866022,-0.053472,0.541010,5.004379,-5.609113,-0.407709,-1.055043,2.934597,0.255076,-0.014393,-4.214298,0.104850,-3.853747,2.458014
0.514000,-1.197086,-0.929659,0.300636,0.961334,0.003079,-0.028982,0.273839,-0.336342,-0.186813,0.037348,1.214290,0.976874,0.596645,-0.067308,-0.843474,-0.023350,0.046477,0.540200,0.218565,0.002588,-0.612481,0.020527,-0.060382,0.858080,-0.048378,1.173787,2.138800,4.972635,-1.125761,0.886296,-4.261378,0.849768,-0.466112,-2.450050,0.617549,-3.970956,2.546606
0.516000,-1.197720,-0.930011,0.300674,0.961183,0.004092,-0.027759,0.274481,-0.317191,-0.175606,0.018994,1.327815,0.895617,0.625404,-0.064968,-0.840039,-0.016027,0.044143,0.542471,0.209773,0.004102,-0.615489,0.020046,-0.058986,0.850704,-0.043748,1.170285,1.717716,3.661535,-1.167055,1.135553,-4.395947,0.756981,-1.504410,-0.240300,0.698114,-3.687946,2.315023
0.518000,-1.198324,-0.930365,0.300746,0.961017,0.004945,-0.026835,0.275138,-0.301854,-0.177176,0.036000,1.091892,0.652132,0.649704,-0.063316,-0.833884,-0.027358,0.042068,0.543568,0.203505,0.004887,-0.619783,0.022221,-0.058114,0.844361,-0.039975,0.825771,3.077342,-5.665324,-1.037306,0.548717,-3.134143,0.392502,-2.146878,1.087494,0.435939,-3.171318,1.886500
0.520000,-1.198926,-0.930736,0.300847,0.960858,0.005826,-0.026051,0.275752,-0.300956,-0.185494,0.050815,1.079834,0.510156,0.605498,-0.061889,-0.826841,-0.044708,0.040076,0.543281,0.199873,0.005824,-0.623469,0.024545,-0.057219,0.838579,-0.036602,0.713445,3.521662,-8.675400,-0.995910,-0.143636,-1.815707,0.468370,-1.842751,1.162061,0.447525,-2.891241,1.686480
0.522000,-1.199534,-0.931166,0.300943,0.960727,0.006769,-0.025197,0.276266,-0.304123,-0.214927,0.047780,1.155501,0.559856,0.501225,-0.059352,-0.822040,-0.049159,0.040901,0.537807,0.222721,0.006949,-0.625338,0.025897,-0.056120,0.832674,-0.033093,1.268658,2.400262,-2.225158,0.412088,-2.737217,11.423592,0.562347,-0.934797,0.675872,0.549786,-2.952332,1.754586
0.524000,-1.200131,-0.931657,0.300954,0.960628,0.007133,-0.024220,0.276690,-0.298375,-0.245539,0.005685,0.630768,0.838777,0.418549,-0.055418,-0.818807,-0.042258,0.043397,0.534437,0.234770,0.007105,-0.624920,0.025626,-0.055964,0.826369,-0.029649,1.967101,1.616418,3.450360,1.248231,-1.684545,6.024617,0.078248,0.208980,-0.135273,0.077599,-3.152652,1.722117
0.526000,-1.200725,-0.932159,0.300883,0.960544,0.006909,-0.023162,0.277077,-0.297217,-0.251033,-0.035484,0.088209,1.078592,0.393033,-0.052207,-0.813837,-0.040620,0.045943,0.536397,0.220885,0.006325,-0.622701,0.023985,-0.056740,0.819833,-0.026453,1.605363,2.484975,0.819198,1.272760,0.979792,-6.942654,-0.390213,1.109903,-0.820732,-0.387597,-3.267749,1.598227
0.528000,-1.201367,-0.932593,0.300804,0.960451,0.007195,-0.021969,0.277486,-0.320624,-0.216813,-0.039822,0.614937,1.067356,0.403792,-0.052556,-0.806205,-0.050951,0.047127,0.538211,0.208172,0.006761,-0.620011,0.022372,-0.056286,0.813310,-0.023150,-0.174288,3.816403,-5.165846,0.592053,0.906988,-6.356142,0.218186,1.344563,-0.806302,0.226949,-3.261677,1.651099
0.530000,-1.202071,-0.932927,0.300732,0.960345,0.008647,-0.020563,0.277920,-0.352015,-0.167220,-0.036012,1.795675,0.948592,0.404026,-0.056290,-0.798546,-0.061906,0.045358,0.538434,0.199124,0.009784,-0.617770,0.021905,-0.053236,0.807087,-0.019785,-1.867342,3.829283,-5.477158,-0.884172,0.111560,-4.524298,1.511523,1.120443,-0.233347,1.524640,-3.111625,1.682463
0.532000,-1.202774,-0.933246,0.300658,0.960238,0.010562,-0.019159,0.278325,-0.351706,-0.159725,-0.036626,2.238420,0.816930,0.366775,-0.059827,-0.793047,-0.063404,0.042499,0.537366,0.193252,0.013703,-0.616026,0.022320,-0.049287,0.801635,-0.016860,-1.768100,2.749642,-0.749361,-1.429563,-0.534086,-2.935932,1.959687,0.872082,0.207099,1.974543,-2.725891,1.462708
0.534000,-1.203384,-0.933691,0.300594,0.960147,0.011561,-0.018224,0.278659,-0.304789,-0.222484,-0.032278,1.226747,0.622266,0.317761,-0.059326,-0.788778,-0.060521,0.044169,0.531808,0.213302,0.015153,-0.614490,0.022899,-0.048149,0.797502,-0.015390,0.250437,2.134486,1.441544,0.835109,-2.778885,10.025206,0.724579,0.767999,0.289789,0.568892,-2.066547,0.735027
0.536000,-1.203893,-0.934242,0.300513,0.960072,0.011286,-0.017756,0.278960,-0.254631,-0.275070,-0.040248,-0.127945,0.527774,0.309018,-0.055387,-0.783835,-0.062632,0.048313,0.527897,0.227436,0.013429,-0.613018,0.023383,-0.050355,0.794509,-0.015402,1.969351,2.471370,-1.055518,2.071882,-1.955657,7.066864,-0.861972,0.736103,0.241643,-1.102792,-1.496423,-0.005985
0.538000,-1.204373,-0.934793,0.300380,0.959996,0.010564,-0.017311,0.279278,-0.240126,-0.275527,-0.066500,-0.562041,0.631038,0.334838,-0.051367,-0.778039,-0.069879,0.051968,0.528390,0.222082,0.010872,-0.611028,0.023206,-0.053268,0.791275,-0.015339,2.010044,2.898093,-3.623357,1.827394,0.246438,-2.677177,-1.278151,0.995033,-0.088413,-1.456395,-1.616936,0.031381
0.540000,-1.204915,-0.935228,0.300215,0.959894,0.010913,-0.016454,0.279669,-0.270807,-0.217840,-0.082700,0.582081,0.727851,0.388373,-0.050838,-0.772734,-0.075694,0.052064,0.530279,0.210922,0.010831,-0.609239,0.023643,-0.053652,0.787020,-0.013942,0.264247,2.652333,-2.907266,0.048078,0.944368,-5.579850,-0.020483,0.894678,0.218686,-0.191957,-2.127837,0.698348
0.542000,-1.205548,-0.935533,0.300045,0.959756,0.012836,-0.015101,0.280136,-0.316567,-0.152292,-0.084984,2.233961,0.763720,0.440052,-0.054422,-0.768690,-0.075974,0.048420,0.530599,0.202723,0.014336,-0.607977,0.025182,-0.050528,0.781632,-0.010883,-1.791926,2.021959,-0.139994,-1.822112,0.160119,-4.099359,1.752558,0.630932,0.769517,1.561826,-2.693657,1.529546
0.544000,-1.206187,-0.935826,0.299922,0.959608,0.015066,-0.013735,0.280602,-0.319611,-0.146378,-0.061440,2.531738,0.689568,0.437825,-0.058386,-0.764685,-0.076449,0.044010,0.529773,0.197114,0.018692,-0.606656,0.017297,-0.046735,0.776035,-0.007262,-1.981757,2.002624,-0.237609,-2.204693,-0.413075,-2.804498,2.177657,0.660340,-3.942567,1.896320,-2.798820,1.810420
0.546000,-1.206724,-0.936234,0.299838,0.959467,0.016287,-0.012928,0.281052,-0.268684,-0.204268,-0.041762,1.406569,0.436913,0.442685,-0.058771,-0.760024,-0.082093,0.041934,0.528365,0.193647,0.019514,-0.606985,0.013562,-0.045798,0.771780,-0.005054,-0.192688,2.330497,-2.821971,-1.038137,-0.703604,-1.733543,0.411020,-0.164542,-1.867512,0.468984,-2.127225,1.104453
0.548000,-1.207170,-0.936763,0.299756,0.959340,0.016678,-0.012511,0.281481,-0.222940,-0.264505,-0.041444,0.499193,0.295819,0.435165,-0.057262,-0.756327,-0.086110,0.044312,0.522582,0.215720,0.017033,-0.609030,0.014141,-0.047175,0.768412,-0.003858,0.754617,1.848325,-2.008584,1.188848,-2.891854,11.036372,-1.240232,-1.022610,0.289672,-0.688768,-1.683850,0.597933
0.550000,-1.207620,-0.937365,0.299636,0.959239,0.016458,-0.012041,0.281858,-0.224850,-0.300846,-0.059696,-0.071584,0.517481,0.384790,-0.054990,-0.753037,-0.088180,0.048141,0.517534,0.228242,0.013687,-0.608902,0.014452,-0.049472,0.764307,-0.002204,1.136132,1.645099,-1.034930,1.914360,-2.523906,6.261042,-1.673361,0.064168,0.155390,-1.148265,-2.052804,0.826893
