QPZ-918/AT_DOG_AMP/temp/gmr_data_csv/Vx-0.8.csv
time_sec,root_pos_x,root_pos_y,root_pos_z,root_quat_w,root_quat_x,root_quat_y,root_quat_z,base_lin_vel_x,base_lin_vel_y,base_lin_vel_z,base_ang_vel_x,base_ang_vel_y,base_ang_vel_z,FR_hip_joint,FR_thigh_joint,FR_calf_joint,FL_hip_joint,FL_thigh_joint,FL_calf_joint,RR_hip_joint,RR_thigh_joint,RR_calf_joint,RL_hip_joint,RL_thigh_joint,RL_calf_joint,FR_hip_joint_vel,FR_thigh_joint_vel,FR_calf_joint_vel,FL_hip_joint_vel,FL_thigh_joint_vel,FL_calf_joint_vel,RR_hip_joint_vel,RR_thigh_joint_vel,RR_calf_joint_vel,RL_hip_joint_vel,RL_thigh_joint_vel,RL_calf_joint_vel
0.002000,-1.208797,-0.166790,0.311322,0.981433,-0.008465,-0.016661,0.190895,-0.813034,-0.307718,-0.125967,0.129461,0.925190,0.338046,-0.039350,-0.778476,-0.137146,0.074391,0.322868,0.358519,0.023454,-0.306691,-0.261355,-0.032488,0.821345,0.025655,-0.443179,3.815966,1.416473,0.097126,-2.024667,0.274990,-0.521829,2.486542,-0.101719,0.070691,-4.720314,0.483365
0.004000,-1.210398,-0.167396,0.311076,0.981367,-0.008374,-0.015527,0.191331,-0.800557,-0.303037,-0.123263,0.313041,1.090946,0.449037,-0.040570,-0.771371,-0.134448,0.073614,0.321261,0.352673,0.021808,-0.303274,-0.258538,-0.032320,0.811097,0.027956,-0.609977,3.552842,1.349161,-0.388854,-0.803492,-2.923157,-0.823423,1.708255,1.408588,0.083994,-5.123826,1.150562
0.006000,-1.211989,-0.167992,0.310875,0.981284,-0.008153,-0.014348,0.191858,-0.795606,-0.297939,-0.100349,0.449568,1.109336,0.539267,-0.042496,-0.762752,-0.141412,0.072126,0.319924,0.345972,0.020104,-0.300761,-0.254392,-0.032125,0.800500,0.031161,-0.962719,4.309193,-3.482121,-0.743679,-0.668648,-3.350471,-0.851997,1.256798,2.073056,0.097260,-5.298371,1.602294
0.008000,-1.213590,-0.168586,0.310724,0.981195,-0.007696,-0.013130,0.192420,-0.800534,-0.296925,-0.075610,0.689738,1.101517,0.571702,-0.044536,-0.753680,-0.151821,0.070089,0.317314,0.340886,0.019253,-0.297813,-0.251267,-0.031593,0.789632,0.035156,-1.020074,4.536182,-5.204295,-1.018805,-1.305140,-2.543289,-0.425015,1.473736,1.562359,0.266064,-5.434168,1.997695
0.010000,-1.215197,-0.169200,0.310622,0.981109,-0.007052,-0.011877,0.192963,-0.803541,-0.307142,-0.050940,0.879240,1.099896,0.550697,-0.045458,-0.745893,-0.156468,0.067779,0.313521,0.337426,0.019088,-0.293850,-0.250002,-0.030771,0.778555,0.039842,-0.460956,3.893156,-2.323720,-1.154581,-1.896504,-1.729700,-0.082726,1.981767,0.632607,0.410802,-5.538654,2.343087
0.012000,-1.216788,-0.169864,0.310583,0.981030,-0.006623,-0.010655,0.193451,-0.795521,-0.331551,-0.019729,0.662723,1.112049,0.497993,-0.044265,-0.739146,-0.155570,0.066085,0.308895,0.335099,0.019013,-0.288530,-0.265027,-0.030425,0.767435,0.044960,0.596324,3.373953,0.448995,-0.847310,-2.312820,-1.163509,-0.037482,2.660004,-7.512477,0.173187,-5.560007,2.558924
0.014000,-1.218442,-0.170583,0.310656,0.980966,-0.006250,-0.009450,0.193848,-0.827056,-0.359605,0.036629,0.602155,1.106179,0.405347,-0.042316,-0.730691,-0.162670,0.064773,0.302719,0.335018,0.019021,-0.281312,-0.279858,-0.030100,0.755972,0.050778,0.974694,4.227214,-3.550107,-0.655771,-3.088032,-0.040474,0.003920,3.608999,-7.415803,0.162339,-5.731132,2.909004
0.016000,-1.220152,-0.171281,0.310766,0.980915,-0.005133,-0.008156,0.194198,-0.854562,-0.349167,0.055133,1.349849,1.050709,0.350806,-0.042423,-0.723169,-0.167178,0.062138,0.295231,0.337195,0.020779,-0.273419,-0.291978,-0.028213,0.744325,0.057263,-0.053340,3.761251,-2.253911,-1.317688,-3.744301,1.088458,0.879241,3.946464,-6.059673,0.943723,-5.823866,3.242354
0.018000,-1.221847,-0.171962,0.310871,0.980861,-0.003405,-0.006961,0.194553,-0.847734,-0.340670,0.052551,1.929397,0.834252,0.351242,-0.044117,-0.716750,-0.169852,0.058430,0.287035,0.341382,0.023034,-0.269136,-0.284978,-0.025264,0.733408,0.063489,-0.847310,3.209403,-1.336997,-1.853881,-4.098005,2.093504,1.127263,2.141290,3.499746,1.474743,-5.458492,3.112792
0.020000,-1.223503,-0.172741,0.310995,0.980824,-0.002349,-0.006041,0.194786,-0.827771,-0.389286,0.061952,1.216245,0.695930,0.231296,-0.044463,-0.710521,-0.171873,0.056552,0.278744,0.346203,0.023680,-0.264401,-0.278165,-0.023736,0.723585,0.068691,-0.173078,3.114319,-1.010246,-0.939163,-4.145131,2.410326,0.322882,2.367575,3.406745,0.763801,-4.911434,2.601218
0.022000,-1.225049,-0.173665,0.311079,0.980807,-0.002837,-0.005492,0.194883,-0.773034,-0.462006,0.041962,-0.370514,0.632963,0.102183,-0.041643,-0.704308,-0.173657,0.059244,0.272706,0.347633,0.020754,-0.259739,-0.272674,-0.025452,0.715482,0.071841,1.409994,3.106470,-0.892138,1.345900,-3.019042,0.714890,-1.462824,2.330923,2.745554,-0.858154,-4.051557,1.575210
0.024000,-1.226543,-0.174641,0.311148,0.980813,-0.004049,-0.005118,0.194842,-0.747105,-0.488038,0.034302,-1.116657,0.602798,-0.032824,-0.037426,-0.698211,-0.174912,0.064249,0.268658,0.346281,0.017125,-0.253345,-0.277841,-0.028456,0.708386,0.073912,2.108654,3.048659,-0.627693,2.502869,-2.024023,-0.675694,-1.814385,3.196873,-2.583624,-1.502045,-3.547895,1.035135
0.026000,-1.227951,-0.175466,0.311124,0.980811,-0.004415,-0.004769,0.194852,-0.704145,-0.412673,-0.011984,-0.290676,0.414016,0.013318,-0.035358,-0.693490,-0.174833,0.065940,0.271622,0.322591,0.015302,-0.253027,-0.263079,-0.029718,0.702347,0.075351,1.033754,2.360546,0.039937,0.845524,1.481911,-11.845151,-0.911761,0.159062,7.380751,-0.630743,-3.019287,0.719488
0.028000,-1.229396,-0.176139,0.311144,0.980818,-0.003352,-0.004370,0.194846,-0.722267,-0.336349,0.010377,1.120353,0.184526,-0.010925,-0.036466,-0.689415,-0.174192,0.064746,0.272883,0.316264,0.018032,-0.253344,-0.252190,-0.027932,0.696473,0.077420,-0.553518,2.037346,0.320123,-0.597155,0.630479,-3.163612,1.365011,-0.158470,5.444509,0.893114,-2.937035,1.034668
0.030000,-1.230787,-0.176704,0.311150,0.980819,-0.001659,-0.004034,0.194871,-0.695836,-0.282470,0.003060,1.725967,-0.001123,0.018259,-0.039117,-0.686003,-0.173274,0.061377,0.278205,0.301500,0.022306,-0.257626,-0.231601,-0.024874,0.691255,0.079311,-1.325563,1.705977,0.459105,-1.684325,2.661087,-7.382040,2.137116,-2.140952,10.294878,1.528559,-2.609229,0.945510
0.032000,-1.232167,-0.177347,0.311238,0.980835,-0.000780,-0.003888,0.194799,-0.689885,-0.321687,0.043883,0.890495,-0.027092,-0.077561,-0.040038,-0.681840,-0.173354,0.060789,0.283043,0.295331,0.025584,-0.259147,-0.228803,-0.023411,0.686151,0.081127,-0.460571,2.081700,-0.039959,-0.294362,2.418876,-3.084205,1.638840,-0.760540,1.399074,0.731494,-2.551774,0.908219
0.034000,-1.233412,-0.178068,0.311290,0.980837,-0.001160,-0.004039,0.194783,-0.622486,-0.360380,0.026118,-0.402361,-0.074846,-0.014715,-0.038483,-0.677551,-0.174273,0.062225,0.294560,0.263709,0.024506,-0.265587,-0.210700,-0.024752,0.681959,0.081773,0.777431,2.144652,-0.459318,0.718082,5.758450,-15.811339,-0.538736,-3.220005,9.051016,-0.670455,-2.095910,0.322644
0.036000,-1.234662,-0.178831,0.311428,0.980837,-0.001790,-0.004341,0.194773,-0.625188,-0.381175,0.068844,-0.676416,-0.173269,-0.007624,-0.036423,-0.672746,-0.176233,0.065286,0.303431,0.248340,0.022743,-0.272181,-0.196227,-0.026702,0.677720,0.082657,1.029972,2.402084,-0.980397,1.530652,4.435785,-7.684323,-0.881630,-3.296814,7.236630,-0.974959,-2.119557,0.442188
0.038000,-1.235877,-0.179521,0.311562,0.980814,-0.001973,-0.004665,0.194880,-0.607170,-0.345036,0.066818,-0.242730,-0.282619,0.110010,-0.035549,-0.668363,-0.178221,0.066482,0.315290,0.222810,0.021055,-0.283689,-0.164921,-0.027890,0.673626,0.083691,0.436876,2.191561,-0.993841,0.597891,5.929359,-12.765078,-0.844047,-5.754289,15.652894,-0.593775,-2.047303,0.517061
0.040000,-1.237173,-0.180175,0.311795,0.980799,-0.001693,-0.004863,0.194956,-0.648362,-0.327410,0.116508,0.236928,-0.248946,0.075507,-0.035738,-0.663597,-0.180351,0.067200,0.324633,0.209610,0.021655,-0.292033,-0.150543,-0.027948,0.668614,0.085998,-0.094378,2.383099,-1.065034,0.359084,4.671680,-6.599857,0.300239,-4.171936,7.189322,-0.028973,-2.505644,1.153225
0.042000,-1.238459,-0.180745,0.312009,0.980767,-0.000925,-0.004946,0.195118,-0.642983,-0.284613,0.106966,0.737832,-0.231839,0.161355,-0.037230,-0.659277,-0.181936,0.065455,0.338292,0.176958,0.022971,-0.303300,-0.125733,-0.027001,0.663347,0.088759,-0.745880,2.159811,-0.792285,-0.872402,6.829201,-16.325870,0.657823,-5.633534,12.404925,0.473368,-2.633706,1.380607
0.044000,-1.239796,-0.181318,0.312293,0.980738,-0.000031,-0.004976,0.195264,-0.668047,-0.286866,0.142337,0.871143,-0.203970,0.144340,-0.039006,-0.654592,-0.183777,0.064179,0.349956,0.153979,0.025056,-0.312964,-0.108640,-0.025732,0.657465,0.092326,-0.888272,2.342642,-0.920489,-0.638201,5.831862,-11.489892,1.042666,-4.831787,8.546647,0.634483,-2.941180,1.783729
0.046000,-1.241081,-0.181910,0.312559,0.980694,0.000550,-0.005099,0.195483,-0.642510,-0.295992,0.132937,0.547218,-0.234125,0.221239,-0.040223,-0.649990,-0.185876,0.063319,0.364277,0.120153,0.025200,-0.326318,-0.076372,-0.025272,0.651842,0.095569,-0.608354,2.301223,-1.049710,-0.429918,7.160954,-16.912528,0.071960,-6.677105,16.133934,0.230185,-2.811393,1.621529
0.048000,-1.242387,-0.182582,0.312893,0.980661,0.000588,-0.005307,0.195640,-0.653056,-0.335839,0.167086,-0.002830,-0.211385,0.159628,-0.040169,-0.644709,-0.188747,0.065162,0.376242,0.099089,0.024497,-0.337649,-0.053760,-0.025891,0.646007,0.098982,0.027091,2.640101,-1.435228,0.921322,5.982120,-10.532398,-0.351751,-5.665359,11.305963,-0.309662,-2.917467,1.706435
0.050000,-1.243650,-0.183268,0.313205,0.980625,0.000275,-0.005598,0.195816,-0.631495,-0.343001,0.155732,-0.362500,-0.224687,0.181880,-0.039420,-0.639474,-0.191791,0.067484,0.391036,0.066817,0.022525,-0.351124,-0.023978,-0.027269,0.640534,0.101911,0.374403,2.617827,-1.522009,1.161106,7.397088,-16.135795,-0.986088,-6.737391,14.891040,-0.688914,-2.736251,1.464511
0.052000,-1.244949,-0.183937,0.313555,0.980598,0.000181,-0.005851,0.195941,-0.649419,-0.334256,0.174981,-0.141248,-0.228877,0.128183,-0.039077,-0.634087,-0.194897,0.069917,0.404904,0.041185,0.022027,-0.363189,-0.002586,-0.028059,0.634871,0.105192,0.171414,2.693546,-1.553422,1.216398,6.933846,-12.816114,-0.248626,-6.032850,10.695944,-0.395250,-2.831811,1.640510
0.054000,-1.246233,-0.184505,0.313869,0.980562,0.000822,-0.006060,0.196115,-0.642037,-0.284471,0.156910,0.588159,-0.330565,0.173592,-0.040363,-0.629338,-0.197527,0.069852,0.421377,0.007417,0.023108,-0.378387,0.029638,-0.027339,0.629556,0.108375,-0.642951,2.374305,-1.314581,-0.032568,8.236794,-16.884130,0.540536,-7.598910,16.111815,0.360345,-2.657526,1.591398
0.056000,-1.247543,-0.185048,0.314209,0.980535,0.001767,-0.006249,0.196238,-0.654968,-0.271410,0.170046,0.890899,-0.371541,0.120838,-0.042200,-0.624563,-0.200187,0.069690,0.437055,-0.018595,0.025774,-0.392804,0.055730,-0.025884,0.624243,0.111743,-0.918223,2.387643,-1.330309,-0.080883,7.838998,-13.005819,1.332670,-7.208357,13.046239,0.727481,-2.656283,1.683931
0.058000,-1.248812,-0.185594,0.314523,0.980508,0.002519,-0.006533,0.196356,-0.634552,-0.272974,0.156929,0.682066,-0.425755,0.116887,-0.043581,-0.619916,-0.202989,0.069818,0.454808,-0.049726,0.027799,-0.409029,0.085990,-0.024854,0.619464,0.114510,-0.690948,2.323640,-1.401107,0.063889,8.876204,-15.565678,1.012430,-8.112344,15.130119,0.514808,-2.389584,1.383582
0.060000,-1.250072,-0.186200,0.314853,0.980494,0.002741,-0.006907,0.196407,-0.630086,-0.303029,0.164964,0.145000,-0.410141,0.052118,-0.043708,-0.614912,-0.206224,0.071995,0.472220,-0.075987,0.028988,-0.424293,0.109302,-0.024866,0.614847,0.116978,-0.063519,2.501684,-1.617047,1.088568,8.706292,-13.130139,0.594918,-7.632342,11.655892,-0.006128,-2.308439,1.233828
0.062000,-1.251285,-0.186827,0.315152,0.980479,0.002633,-0.007383,0.196469,-0.606806,-0.313266,0.149817,-0.199449,-0.445884,0.066120,-0.043114,-0.610000,-0.209640,0.074740,0.491516,-0.107437,0.028860,-0.441600,0.137406,-0.025628,0.610705,0.118837,0.297435,2.455892,-1.708292,1.372775,9.647806,-15.724937,-0.064049,-8.653509,14.052001,-0.380851,-2.070986,0.929505
0.064000,-1.252510,-0.187445,0.315458,0.980465,0.002680,-0.007837,0.196519,-0.612525,-0.308907,0.153099,-0.042160,-0.453540,0.051921,-0.042807,-0.605117,-0.212995,0.077467,0.510387,-0.134462,0.029270,-0.458990,0.163224,-0.026042,0.606490,0.120860,0.153414,2.441733,-1.677624,1.363193,9.435399,-13.512885,0.204995,-8.694833,12.908955,-0.206882,-2.107779,1.011698
0.066000,-1.253734,-0.187998,0.315747,0.980443,0.003307,-0.008231,0.196602,-0.611661,-0.276436,0.144429,0.538021,-0.509472,0.082303,-0.043752,-0.600658,-0.215970,0.078422,0.530271,-0.161898,0.030861,-0.478267,0.192769,-0.025278,0.602336,0.123051,-0.472839,2.229498,-1.487226,0.477499,9.942230,-13.717855,0.795124,-9.638613,14.772569,0.382003,-2.076711,1.095265
0.068000,-1.254980,-0.188537,0.316043,0.980424,0.004133,-0.008545,0.196671,-0.622909,-0.269751,0.148014,0.748290,-0.470988,0.065419,-0.045105,-0.596216,-0.218701,0.079047,0.549861,-0.186615,0.033244,-0.497053,0.217486,-0.024044,0.597885,0.125637,-0.676273,2.220745,-1.365576,0.312866,9.795109,-12.358281,1.191654,-9.392796,12.358353,0.616855,-2.225572,1.292964
0.070000,-1.256208,-0.189080,0.316325,0.980402,0.004885,-0.008866,0.196745,-0.614081,-0.271296,0.140659,0.675094,-0.462044,0.072298,-0.046295,-0.591854,-0.221374,0.079615,0.570551,-0.212982,0.035194,-0.516863,0.241709,-0.022983,0.593504,0.128136,-0.595089,2.181350,-1.336432,0.283582,10.344963,-13.183898,0.974847,-9.905084,12.111538,0.530549,-2.190622,1.249456
0.072000,-1.257432,-0.189663,0.316601,0.980385,0.005328,-0.009196,0.196807,-0.612222,-0.291565,0.138134,0.370253,-0.410662,0.061573,-0.046798,-0.587339,-0.224103,0.081152,0.591206,-0.238368,0.036146,-0.536542,0.263945,-0.022569,0.589023,0.130614,-0.251592,2.257490,-1.364582,0.768745,10.327507,-12.692910,0.476328,-9.839355,11.117945,0.206960,-2.240374,1.239087
0.074000,-1.258630,-0.190262,0.316862,0.980366,0.005618,-0.009584,0.196875,-0.598733,-0.299684,0.130581,0.208683,-0.437427,0.069734,-0.046934,-0.582867,-0.226979,0.083043,0.612644,-0.262453,0.036225,-0.557638,0.287321,-0.022535,0.584791,0.132800,-0.068058,2.235829,-1.437962,0.945323,10.718963,-12.042288,0.039324,-10.548285,11.687799,0.016945,-2.115736,1.093006
0.076000,-1.259832,-0.190866,0.317114,0.980347,0.005943,-0.009954,0.196941,-0.601195,-0.302027,0.125892,0.246538,-0.426567,0.066982,-0.047123,-0.578417,-0.229765,0.084916,0.634019,-0.284758,0.036199,-0.578987,0.310317,-0.022434,0.580506,0.135037,-0.094050,2.224998,-1.393118,0.936774,10.687680,-11.152400,-0.013128,-10.674584,11.498365,0.050741,-2.142857,1.118456
0.078000,-1.261030,-0.191435,0.317356,0.980326,0.006598,-0.010307,0.197004,-0.599201,-0.284474,0.121086,0.573258,-0.474465,0.061702,-0.047970,-0.574180,-0.232417,0.085788,0.656085,-0.304095,0.037053,-0.601412,0.331743,-0.021648,0.576365,0.137280,-0.423565,2.118665,-1.325709,0.435818,11.032659,-9.668813,0.427132,-11.212360,10.712658,0.393055,-2.070523,1.121433
0.080000,-1.262240,-0.191997,0.317583,0.980307,0.007350,-0.010614,0.197059,-0.604770,-0.280853,0.113249,0.677538,-0.448817,0.052431,-0.049021,-0.570001,-0.234839,0.086157,0.678467,-0.324361,0.038242,-0.623774,0.351395,-0.020628,0.572127,0.139612,-0.525415,2.089577,-1.211146,0.184416,11.191135,-10.132876,0.594544,-11.181187,9.826199,0.509729,-2.118683,1.166208
0.082000,-1.263436,-0.192554,0.317797,0.980289,0.008131,-0.010944,0.197097,-0.597860,-0.278559,0.107433,0.700274,-0.477934,0.034505,-0.050063,-0.565896,-0.237276,0.086324,0.701631,-0.342122,0.039623,-0.646936,0.367883,-0.019552,0.568103,0.141761,-0.520996,2.052183,-1.218743,0.083824,11.582112,-8.880736,0.690389,-11.580700,8.244208,0.538193,-2.012211,1.074430
0.084000,-1.264628,-0.193136,0.317989,0.980274,0.008729,-0.011290,0.197129,-0.596035,-0.291243,0.095650,0.519248,-0.456634,0.030843,-0.050691,-0.561766,-0.239665,0.086825,0.725080,-0.360884,0.040252,-0.670321,0.385227,-0.018873,0.564121,0.143734,-0.314424,2.065255,-1.194311,0.250498,11.724523,-9.380900,0.314506,-11.692637,8.671688,0.339519,-1.990754,0.986822
0.086000,-1.265801,-0.193732,0.318171,0.980262,0.009248,-0.011693,0.197139,-0.586727,-0.297629,0.091009,0.429436,-0.497859,0.009353,-0.051045,-0.557647,-0.242204,0.087713,0.748902,-0.374564,0.040677,-0.694561,0.399909,-0.018388,0.560419,0.145426,-0.176771,2.059331,-1.269299,0.444048,11.910606,-6.839645,0.212590,-12.119757,7.341060,0.242322,-1.851017,0.845722
0.088000,-1.266979,-0.194341,0.318328,0.980251,0.009712,-0.012090,0.197149,-0.588908,-0.304641,0.078706,0.376430,-0.479844,0.010165,-0.051270,-0.553549,-0.244611,0.088569,0.772841,-0.389396,0.040694,-0.719011,0.415814,-0.018036,0.556701,0.147038,-0.112493,2.049248,-1.203741,0.427620,11.969992,-7.415993,0.008618,-12.225077,7.952650,0.176198,-1.859018,0.806211
0.090000,-1.268156,-0.194939,0.318481,0.980242,0.010329,-0.012484,0.197135,-0.588285,-0.299057,0.076293,0.527683,-0.508223,-0.015437,-0.051742,-0.549521,-0.246975,0.089118,0.796927,-0.399265,0.041457,-0.743892,0.426885,-0.017352,0.553087,0.148636,-0.236067,2.013959,-1.182084,0.274843,12.042876,-4.934776,0.381621,-12.440383,5.535596,0.341928,-1.807308,0.799076
0.092000,-1.269347,-0.195539,0.318607,0.980232,0.011008,-0.012834,0.197129,-0.595762,-0.299790,0.063064,0.596716,-0.477405,-0.008520,-0.052367,-0.545556,-0.249070,0.089110,0.821119,-0.412104,0.042192,-0.768793,0.439053,-0.016543,0.549338,0.150300,-0.312512,1.982231,-1.047128,-0.004273,12.095846,-6.419490,0.367144,-12.450504,6.083671,0.404458,-1.874211,0.832006
0.094000,-1.270540,-0.196133,0.318732,0.980224,0.011827,-0.013182,0.197098,-0.596473,-0.296963,0.062338,0.733420,-0.502595,-0.035622,-0.053200,-0.541627,-0.251149,0.088973,0.845123,-0.419000,0.043626,-0.793908,0.446344,-0.015440,0.545657,0.151988,-0.416565,1.964551,-1.039649,-0.068557,12.002028,-3.447786,0.717361,-12.557952,3.645577,0.551403,-1.840764,0.843906
0.096000,-1.271742,-0.196748,0.318829,0.980215,0.012546,-0.013519,0.197076,-0.600945,-0.307941,0.048634,0.638404,-0.472736,-0.024773,-0.053832,-0.537689,-0.253089,0.088810,0.869052,-0.428573,0.044327,-0.819091,0.456319,-0.014577,0.541892,0.153625,-0.315838,1.968915,-0.970215,-0.081193,11.964675,-4.786784,0.350089,-12.591374,4.987388,0.431740,-1.882511,0.818529
0.098000,-1.272940,-0.197386,0.318928,0.980213,0.013159,-0.013890,0.197020,-0.598772,-0.318829,0.049432,0.526395,-0.484765,-0.058523,-0.054135,-0.533640,-0.255210,0.089334,0.892497,-0.431870,0.045042,-0.844142,0.461029,-0.013938,0.538224,0.155165,-0.151653,2.024563,-1.060234,0.261727,11.722140,-1.648254,0.357697,-12.525509,2.355378,0.319385,-1.834012,0.769599
0.100000,-1.274149,-0.198045,0.319000,0.980210,0.013668,-0.014253,0.196972,-0.604494,-0.329364,0.036240,0.427603,-0.457062,-0.048515,-0.054242,-0.529558,-0.257237,0.089706,0.915856,-0.438671,0.045040,-0.869111,0.468353,-0.013537,0.534478,0.156641,-0.053421,2.040864,-1.013502,0.186226,11.679666,-3.400816,-0.000913,-12.484139,3.661643,0.200453,-1.872701,0.738218
0.102000,-1.275364,-0.198707,0.319076,0.980213,0.014241,-0.014619,0.196891,-0.607507,-0.330891,0.037815,0.487841,-0.472688,-0.083833,-0.054403,-0.525427,-0.259332,0.090185,0.938583,-0.439967,0.045713,-0.893611,0.470069,-0.012984,0.530774,0.158136,-0.080674,2.065614,-1.047523,0.239478,11.363602,-0.647936,0.336591,-12.250178,0.858219,0.276348,-1.852021,0.747657
0.104000,-1.276597,-0.199369,0.319126,0.980212,0.014904,-0.014960,0.196821,-0.616845,-0.331349,0.025302,0.581769,-0.465540,-0.073138,-0.054784,-0.521352,-0.261246,0.089878,0.961179,-0.444833,0.046256,-0.918000,0.474835,-0.012261,0.526998,0.159640,-0.190289,2.037601,-0.957048,-0.153529,11.297922,-2.432885,0.271337,-12.194753,2.382779,0.361842,-1.888206,0.751901
0.106000,-1.277838,-0.200032,0.319179,0.980216,0.015675,-0.015305,0.196715,-0.620473,-0.331494,0.026291,0.686478,-0.491804,-0.110698,-0.055302,-0.517252,-0.263212,0.089636,0.982943,-0.443981,0.047589,-0.941783,0.475209,-0.011295,0.523294,0.161146,-0.258783,2.050029,-0.983084,-0.121052,10.882253,0.426138,0.666507,-11.891304,0.187047,0.482814,-1.852115,0.752884
0.108000,-1.279090,-0.200714,0.319206,0.980220,0.016369,-0.015656,0.196613,-0.625982,-0.340842,0.013716,0.609247,-0.482208,-0.106027,-0.055655,-0.513137,-0.265110,0.089172,1.004522,-0.446398,0.048293,-0.965344,0.478684,-0.010516,0.519584,0.162532,-0.176767,2.057463,-0.948895,-0.231837,10.789283,-1.208469,0.351937,-11.780316,1.737426,0.389302,-1.854914,0.692929
0.110000,-1.280340,-0.201422,0.319228,0.980233,0.016890,-0.016043,0.196472,-0.624807,-0.353961,0.010917,0.432032,-0.483607,-0.142697,-0.055555,-0.508903,-0.267149,0.089481,1.025436,-0.445397,0.048964,-0.988112,0.478110,-0.010085,0.515985,0.163743,0.050111,2.116949,-1.019593,0.154542,10.456800,0.500512,0.335371,-11.384081,-0.287001,0.215488,-1.799652,0.605653
0.112000,-1.281598,-0.202146,0.319224,0.980247,0.017342,-0.016438,0.196330,-0.629203,-0.361941,-0.002000,0.362747,-0.478758,-0.142068,-0.055304,-0.504669,-0.269119,0.089582,1.046234,-0.447550,0.049138,-1.010638,0.480044,-0.009817,0.512413,0.164807,0.125243,2.117159,-0.984980,0.050419,10.399113,-1.076711,0.087398,-11.263291,0.967059,0.134396,-1.785531,0.532107
0.114000,-1.282858,-0.202869,0.319204,0.980263,0.017871,-0.016849,0.196166,-0.630004,-0.361557,-0.009885,0.435114,-0.508764,-0.166275,-0.055154,-0.500487,-0.271061,0.089582,1.066719,-0.447862,0.049810,-1.032892,0.480644,-0.009387,0.509010,0.165694,0.075142,2.090773,-0.971132,-0.000056,10.242617,-0.156033,0.335864,-11.126967,0.300175,0.214886,-1.701769,0.443148
0.116000,-1.284127,-0.203590,0.319160,0.980278,0.018509,-0.017256,0.195997,-0.634608,-0.360442,-0.022419,0.542428,-0.527139,-0.171274,-0.055211,-0.496404,-0.272852,0.089094,1.087087,-0.449717,0.050670,-1.055066,0.483280,-0.008747,0.505685,0.166459,-0.028674,2.041717,-0.895429,-0.244083,10.183936,-0.927516,0.429815,-11.086679,1.318144,0.319882,-1.662525,0.382486
0.118000,-1.285403,-0.204316,0.319122,0.980299,0.019202,-0.017647,0.195789,-0.637614,-0.363269,-0.018775,0.599103,-0.522807,-0.212772,-0.055291,-0.492277,-0.274626,0.089094,1.106198,-0.445756,0.052407,-1.075887,0.480334,-0.007962,0.502310,0.167353,-0.039877,2.063370,-0.886809,0.000230,9.555377,1.980346,0.868553,-10.410428,-1.473143,0.392327,-1.687216,0.447351
0.120000,-1.286686,-0.205060,0.319072,0.980321,0.019827,-0.018029,0.195584,-0.641712,-0.372006,-0.025249,0.534165,-0.500596,-0.209294,-0.055200,-0.488172,-0.276259,0.089052,1.124883,-0.443443,0.053598,-1.096200,0.478409,-0.007341,0.498835,0.168285,0.045746,2.052642,-0.816696,-0.020971,9.342873,1.156948,0.595730,-10.156698,-0.962601,0.310732,-1.737723,0.465747
0.122000,-1.287978,-0.205835,0.319044,0.980354,0.020289,-0.018383,0.195337,-0.646013,-0.387279,-0.013967,0.377797,-0.441630,-0.250283,-0.054682,-0.483844,-0.277981,0.090254,1.141522,-0.435223,0.055013,-1.114139,0.469471,-0.007017,0.495091,0.169528,0.258656,2.163698,-0.860757,0.600937,8.319326,4.109838,0.707094,-8.969517,-4.469093,0.161757,-1.871897,0.621619
0.124000,-1.289287,-0.206617,0.319005,0.980380,0.020793,-0.018710,0.195120,-0.654711,-0.391244,-0.019106,0.425820,-0.422750,-0.219639,-0.054296,-0.479541,-0.279593,0.090514,1.157784,-0.431399,0.055377,-1.131933,0.465160,-0.006649,0.491151,0.170941,0.193073,2.151764,-0.806005,0.129683,8.131165,1.911971,0.181990,-8.896934,-2.155171,0.184363,-1.969962,0.706491
0.126000,-1.290618,-0.207408,0.319002,0.980414,0.021388,-0.018976,0.194862,-0.665158,-0.395187,-0.001564,0.525831,-0.381729,-0.265283,-0.054033,-0.475025,-0.281304,0.091359,1.171213,-0.420416,0.056702,-1.146822,0.454639,-0.006032,0.486884,0.172864,0.131694,2.257822,-0.855767,0.422836,6.714419,5.491445,0.662558,-7.444632,-5.260878,0.308307,-2.133489,0.961647
0.128000,-1.291967,-0.208194,0.318996,0.980438,0.022126,-0.019221,0.194632,-0.674405,-0.393277,-0.003350,0.671115,-0.388350,-0.239175,-0.054079,-0.470595,-0.282904,0.090744,1.184105,-0.413602,0.057231,-1.161436,0.448786,-0.005154,0.482500,0.174939,-0.022918,2.215041,-0.799996,-0.307860,6.445610,3.406894,0.264500,-7.306971,-2.926417,0.438806,-2.192261,1.037150
0.130000,-1.293327,-0.209003,0.319029,0.980477,0.022769,-0.019437,0.194340,-0.679972,-0.404275,0.016596,0.582298,-0.342948,-0.301857,-0.053775,-0.465959,-0.284610,0.091293,1.193779,-0.399358,0.058613,-1.172303,0.434709,-0.004395,0.477897,0.177359,0.151997,2.318247,-0.852707,0.274895,4.837273,7.122308,0.690934,-5.433392,-7.038323,0.379957,-2.301237,1.210396
0.132000,-1.294691,-0.209820,0.319055,0.980512,0.023371,-0.019687,0.194069,-0.682018,-0.408802,0.013334,0.535240,-0.367620,-0.277891,-0.053289,-0.461529,-0.286135,0.090572,1.203210,-0.390381,0.058546,-1.183011,0.425308,-0.003765,0.473449,0.179564,0.242914,2.214565,-0.762644,-0.360494,4.715614,4.488068,-0.033085,-5.353991,-4.700439,0.314805,-2.224154,1.102421
0.134000,-1.296056,-0.210660,0.319122,0.980564,0.023847,-0.019938,0.193723,-0.682548,-0.419547,0.033474,0.409835,-0.344865,-0.353563,-0.052325,-0.456959,-0.287786,0.091173,1.209191,-0.373411,0.059358,-1.189787,0.407801,-0.003230,0.469430,0.181333,0.481997,2.285220,-0.825769,0.300170,2.990295,8.485332,0.405759,-3.388165,-8.753696,0.267702,-2.009351,0.884485
0.136000,-1.297423,-0.211490,0.319181,0.980606,0.024438,-0.020227,0.193404,-0.683903,-0.415414,0.029341,0.515943,-0.405004,-0.325543,-0.051533,-0.452660,-0.289330,0.089865,1.215120,-0.361842,0.058894,-1.196963,0.396488,-0.002462,0.465963,0.182473,0.395915,2.149735,-0.771999,-0.653764,2.964654,5.784641,-0.231845,-3.588012,-5.656464,0.383856,-1.733651,0.569830
0.138000,-1.298797,-0.212328,0.319279,0.980661,0.025052,-0.020493,0.193021,-0.686905,-0.418974,0.049175,0.541527,-0.387951,-0.392236,-0.050646,-0.448216,-0.291054,0.089480,1.217534,-0.342511,0.059676,-1.200314,0.377856,-0.001503,0.462779,0.183418,0.443735,2.221791,-0.861671,-0.192808,1.207140,9.665161,0.390674,-1.675507,-9.315878,0.479214,-1.592109,0.472391
0.140000,-1.300176,-0.213161,0.319368,0.980704,0.025753,-0.020782,0.192679,-0.689331,-0.416307,0.044468,0.624382,-0.425928,-0.350631,-0.049966,-0.444024,-0.292676,0.087295,1.220070,-0.329101,0.059066,-1.204123,0.364879,-0.000444,0.459664,0.184320,0.339740,2.095915,-0.811193,-1.092282,1.267918,6.705177,-0.304978,-1.904432,-6.488763,0.529849,-1.557419,0.450966
0.142000,-1.301550,-0.214022,0.319504,0.980761,0.026213,-0.021094,0.192290,-0.687075,-0.430753,0.068064,0.381267,-0.403747,-0.394448,-0.048573,-0.439457,-0.301235,0.086813,1.219212,-0.308657,0.058983,-1.204027,0.343872,0.000147,0.456416,0.185512,0.696422,2.283801,-4.279657,-0.240815,-0.429182,10.221743,-0.041473,0.048034,-10.503111,0.295571,-1.623722,0.596261
0.144000,-1.302924,-0.214868,0.319611,0.980802,0.026899,-0.021358,0.191959,-0.686908,-0.422585,0.053311,0.613414,-0.398853,-0.339780,-0.047272,-0.436917,-0.305350,0.084524,1.218596,-0.293841,0.057875,-1.204583,0.328502,0.001078,0.452899,0.187112,0.650381,1.269630,-2.057193,-1.144571,-0.307941,7.407988,-0.553866,-0.277996,-7.685192,0.465406,-1.758953,0.799802
0.146000,-1.304299,-0.215715,0.319726,0.980849,0.027685,-0.021518,0.191587,-0.687400,-0.423876,0.057516,0.731487,-0.316533,-0.386109,-0.045676,-0.436026,-0.304715,0.083445,1.214720,-0.272045,0.058135,-1.201588,0.306716,0.002295,0.449139,0.189133,0.798394,0.445515,0.317515,-0.539896,-1.938081,10.898266,0.129856,1.497572,-10.892983,0.608378,-1.879637,1.010487
0.148000,-1.305676,-0.216558,0.319809,0.980886,0.028555,-0.021674,0.191255,-0.688424,-0.421400,0.041476,0.814896,-0.328522,-0.347427,-0.044318,-0.435687,-0.302640,0.081120,1.211286,-0.255560,0.057124,-1.199396,0.290786,0.003596,0.445480,0.191043,0.678759,0.169865,1.037146,-1.162067,-1.716954,8.242208,-0.505419,1.096140,-7.964873,0.650594,-1.829785,0.955396
0.150000,-1.307060,-0.217430,0.319908,0.980941,0.029198,-0.021835,0.190856,-0.692020,-0.435849,0.049440,0.590213,-0.291014,-0.410778,-0.042692,-0.434079,-0.301719,0.080606,1.205188,-0.233564,0.056668,-1.193869,0.268879,0.004540,0.442047,0.192677,0.813095,0.803853,0.460695,-0.257184,-3.048992,10.998007,-0.227983,2.763461,-10.953574,0.472037,-1.716599,0.816831
0.152000,-1.308448,-0.218303,0.319997,0.980988,0.029830,-0.022050,0.190488,-0.694117,-0.436681,0.044647,0.569472,-0.341161,-0.377486,-0.041343,-0.431584,-0.301927,0.078972,1.199793,-0.216685,0.054978,-1.189135,0.251736,0.005027,0.438730,0.202193,0.674489,1.247552,-0.104080,-0.817061,-2.697360,8.439492,-0.844964,2.366736,-8.571729,0.243279,-1.658406,4.757945
0.154000,-1.309824,-0.219189,0.320092,0.981059,0.030241,-0.022404,0.190020,-0.688056,-0.442750,0.047419,0.323147,-0.437795,-0.471708,-0.039549,-0.428140,-0.303535,0.078741,1.192399,-0.194600,0.054243,-1.181853,0.229634,0.005527,0.437963,0.206717,0.896976,1.722106,-0.804045,-0.115305,-3.697113,11.042642,-0.367416,3.640906,-11.051009,0.250180,-0.383529,2.261787
0.156000,-1.311190,-0.220051,0.320152,0.981126,0.030719,-0.022914,0.189536,-0.683049,-0.431173,0.029756,0.359560,-0.604288,-0.482100,-0.038014,-0.424247,-0.306167,0.077191,1.185972,-0.176708,0.053223,-1.175766,0.212240,0.006501,0.439765,0.205868,0.767695,1.946187,-1.315800,-0.775259,-3.213477,8.946130,-0.510133,3.043854,-8.696804,0.486809,0.901252,-0.424421
0.158000,-1.312572,-0.220902,0.320210,0.981193,0.031310,-0.023440,0.189023,-0.690753,-0.425554,0.029025,0.466340,-0.642768,-0.513658,-0.036804,-0.419869,-0.309384,0.076024,1.177811,-0.155409,0.053529,-1.167757,0.191564,0.007842,0.441999,0.203530,0.604994,2.189244,-1.608469,-0.583217,-4.080360,10.649499,0.153182,4.004295,-10.337993,0.670668,1.116975,-1.168748
0.160000,-1.313978,-0.221741,0.320241,0.981241,0.032083,-0.023930,0.188583,-0.703327,-0.419164,0.015824,0.653644,-0.638544,-0.443679,-0.036230,-0.415325,-0.312668,0.073806,1.170081,-0.138141,0.053385,-1.160478,0.174358,0.009332,0.442874,0.202090,0.286609,2.271903,-1.641929,-1.108943,-3.865382,8.634143,-0.072203,3.639290,-8.603115,0.745036,0.437407,-0.720135
0.162000,-1.315415,-0.222597,0.320271,0.981285,0.032842,-0.024297,0.188179,-0.718281,-0.428128,0.014898,0.664307,-0.515845,-0.411445,-0.035851,-0.410728,-0.315484,0.072653,1.160638,-0.118675,0.053388,-1.151309,0.154253,0.010652,0.442093,0.202001,0.189499,2.298596,-1.408008,-0.576923,-4.721501,9.732958,0.001489,4.584494,-10.052431,0.659824,-0.390452,-0.044565
0.164000,-1.316868,-0.223463,0.320276,0.981313,0.033634,-0.024569,0.187856,-0.726509,-0.433024,0.002277,0.717258,-0.426119,-0.332070,-0.035840,-0.406636,-0.317303,0.071435,1.151297,-0.101565,0.052349,-1.142648,0.136878,0.011846,0.440001,0.202928,0.005838,2.045590,-0.909814,-0.608588,-4.670499,8.555069,-0.519201,4.330967,-8.687423,0.597211,-1.045889,0.463591
0.166000,-1.318335,-0.224352,0.320264,0.981338,0.034347,-0.024756,0.187571,-0.733513,-0.444645,-0.005818,0.656815,-0.326217,-0.295786,-0.035850,-0.402932,-0.318248,0.071205,1.140994,-0.083478,0.050982,-1.132994,0.118981,0.012749,0.436805,0.204710,-0.005264,1.852322,-0.472455,-0.115150,-5.151134,9.043191,-0.683582,4.826977,-8.948830,0.451265,-1.598165,0.890781
0.168000,-1.319797,-0.225245,0.320229,0.981353,0.035047,-0.024958,0.187338,-0.731007,-0.446299,-0.017422,0.643098,-0.337008,-0.241606,-0.036049,-0.399453,-0.324175,0.070773,1.131238,-0.067141,0.049090,-1.123995,0.103137,0.013474,0.433148,0.206726,-0.099378,1.739246,-2.963223,-0.216001,-4.878183,8.168668,-0.946225,4.499154,-7.921846,0.362607,-1.828544,1.008294
0.170000,-1.321257,-0.226132,0.320153,0.981361,0.035845,-0.025121,0.187121,-0.729886,-0.443798,-0.037929,0.746548,-0.317185,-0.228633,-0.036334,-0.397229,-0.327005,0.070285,1.121631,-0.051871,0.047798,-1.114647,0.087726,0.014322,0.429129,0.208897,-0.142560,1.112389,-1.415121,-0.244147,-4.803536,7.634879,-0.646064,4.674255,-7.705634,0.423998,-2.009214,1.085272
0.172000,-1.322697,-0.227008,0.320032,0.981364,0.036747,-0.025311,0.186907,-0.720044,-0.437865,-0.060603,0.844101,-0.361924,-0.226146,-0.036542,-0.396306,-0.327069,0.069489,1.112626,-0.036969,0.047135,-1.105624,0.072602,0.015305,0.425199,0.210785,-0.103717,0.461070,-0.031813,-0.397883,-4.502270,7.451099,-0.331340,4.511301,-7.561722,0.491289,-1.965218,0.944371
0.174000,-1.324124,-0.227891,0.319863,0.981370,0.037579,-0.025569,0.186676,-0.713600,-0.441479,-0.084430,0.761925,-0.417887,-0.239875,-0.036515,-0.395510,-0.326339,0.068889,1.104227,-0.023924,0.046664,-1.096922,0.059686,0.016074,0.421547,0.212113,0.013461,0.397986,0.364787,-0.299980,-4.199729,6.522588,-0.235502,4.351086,-6.457944,0.384706,-1.826136,0.663850
0.176000,-1.325530,-0.228789,0.319662,0.981385,0.038246,-0.025956,0.186403,-0.703017,-0.448827,-0.100823,0.575001,-0.513788,-0.273263,-0.036040,-0.393980,-0.326366,0.068869,1.096114,-0.009977,0.046370,-1.088370,0.046427,0.016401,0.418449,0.212621,0.237364,0.765376,-0.013271,-0.010285,-4.056393,6.973396,-0.147012,4.275960,-6.629737,0.163504,-1.548868,0.253806
0.178000,-1.326928,-0.229702,0.319422,0.981407,0.038733,-0.026470,0.186115,-0.698854,-0.456734,-0.119743,0.374151,-0.605472,-0.279767,-0.035164,-0.391747,-0.327206,0.068944,1.089097,-0.000343,0.045705,-1.080668,0.036931,0.016285,0.415786,0.212413,0.438018,1.116379,-0.420268,0.037568,-3.508694,4.817110,-0.332478,3.851131,-4.747685,-0.057984,-1.331505,-0.103812
0.180000,-1.328317,-0.230612,0.319172,0.981431,0.039248,-0.027081,0.185795,-0.694769,-0.454817,-0.125093,0.381637,-0.707663,-0.308766,-0.034272,-0.388957,-0.328794,0.069170,1.081902,0.011185,0.045875,-1.072792,0.025615,0.016210,0.413452,0.211834,0.446081,1.395142,-0.794126,0.113326,-3.597168,5.763731,0.085078,3.937981,-5.658363,-0.037560,-1.167019,-0.289500
0.182000,-1.329713,-0.231509,0.318892,0.981443,0.039889,-0.027750,0.185496,-0.698125,-0.448384,-0.139794,0.496901,-0.787215,-0.285945,-0.033688,-0.385826,-0.330797,0.068553,1.075863,0.017334,0.046127,-1.066207,0.019214,0.016348,0.411250,0.211049,0.291709,1.565528,-1.001109,-0.308884,-3.019815,3.074764,0.125966,3.292165,-3.200415,0.069041,-1.100995,-0.392317
0.184000,-1.331106,-0.232397,0.318610,0.981445,0.040688,-0.028452,0.185202,-0.696432,-0.444274,-0.141051,0.645915,-0.848753,-0.283417,-0.033409,-0.382419,-0.333163,0.068119,1.069038,0.026922,0.046731,-1.061534,0.015975,0.016764,0.409076,0.210332,0.139752,1.703271,-1.183179,-0.216661,-3.412280,4.794008,0.302245,2.336959,-1.619553,0.208175,-1.087169,-0.358600
0.186000,-1.332504,-0.233294,0.318304,0.981448,0.041369,-0.029142,0.184932,-0.698615,-0.448224,-0.153164,0.532700,-0.813572,-0.256911,-0.032970,-0.378744,-0.335599,0.067545,1.063616,0.029661,0.047099,-1.058072,0.015050,0.016922,0.406673,0.209737,0.219399,1.837760,-1.217989,-0.287353,-2.711028,1.369340,0.183680,1.730683,-0.462130,0.078890,-1.201439,-0.297633
0.188000,-1.333898,-0.234217,0.318010,0.981464,0.041835,-0.029786,0.184635,-0.697241,-0.461653,-0.146805,0.328194,-0.730711,-0.281057,-0.032057,-0.374697,-0.338146,0.068403,1.057235,0.036338,0.047125,-1.055036,0.015387,0.016666,0.403874,0.209577,0.456392,2.023164,-1.273394,0.429136,-3.190813,3.338547,0.012856,1.518181,0.168207,-0.127895,-1.399461,-0.079802
0.190000,-1.335299,-0.235157,0.317702,0.981495,0.042004,-0.030341,0.184343,-0.700573,-0.470097,-0.154108,0.053510,-0.586575,-0.274073,-0.030651,-0.370460,-0.340348,0.069399,1.052724,0.034844,0.046630,-1.052115,0.016608,0.015871,0.400543,0.209826,0.703288,2.118473,-1.101073,0.498165,-2.255350,-0.747033,-0.247430,1.460196,0.610379,-0.397837,-1.665492,0.124112
0.192000,-1.336704,-0.236094,0.317423,0.981536,0.042173,-0.030772,0.184017,-0.702239,-0.468670,-0.139553,0.075411,-0.467166,-0.314959,-0.029283,-0.366297,-0.341964,0.071181,1.047126,0.038987,0.046327,-1.049109,0.018304,0.015184,0.396669,0.210814,0.683732,2.081721,-0.808269,0.890778,-2.798941,2.071448,-0.151128,1.503020,0.848342,-0.343287,-1.936754,0.493964
0.194000,-1.338120,-0.236997,0.317141,0.981574,0.042457,-0.031067,0.183700,-0.708064,-0.451379,-0.140891,0.212405,-0.353577,-0.314490,-0.028347,-0.362432,-0.342701,0.071723,1.043461,0.036180,0.046411,-1.046230,0.020660,0.014856,0.392338,0.212337,0.468012,1.932457,-0.368530,0.271398,-1.832527,-1.403496,0.041791,1.439885,1.177700,-0.163969,-2.165888,0.761575
0.196000,-1.339535,-0.237873,0.316892,0.981616,0.042871,-0.031268,0.183341,-0.707432,-0.438174,-0.124721,0.356999,-0.287788,-0.364801,-0.027703,-0.358676,-0.343061,0.072343,1.039057,0.038754,0.046978,-1.043316,0.023306,0.014929,0.387751,0.214348,0.322139,1.877990,-0.179981,0.309726,-2.201804,1.287181,0.283399,1.456645,1.323026,0.036426,-2.293060,1.005708
0.198000,-1.340946,-0.238720,0.316634,0.981663,0.043257,-0.031429,0.182972,-0.705761,-0.423411,-0.129096,0.336136,-0.243181,-0.375983,-0.027101,-0.354890,-0.343348,0.071798,1.037066,0.033071,0.047624,-1.040589,0.026423,0.015055,0.383203,0.216273,0.301008,1.892991,-0.143069,-0.272486,-0.995875,-2.841766,0.322893,1.363675,1.558593,0.063171,-2.274406,0.962692
0.200000,-1.342337,-0.239559,0.316401,0.981726,0.043558,-0.031609,0.182533,-0.695330,-0.419419,-0.116091,0.245517,-0.248476,-0.444035,-0.026194,-0.350822,-0.344155,0.071956,1.034349,0.032899,0.048276,-1.037889,0.029665,0.015189,0.379408,0.217331,0.453312,2.033775,-0.403528,0.078800,-1.358278,-0.085678,0.325978,1.349766,1.621174,0.066878,-1.897108,0.528547
0.202000,-1.343708,-0.240389,0.316159,0.981801,0.043657,-0.031832,0.182065,-0.685817,-0.414921,-0.121216,0.039118,-0.254806,-0.466061,-0.024863,-0.346508,-0.345457,0.071812,1.033436,0.026559,0.048600,-1.035390,0.033216,0.015045,0.376384,0.217318,0.665687,2.157387,-0.651170,-0.071943,-0.456506,-3.170243,0.162238,1.249728,1.775144,-0.072062,-1.512416,-0.006231
0.204000,-1.345061,-0.241208,0.315938,0.981884,0.043746,-0.032083,0.181551,-0.676207,-0.409602,-0.110718,0.021265,-0.283137,-0.511483,-0.023423,-0.342084,-0.347139,0.072322,1.031532,0.025616,0.049004,-1.033032,0.036936,0.014976,0.373899,0.216762,0.720041,2.211725,-0.841027,0.255211,-0.952013,-0.471274,0.202168,1.178897,1.860409,-0.034382,-1.242089,-0.277814
0.206000,-1.346408,-0.242001,0.315708,0.981961,0.043901,-0.032331,0.181054,-0.673607,-0.396217,-0.114519,0.087313,-0.290346,-0.496701,-0.022232,-0.337817,-0.348729,0.072065,1.030767,0.019501,0.049549,-1.030982,0.041065,0.015018,0.371263,0.216489,0.595346,2.133693,-0.794995,-0.128714,-0.382430,-3.057602,0.272275,1.025350,2.064479,0.020957,-1.318107,-0.136511
0.208000,-1.347748,-0.242772,0.315495,0.982032,0.044202,-0.032564,0.180554,-0.670211,-0.385456,-0.106507,0.234715,-0.302977,-0.502738,-0.021393,-0.333820,-0.350094,0.071953,1.029044,0.016932,0.050418,-1.029103,0.045405,0.015341,0.368398,0.216738,0.419373,1.998442,-0.682458,-0.056072,-0.861782,-1.284710,0.434794,0.939464,2.169729,0.161602,-1.432563,0.124170
0.210000,-1.349084,-0.243524,0.315290,0.982096,0.044512,-0.032807,0.180082,-0.667851,-0.376035,-0.102540,0.241730,-0.313569,-0.474945,-0.021392,-0.329340,-0.362598,0.071585,1.027569,0.011828,0.051270,-1.027381,0.049898,0.015657,0.365327,0.217370,0.000774,2.240080,-6.251869,-0.183785,-0.737328,-2.552051,0.425818,0.860955,2.246496,0.157759,-1.535543,0.315970
0.212000,-1.350399,-0.244257,0.315068,0.982155,0.044964,-0.032939,0.179626,-0.657653,-0.366522,-0.110963,0.403210,-0.229843,-0.467480,-0.021563,-0.327664,-0.368540,0.071568,1.025250,0.009088,0.052402,-1.025588,0.054415,0.016254,0.361880,0.218580,-0.085791,0.837647,-2.971176,-0.008561,-1.159514,-1.369928,0.566042,0.896422,2.258762,0.298689,-1.723548,0.605117
0.214000,-1.351695,-0.245070,0.314885,0.982251,0.045071,-0.032916,0.179076,-0.647728,-0.406631,-0.091580,0.086316,-0.017562,-0.561814,-0.020180,-0.329237,-0.359923,0.076879,1.014657,0.034221,0.052866,-1.022336,0.057577,0.016282,0.358433,0.219673,0.691545,-0.786426,4.308698,2.655526,-5.296649,12.566518,0.231686,1.625727,1.580677,0.014061,-1.723220,0.546458
0.216000,-1.353003,-0.245935,0.314794,0.982372,0.045053,-0.032836,0.178427,-0.653901,-0.432527,-0.045510,-0.030020,0.056059,-0.661759,-0.018443,-0.330108,-0.352276,0.085751,0.995895,0.087739,0.053174,-1.017986,0.059630,0.016257,0.355372,0.220411,0.868588,-0.435214,3.823298,4.435848,-9.380895,26.759160,0.154263,2.175182,1.026665,-0.012577,-1.530823,0.369267
0.218000,-1.354390,-0.246832,0.314747,0.982522,0.044401,-0.032617,0.177809,-0.693632,-0.448342,-0.023645,-0.628356,0.308765,-0.623075,-0.015690,-0.328751,-0.347085,0.092940,0.978841,0.119913,0.052284,-1.011798,0.059951,0.015249,0.351871,0.221145,1.376728,0.678280,2.595548,3.594733,-8.527119,16.086887,-0.445007,3.093978,0.160684,-0.504042,-1.750218,0.366840
0.220000,-1.355881,-0.247682,0.314784,0.982662,0.043818,-0.032176,0.177257,-0.745567,-0.425340,0.018446,-0.518656,0.517253,-0.567945,-0.013559,-0.325354,-0.344303,0.096013,0.963927,0.130139,0.051710,-1.004187,0.058966,0.015053,0.347911,0.228134,1.065205,1.698471,1.390932,1.536717,-7.456766,5.113220,-0.286822,3.805747,-0.492515,-0.098254,-1.980337,3.494598
0.222000,-1.357472,-0.248456,0.314876,0.982797,0.043338,-0.031555,0.176735,-0.795212,-0.387043,0.046235,-0.384108,0.676379,-0.547989,-0.014510,-0.316586,-0.368450,0.094963,0.951529,0.117970,0.051665,-0.995420,0.056939,0.016143,0.345425,0.230744,-0.475209,4.383956,-12.073626,-0.525175,-6.198762,-6.084790,-0.022822,4.383107,-1.013736,0.545091,-1.242976,1.304943
0.224000,-1.359108,-0.249164,0.314934,0.982933,0.042987,-0.030537,0.176245,-0.818458,-0.353759,0.028907,-0.186730,1.045926,-0.538556,-0.016531,-0.310157,-0.381797,0.090946,0.941563,0.084553,0.052157,-0.985224,0.053818,0.018670,0.344293,0.228925,-1.010475,3.214754,-6.673215,-2.008633,-4.983068,-16.708273,0.245881,5.097998,-1.560601,1.263692,-0.565796,-0.909462
0.226000,-1.360728,-0.249861,0.315014,0.983065,0.043091,-0.029254,0.175702,-0.809864,-0.348371,0.039943,0.305812,1.223558,-0.615126,-0.018296,-0.309780,-0.368798,0.088707,0.924036,0.079023,0.053678,-0.974366,0.050192,0.022261,0.343981,0.225702,-0.882665,0.188441,6.499381,-1.119602,-8.763824,-2.764909,0.760920,5.428934,-1.812808,1.795504,-0.156129,-1.611806
0.228000,-1.362327,-0.250669,0.315168,0.983245,0.042421,-0.027992,0.175060,-0.799469,-0.404249,0.077066,-0.463231,1.335379,-0.698348,-0.018044,-0.309507,-0.356210,0.090722,0.900801,0.099075,0.053607,-0.962148,0.044979,0.023610,0.343054,0.231002,0.125768,0.136253,6.293875,1.007502,-11.617338,10.025836,-0.035747,6.109112,-2.606603,0.674558,-0.463534,2.650103
0.230000,-1.363892,-0.251625,0.315395,0.983507,0.040253,-0.027012,0.174251,-0.782320,-0.478044,0.113299,-1.994030,1.317133,-0.821667,-0.013938,-0.306543,-0.348452,0.096686,0.876076,0.134699,0.050551,-0.948602,0.037920,0.021533,0.343109,0.232834,2.053309,1.482072,3.879115,2.982168,-12.362602,17.812201,-1.527825,6.772959,-3.529504,-1.038781,0.027623,0.916245
0.232000,-1.365462,-0.252616,0.315615,0.983814,0.036826,-0.026056,0.173419,-0.785334,-0.495130,0.110177,-3.238652,1.511456,-0.817627,-0.007215,-0.301573,-0.343600,0.100687,0.860511,0.138747,0.045136,-0.933517,0.028997,0.017021,0.343370,0.232110,3.361544,2.485005,2.425802,2.000338,-7.782552,2.023939,-2.707502,7.542637,-4.461622,-2.255897,0.130332,-0.362336
0.234000,-1.367097,-0.253435,0.315850,0.984074,0.034095,-0.024884,0.172676,-0.817323,-0.409859,0.117577,-2.512522,1.605954,-0.748002,-0.005150,-0.292949,-0.363271,0.098314,0.852291,0.118555,0.041465,-0.918368,0.020003,0.014392,0.343054,0.230978,1.032312,4.312103,-9.835512,-1.186583,-4.109986,-10.095952,-1.835878,7.574770,-4.496939,-1.314448,-0.157631,-0.566004
0.236000,-1.368770,-0.254004,0.316151,0.984236,0.033743,-0.023399,0.172025,-0.836376,-0.284395,0.150581,-0.111410,1.504371,-0.710997,-0.008265,-0.286850,-0.374830,0.089929,0.842082,0.117061,0.042814,-0.904817,0.012815,0.017418,0.341875,0.238497,-1.557535,3.049689,-5.779101,-4.192509,-5.104127,-0.747457,0.674900,6.775480,-3.594016,1.512826,-0.589739,3.759574
0.238000,-1.370397,-0.254451,0.316431,0.984354,0.034576,-0.021845,0.171390,-0.813339,-0.223481,0.139543,1.067986,1.367875,-0.716666,-0.013780,-0.285459,-0.374038,0.080300,0.829015,0.138943,0.046571,-0.892850,0.007257,0.022916,0.341956,0.242564,-2.757369,0.695500,0.395935,-4.814148,-6.533723,10.941069,1.878583,5.983073,-2.778714,2.749063,0.040362,2.033644
0.240000,-1.371909,-0.255042,0.316611,0.984529,0.033749,-0.020580,0.170704,-0.756135,-0.295357,0.090245,-0.617678,1.366688,-0.731496,-0.015106,-0.286636,-0.368388,0.075409,0.818048,0.158808,0.046715,-0.880762,0.001119,0.024049,0.343600,0.241340,-0.663219,-0.588603,2.824739,-2.445548,-5.483690,9.932578,0.071709,6.044150,-3.069293,0.566763,0.821988,-0.611853
0.242000,-1.373328,-0.255870,0.316666,0.984786,0.030228,-0.019660,0.169991,-0.709524,-0.414226,0.027400,-3.333180,1.488191,-0.704321,-0.010408,-0.287298,-0.362393,0.076446,0.812740,0.155916,0.040886,-0.867881,-0.006248,0.018143,0.345219,0.237487,2.349206,-0.331068,2.997671,0.518195,-2.653694,-1.445862,-2.914497,6.440354,-3.683338,-2.952953,0.809828,-1.926791
0.244000,-1.374749,-0.256752,0.316701,0.985032,0.026157,-0.018878,0.169326,-0.710714,-0.441139,0.017564,-3.896927,1.446748,-0.640043,-0.004138,-0.286297,-0.358011,0.079101,0.808205,0.149143,0.033688,-0.855286,-0.013491,0.010618,0.345207,0.234692,3.135015,0.500405,2.190884,1.327505,-2.267465,-3.386315,-3.599107,6.297796,-3.621424,-3.762684,-0.006329,-1.397280
0.246000,-1.376251,-0.257472,0.316810,0.985196,0.023957,-0.018001,0.168791,-0.750681,-0.359727,0.054727,-2.032391,1.224899,-0.536021,-0.001499,-0.284296,-0.354750,0.078488,0.799379,0.159183,0.030916,-0.844871,-0.017956,0.006974,0.342528,0.245884,1.319296,1.000606,1.630787,-0.306175,-4.413353,5.019546,-1.386015,5.207619,-2.232431,-1.822096,-1.339287,5.595802
0.248000,-1.377805,-0.258014,0.316945,0.985308,0.023351,-0.017134,0.168314,-0.777264,-0.271296,0.067159,-0.461909,0.947389,-0.498812,-0.001915,-0.281652,-0.352468,0.074459,0.788409,0.176974,0.032312,-0.836552,-0.019516,0.007658,0.340963,0.252330,-0.207847,1.322026,1.140842,-2.014533,-5.484867,8.895732,0.697940,4.159102,-0.780081,0.342159,-0.782328,3.222881
0.250000,-1.379386,-0.258464,0.317063,0.985403,0.023196,-0.016313,0.167857,-0.790232,-0.224977,0.059137,-0.024317,0.826238,-0.483221,-0.003101,-0.278186,-0.351178,0.068595,0.779217,0.184925,0.034993,-0.828821,-0.020335,0.010484,0.341316,0.250718,-0.593223,1.732902,0.645044,-2.932208,-4.595789,3.975660,1.340863,3.865763,-0.409587,1.413105,0.176376,-0.805618
0.252000,-1.380967,-0.258971,0.317162,0.985515,0.022158,-0.015617,0.167406,-0.790493,-0.253268,0.049330,-0.916519,0.851813,-0.462285,-0.002270,-0.273446,-0.351417,0.064648,0.772115,0.180618,0.035547,-0.820268,-0.022603,0.011629,0.341977,0.247060,0.415704,2.369886,-0.119473,-1.973144,-3.551306,-2.153678,0.276980,4.276432,-1.134022,0.572394,0.330615,-1.829439
0.254000,-1.382545,-0.259592,0.317272,0.985645,0.020008,-0.015101,0.166958,-0.789218,-0.310679,0.055187,-2.042520,0.860071,-0.441257,0.001108,-0.267384,-0.353529,0.064787,0.763673,0.178975,0.033449,-0.810745,-0.026521,0.010068,0.341510,0.243971,1.688990,3.031229,-1.056288,0.069438,-4.220945,-0.821507,-1.049197,4.761465,-1.959012,-0.780521,-0.233862,-1.544451
0.256000,-1.384145,-0.260241,0.317423,0.985762,0.017733,-0.014668,0.166561,-0.799837,-0.324111,0.075443,-2.177901,0.800844,-0.384648,0.004847,-0.260553,-0.356905,0.066976,0.751968,0.189716,0.030762,-0.800990,-0.031117,0.007777,0.339271,0.242932,1.869294,3.415370,-1.687654,1.094173,-5.852453,5.370412,-1.343385,4.877506,-2.297849,-1.145764,-1.119185,-0.519493
0.258000,-1.385775,-0.260817,0.317583,0.985846,0.016052,-0.014156,0.166282,-0.814941,-0.288275,0.080260,-1.578033,0.780251,-0.273849,0.007077,-0.254100,-0.359687,0.068003,0.739702,0.201622,0.029049,-0.791502,-0.035617,0.006387,0.335320,0.244106,1.115058,3.226431,-1.391276,0.513928,-6.132716,5.952969,-0.856576,4.744047,-2.250055,-0.694778,-1.975799,0.587309
0.260000,-1.387421,-0.261280,0.317715,0.985895,0.015102,-0.013519,0.166135,-0.823072,-0.231625,0.065622,-0.833335,0.785102,-0.149451,0.007188,-0.249005,-0.360316,0.066337,0.729709,0.203285,0.028709,-0.782512,-0.039697,0.006343,0.330164,0.246832,0.055865,2.547853,-0.314265,-0.833251,-4.996786,0.831815,-0.169759,4.495049,-2.040098,-0.022222,-2.578002,1.362845
0.262000,-1.389061,-0.261627,0.317834,0.985916,0.014985,-0.012797,0.166076,-0.820287,-0.173444,0.059660,0.004109,0.729638,-0.070998,0.005221,-0.245421,-0.359005,0.062269,0.720853,0.202087,0.030021,-0.774253,-0.043157,0.008151,0.324928,0.256499,-0.983580,1.791714,0.655171,-2.033962,-4.427810,-0.599370,0.656050,4.129332,-1.729823,0.903959,-2.617784,4.833299
0.264000,-1.390634,-0.261963,0.317926,0.985944,0.014680,-0.012310,0.165976,-0.786234,-0.168058,0.045894,-0.221531,0.530339,-0.107064,0.003776,-0.242593,-0.357613,0.059352,0.711826,0.207011,0.030878,-0.766726,-0.046308,0.009874,0.323219,0.258265,-0.722835,1.414063,0.696013,-1.458503,-4.513399,2.462397,0.428209,3.763841,-1.575403,0.861463,-0.854333,0.883110
0.266000,-1.392236,-0.262482,0.318110,0.985994,0.012756,-0.011942,0.165865,-0.801117,-0.259372,0.092313,-1.838142,0.680456,-0.099604,0.005883,-0.237050,-0.359957,0.061177,0.701600,0.220011,0.027822,-0.755729,-0.067536,0.007900,0.319357,0.261419,1.053576,2.771285,-1.172042,0.912549,-5.113316,6.499894,-1.527868,5.498442,-10.614322,-0.986830,-1.931473,1.577344
0.268000,-1.393872,-0.263050,0.318313,0.986021,0.010446,-0.011670,0.165885,-0.817960,-0.284158,0.101378,-2.233208,0.652535,0.039892,0.008617,-0.229884,-0.364976,0.063247,0.692896,0.228649,0.022262,-0.747330,-0.081115,0.004671,0.313975,0.265429,1.366992,3.583229,-2.509111,1.035020,-4.351749,4.318730,-2.780270,4.199322,-6.789512,-1.614259,-2.690907,2.004590
0.270000,-1.395550,-0.263513,0.318459,0.986005,0.009086,-0.011354,0.166081,-0.839234,-0.231043,0.073132,-1.286124,0.539023,0.207891,0.007238,-0.219625,-0.387154,0.061797,0.686590,0.229250,0.017138,-0.743964,-0.077185,0.003087,0.307640,0.270048,-0.689507,5.129569,-11.088992,-0.724881,-3.153082,0.300519,-2.561980,1.682912,1.965166,-0.792061,-3.167365,2.309470
0.272000,-1.397254,-0.263840,0.318522,0.985969,0.009001,-0.010732,0.166342,-0.851752,-0.163562,0.031148,0.022970,0.629187,0.259234,0.002881,-0.212738,-0.393029,0.057263,0.680905,0.229701,0.015343,-0.741267,-0.072647,0.004437,0.300416,0.274993,-2.178192,3.443382,-2.937812,-2.267235,-2.842649,0.225717,-0.897211,1.348682,2.268745,0.674951,-3.612120,2.472476
0.274000,-1.398890,-0.264127,0.318484,0.985948,0.009154,-0.010005,0.166502,-0.818230,-0.143683,-0.019048,0.273781,0.692452,0.153273,-0.000512,-0.212794,-0.368371,0.053282,0.674679,0.237873,0.014693,-0.737826,-0.069247,0.007500,0.296757,0.263968,-1.696842,-0.027841,12.329135,-1.990364,-3.112726,4.085987,-0.325066,1.720300,1.700379,1.531612,-1.829190,-5.512243
0.276000,-1.400514,-0.264549,0.318463,0.985954,0.007948,-0.009417,0.166563,-0.811644,-0.211171,-0.010377,-1.090952,0.781309,0.065881,-0.000942,-0.210707,-0.354979,0.053223,0.668340,0.248043,0.011731,-0.732138,-0.069069,0.007187,0.292339,0.257259,-0.215024,1.043562,6.695801,-0.029369,-3.169687,5.084787,-1.481187,2.844031,0.088849,-0.156665,-2.209219,-3.354338
0.278000,-1.402063,-0.265096,0.318411,0.985989,0.005132,-0.009068,0.166487,-0.774590,-0.273192,-0.025769,-2.718950,0.812867,-0.057256,0.002512,-0.208794,-0.346943,0.057022,0.663970,0.251556,0.005986,-0.724622,-0.071832,0.003567,0.290944,0.241399,1.727051,0.956461,4.018400,1.899153,-2.184855,1.756808,-2.872563,3.758316,-1.381367,-1.809836,-0.697284,-7.930399
0.280000,-1.403659,-0.265593,0.318403,0.986024,0.002509,-0.008556,0.166362,-0.797976,-0.248439,-0.004293,-2.502686,0.941385,-0.108479,0.004461,-0.205221,-0.351549,0.060339,0.660122,0.252198,0.003594,-0.711404,-0.100126,0.000251,0.287520,0.239930,0.974439,1.786335,-2.303274,1.658791,-1.924199,0.321094,-1.195693,6.608579,-14.147187,-1.657988,-1.712344,-0.734082
0.282000,-1.405182,-0.265828,0.318220,0.986043,0.002199,-0.007879,0.166290,-0.761686,-0.117466,-0.091189,-0.193405,0.718582,-0.072514,0.002167,-0.210818,-0.323273,0.059133,0.656534,0.252779,0.006687,-0.703197,-0.113590,0.002954,0.289911,0.222357,-1.146550,-2.798340,14.138193,-0.603341,-1.794207,0.290148,1.546389,4.103675,-6.732073,1.351372,1.195484,-8.786765
0.284000,-1.406676,-0.265954,0.317986,0.986027,0.003118,-0.007363,0.166394,-0.746758,-0.063208,-0.117159,0.992624,0.356304,0.096107,-0.003385,-0.217458,-0.302816,0.055515,0.652744,0.254067,0.010666,-0.701879,-0.103062,0.007061,0.293176,0.210519,-2.776330,-3.319969,10.228463,-1.808838,-1.894579,0.644348,1.989358,0.659120,5.263984,2.053412,1.632865,-5.918818
0.286000,-1.408038,-0.266152,0.317708,0.986023,0.003223,-0.007267,0.166420,-0.681202,-0.098987,-0.139158,0.120437,0.077385,0.025170,-0.005670,-0.227640,-0.276569,0.054026,0.649853,0.254583,0.012755,-0.701254,-0.093625,0.009128,0.301960,0.184239,-1.142506,-5.091070,13.123342,-0.744525,-1.445503,0.257890,1.044822,0.312532,4.718696,1.033565,4.391808,-13.140083
0.288000,-1.409392,-0.266535,0.317545,0.986026,0.001786,-0.007479,0.166413,-0.676925,-0.191553,-0.081229,-1.453077,0.029966,0.004285,-0.004519,-0.234372,-0.271907,0.055997,0.647079,0.254302,0.011313,-0.698752,-0.088117,0.006086,0.308632,0.174188,0.575854,-3.366088,2.330999,0.985658,-1.387183,-0.140520,-0.721252,1.250949,2.753750,-1.520960,3.335957,-5.025465
0.290000,-1.410651,-0.266996,0.317367,0.986050,-0.000421,-0.007817,0.166265,-0.629717,-0.230365,-0.089023,-2.233282,0.033765,-0.132902,0.000524,-0.246854,-0.243478,0.059979,0.644950,0.252964,0.008264,-0.695078,-0.085284,0.002070,0.319719,0.149033,2.521514,-6.240960,14.214730,1.991028,-1.064622,-0.669010,-1.524528,1.837070,1.416676,-2.007838,5.543501,-12.577478
0.292000,-1.411991,-0.267404,0.317286,0.986084,-0.002005,-0.007942,0.166044,-0.669959,-0.204268,-0.040513,-1.584026,0.140932,-0.211298,0.003754,-0.258528,-0.218605,0.062810,0.641981,0.252313,0.008710,-0.685111,-0.108109,-0.000213,0.329150,0.133147,1.614852,-5.837122,12.436472,1.415195,-1.484296,-0.325448,0.223150,4.983373,-11.412316,-1.141502,4.715611,-7.943021
0.294000,-1.413331,-0.267645,0.317174,0.986121,-0.001933,-0.007907,0.165831,-0.670068,-0.120490,-0.056315,0.074949,0.022726,-0.216096,0.003566,-0.274225,-0.178016,0.062329,0.638455,0.253034,0.012034,-0.677445,-0.124675,0.002510,0.342257,0.103422,-0.093947,-7.848236,20.294395,-0.240528,-1.763259,0.360603,1.661965,3.833060,-8.283425,1.361473,6.553643,-14.862804
0.296000,-1.414737,-0.267819,0.317118,0.986129,-0.000787,-0.007950,0.165787,-0.702677,-0.086745,-0.028033,1.122264,-0.232076,-0.054566,-0.000682,-0.286570,-0.158955,0.059553,0.633889,0.255728,0.015760,-0.673340,-0.127389,0.006394,0.353510,0.084138,-2.124183,-6.172734,9.530367,-1.387915,-2.282770,1.346554,1.862866,2.052405,-1.356848,1.941965,5.626284,-9.641650
0.298000,-1.416072,-0.268037,0.317024,0.986130,0.000219,-0.008273,0.165768,-0.667839,-0.108897,-0.046788,0.938522,-0.484721,-0.027323,-0.003517,-0.301682,-0.130542,0.057296,0.629549,0.258827,0.017437,-0.672063,-0.120291,0.009529,0.367870,0.053148,-1.417305,-7.556096,14.206445,-1.128535,-2.170014,1.549832,0.838554,0.638263,3.548831,1.567225,7.180266,-15.495135
0.300000,-1.417408,-0.268403,0.316988,0.986128,0.000256,-0.008806,0.165754,-0.667810,-0.182978,-0.018108,-0.052100,-0.532522,-0.013223,-0.003751,-0.315623,-0.106710,0.057217,0.625228,0.261652,0.017011,-0.670182,-0.115015,0.008813,0.380232,0.031800,-0.117380,-6.970282,11.916347,-0.039257,-2.160801,1.412170,-0.212900,0.940898,2.638389,-0.357790,6.180592,-10.674148
0.302000,-1.418677,-0.268917,0.316943,0.986143,-0.000978,-0.009554,0.165621,-0.634260,-0.257024,-0.022241,-1.341421,-0.532807,-0.122764,0.000685,-0.332386,-0.067592,0.060078,0.621629,0.263323,0.014085,-0.667492,-0.111703,0.005276,0.394933,-0.000672,2.218454,-8.381728,19.558776,1.430497,-1.799359,0.835731,-1.463248,1.344743,1.655820,-1.768426,7.350501,-16.236037
0.304000,-1.420010,-0.269472,0.316987,0.986157,-0.002393,-0.010233,0.165478,-0.666947,-0.277781,0.021749,-1.509537,-0.434996,-0.130025,0.004704,-0.346868,-0.037801,0.063313,0.617583,0.265076,0.010927,-0.663564,-0.110409,0.000869,0.407378,-0.024446,2.009446,-7.240677,14.895442,1.617521,-2.022648,0.876226,-1.579002,1.964007,0.646954,-2.203730,6.222682,-11.886892
0.306000,-1.421390,-0.269926,0.317055,0.986183,-0.002887,-0.010679,0.165292,-0.689817,-0.227152,0.034133,-0.562972,-0.356989,-0.184024,0.006134,-0.362390,-0.002776,0.064641,0.613061,0.267461,0.009983,-0.659334,-0.109629,-0.000159,0.421181,-0.054435,0.714740,-7.761349,17.512495,0.663970,-2.261349,1.192542,-0.471783,2.114931,0.389958,-0.513732,6.901231,-14.994545
0.308000,-1.422863,-0.270280,0.317197,0.986210,-0.002389,-0.010852,0.165127,-0.736628,-0.176978,0.070938,0.461213,-0.252524,-0.172716,0.003625,-0.376252,0.023524,0.063781,0.607679,0.270775,0.011306,-0.654532,-0.109588,0.001538,0.433705,-0.078549,-1.254442,-6.930710,13.149975,-0.429940,-2.690674,1.657235,0.661353,2.401109,0.020400,0.848441,6.262252,-12.056843
0.310000,-1.424335,-0.270584,0.317342,0.986248,-0.001499,-0.010924,0.164904,-0.735609,-0.151920,0.072696,0.863521,-0.216640,-0.236856,0.000364,-0.392165,0.057942,0.062170,0.602249,0.274269,0.013642,-0.649575,-0.109935,0.005089,0.448506,-0.109775,-1.630575,-7.956444,17.209156,-0.805441,-2.715026,1.747029,1.168265,2.478339,-0.173293,1.775436,7.400288,-15.612783
0.312000,-1.425801,-0.270958,0.317533,0.986288,-0.001224,-0.011073,0.164654,-0.733285,-0.186859,0.095292,0.244160,-0.191734,-0.255557,-0.001646,-0.407861,0.088411,0.061872,0.596939,0.277415,0.014723,-0.643914,-0.111590,0.006637,0.463247,-0.136682,-1.004868,-7.848216,15.234477,-0.149378,-2.655162,1.573035,0.540529,2.830612,-0.827727,0.773810,7.370891,-13.453493
0.314000,-1.427190,-0.271451,0.317727,0.986334,-0.002165,-0.011505,0.164340,-0.694199,-0.246435,0.097117,-1.002643,-0.269819,-0.307634,0.000020,-0.425456,0.120841,0.064233,0.592358,0.279744,0.013259,-0.637987,-0.114282,0.004936,0.480373,-0.168075,0.832926,-8.797496,16.215018,1.180749,-2.290650,1.164535,-0.732271,2.963428,-1.345539,-0.850527,8.562733,-15.696872
0.316000,-1.428570,-0.271990,0.317958,0.986374,-0.003534,-0.012006,0.164041,-0.690132,-0.269716,0.115593,-1.436063,-0.268523,-0.286954,0.002366,-0.443293,0.148325,0.067445,0.587849,0.281880,0.010868,-0.631709,-0.117793,0.001368,0.497256,-0.193156,1.172827,-8.918366,13.741799,1.606099,-2.254243,1.068069,-1.195394,3.138994,-1.755844,-1.783648,8.441683,-12.540289
0.318000,-1.429937,-0.272462,0.318183,0.986411,-0.004362,-0.012454,0.163765,-0.683700,-0.235950,0.112140,-0.894080,-0.304481,-0.269621,0.003317,-0.463345,0.178556,0.069477,0.583254,0.284455,0.009623,-0.625963,-0.120786,-0.000868,0.515697,-0.218785,0.475804,-10.026100,15.115516,1.015619,-2.297656,1.287207,-0.622267,2.873136,-1.496250,-1.117988,9.220338,-12.814581
0.320000,-1.431335,-0.272835,0.318411,0.986444,-0.004299,-0.012754,0.163545,-0.698899,-0.186412,0.113991,0.010696,-0.304965,-0.224965,0.001346,-0.484120,0.206969,0.069524,0.578260,0.287733,0.010253,-0.620683,-0.123129,-0.000948,0.534339,-0.242284,-0.985787,-10.387275,14.206448,0.023857,-2.497011,1.639005,0.314750,2.640241,-1.171840,-0.040219,9.320858,-11.749632
0.322000,-1.432722,-0.273134,0.318618,0.986476,-0.003636,-0.013021,0.163349,-0.693609,-0.149377,0.103779,0.608261,-0.370752,-0.207652,-0.002237,-0.506622,0.236627,0.068277,0.573189,0.291535,0.012129,-0.616147,-0.124604,0.000571,0.554718,-0.267624,-1.791111,-11.251055,14.829365,-0.623671,-2.535562,1.900860,0.937835,2.267585,-0.737267,0.759598,10.189716,-12.669919
0.324000,-1.434099,-0.273463,0.318822,0.986503,-0.003265,-0.013381,0.163165,-0.688522,-0.164489,0.102099,0.304816,-0.414059,-0.192774,-0.005301,-0.529183,0.263101,0.067625,0.568286,0.295164,0.013333,-0.611709,-0.126158,0.000937,0.575477,-0.292103,-1.532240,-11.280502,13.236718,-0.325999,-2.451479,1.814584,0.602046,2.219315,-0.777167,0.182805,10.379642,-12.239322
0.326000,-1.435424,-0.273882,0.319016,0.986524,-0.003800,-0.013985,0.162972,-0.662246,-0.209508,0.096844,-0.628844,-0.507697,-0.188824,-0.005863,-0.552537,0.286288,0.068895,0.563927,0.298201,0.012544,-0.607370,-0.128037,-0.001600,0.597433,-0.316290,-0.280884,-11.676891,11.593672,0.635035,-2.179215,1.518531,-0.394410,2.169392,-0.939172,-1.268325,10.977705,-12.093841
0.328000,-1.436747,-0.274348,0.319201,0.986542,-0.004723,-0.014633,0.162786,-0.661506,-0.233098,0.092314,-1.018951,-0.488676,-0.175728,-0.005403,-0.575871,0.309480,0.070961,0.559765,0.300742,0.010894,-0.602820,-0.130264,-0.005605,0.618998,-0.337843,0.229868,-11.667326,11.596049,1.032732,-2.081002,1.270436,-0.824941,2.275196,-1.113909,-2.002482,10.782705,-10.776328
0.330000,-1.438073,-0.274786,0.319371,0.986555,-0.005396,-0.015234,0.162626,-0.663163,-0.218805,0.085075,-0.763991,-0.481698,-0.152541,-0.005686,-0.600010,0.332431,0.072448,0.555575,0.303328,0.009751,-0.598470,-0.132211,-0.009161,0.640902,-0.356293,-0.141304,-12.069370,11.475168,0.743600,-2.095371,1.293279,-0.571691,2.174921,-0.973299,-1.777875,10.951764,-9.225020
0.332000,-1.439438,-0.275162,0.319523,0.986571,-0.005494,-0.015681,0.162484,-0.682538,-0.188373,0.075930,-0.171160,-0.423950,-0.144262,-0.007766,-0.624059,0.356417,0.072671,0.551155,0.306082,0.009863,-0.594165,-0.133834,-0.010805,0.662595,-0.375261,-1.040383,-12.024695,11.993386,0.111741,-2.210089,1.376949,0.055942,2.152377,-0.811582,-0.822133,10.846864,-9.484118
0.334000,-1.440813,-0.275485,0.319666,0.986586,-0.005162,-0.016075,0.162366,-0.687633,-0.161302,0.071625,0.261063,-0.442262,-0.126268,-0.011391,-0.648514,0.376116,0.071934,0.546588,0.309205,0.010883,-0.590188,-0.134997,-0.011188,0.685002,-0.392063,-1.812266,-12.227597,9.849169,-0.368429,-2.283191,1.561507,0.510075,1.988388,-0.581495,-0.191806,11.203127,-8.400714
0.336000,-1.442194,-0.275823,0.319794,0.986602,-0.004993,-0.016495,0.162232,-0.690051,-0.168945,0.063872,0.096542,-0.440780,-0.138899,-0.014583,-0.672803,0.395028,0.071545,0.542134,0.312111,0.011578,-0.586130,-0.136263,-0.011658,0.707748,-0.410377,-1.595928,-12.144108,9.456134,-0.194635,-2.226845,1.453122,0.347649,2.029368,-0.632721,-0.234981,11.373404,-9.157253
0.338000,-1.443540,-0.276215,0.319919,0.986612,-0.005408,-0.017076,0.162100,-0.673184,-0.196346,0.062825,-0.505559,-0.504638,-0.128101,-0.016179,-0.697663,0.408139,0.072373,0.537987,0.314725,0.010987,-0.582130,-0.137759,-0.014055,0.731300,-0.424645,-0.797987,-12.430331,6.555485,0.413841,-2.073626,1.306688,-0.295637,1.999613,-0.748217,-1.198364,11.775536,-7.134044
0.340000,-1.444882,-0.276642,0.320023,0.986622,-0.006105,-0.017682,0.161947,-0.671268,-0.213088,0.051668,-0.788622,-0.484076,-0.143778,-0.016462,-0.722957,0.424325,0.073822,0.534034,0.316918,0.009807,-0.577960,-0.139465,-0.017010,0.755039,-0.439144,-0.141731,-12.646954,8.092914,0.724652,-1.976514,1.096440,-0.589654,2.085223,-0.853076,-1.477204,11.869814,-7.249255
0.342000,-1.446221,-0.277050,0.320120,0.986628,-0.006680,-0.018277,0.161821,-0.669040,-0.204312,0.048691,-0.665644,-0.493352,-0.118693,-0.017110,-0.749075,0.436504,0.074962,0.530052,0.319222,0.008860,-0.573962,-0.140990,-0.019899,0.779133,-0.447848,-0.323872,-13.058945,6.089531,0.570056,-1.991311,1.152426,-0.473702,1.998882,-0.762145,-1.444902,12.047112,-4.351829
0.344000,-1.447583,-0.277419,0.320189,0.986639,-0.006886,-0.018771,0.161691,-0.681327,-0.184436,0.034671,-0.285463,-0.452681,-0.129631,-0.018547,-0.775553,0.451252,0.075319,0.525967,0.321571,0.008744,-0.569994,-0.142247,-0.021098,0.803441,-0.459052,-0.718298,-13.239112,7.374212,0.178605,-2.042060,1.174429,-0.057781,1.984081,-0.628540,-0.599222,12.153797,-5.601975
0.346000,-1.448954,-0.277748,0.320256,0.986645,-0.006797,-0.019232,0.161600,-0.685473,-0.164687,0.033398,0.011410,-0.468581,-0.095839,-0.021317,-0.802299,0.458690,0.074976,0.521735,0.324237,0.009233,-0.566269,-0.143189,-0.021669,0.827951,-0.465185,-1.385261,-13.372765,3.718991,-0.171575,-2.116060,1.332851,0.244449,1.862442,-0.470982,-0.285868,12.254822,-3.066611
0.348000,-1.450337,-0.278087,0.320295,0.986654,-0.006795,-0.019692,0.161493,-0.691176,-0.169419,0.019616,-0.073748,-0.453644,-0.110669,-0.023599,-0.829059,0.468081,0.074829,0.517595,0.326653,0.009571,-0.562457,-0.144149,-0.021954,0.852624,-0.474546,-1.140928,-13.379904,4.695653,-0.073771,-2.070069,1.207923,0.168762,1.905862,-0.480329,-0.142338,12.336813,-4.680535
0.350000,-1.451709,-0.278461,0.320335,0.986654,-0.007161,-0.020239,0.161411,-0.686035,-0.186979,0.019707,-0.451516,-0.479645,-0.077314,-0.025225,-0.855683,0.470556,0.075399,0.513584,0.328858,0.009075,-0.558622,-0.145317,-0.023914,0.877008,-0.477856,-0.813028,-13.312019,1.237035,0.285006,-2.005339,1.102471,-0.248116,1.917672,-0.583944,-0.979846,12.191834,-1.654929
0.352000,-1.453094,-0.278862,0.320344,0.986655,-0.007723,-0.020783,0.161308,-0.692537,-0.200458,0.004561,-0.644685,-0.444965,-0.093833,-0.025796,-0.882246,0.477755,0.076407,0.509705,0.330639,0.008190,-0.554569,-0.146649,-0.026089,0.901131,-0.483744,-0.285672,-13.281595,3.599787,0.503979,-1.939977,0.890417,-0.442411,2.026699,-0.666178,-1.087525,12.061316,-2.944339
0.354000,-1.454492,-0.279257,0.320352,0.986650,-0.008247,-0.021309,0.161244,-0.699178,-0.197516,0.003819,-0.602780,-0.434561,-0.055845,-0.027048,-0.908245,0.479180,0.077248,0.505746,0.332431,0.007358,-0.550509,-0.147987,-0.028742,0.924438,-0.483815,-0.625710,-12.999492,0.712548,0.420566,-1.979225,0.896121,-0.415729,2.029904,-0.668705,-1.326623,11.653611,-0.035188
0.356000,-1.455923,-0.279631,0.320330,0.986649,-0.008537,-0.021755,0.161173,-0.715401,-0.187024,-0.011006,-0.359620,-0.393132,-0.067687,-0.028785,-0.933822,0.484285,0.077598,0.501700,0.334168,0.007069,-0.546375,-0.149175,-0.030133,0.947449,-0.487663,-0.868425,-12.788296,2.552444,0.175121,-2.022795,0.868506,-0.144624,2.066702,-0.594190,-0.695562,11.505780,-1.924169
0.358000,-1.457374,-0.279980,0.320308,0.986644,-0.008610,-0.022167,0.161146,-0.725491,-0.174291,-0.010675,-0.139281,-0.393775,-0.027587,-0.031904,-0.958394,0.482948,0.077401,0.497472,0.336148,0.007211,-0.542348,-0.150191,-0.031426,0.969590,-0.486459,-1.559889,-12.286107,-0.668388,-0.098595,-2.114175,0.989941,0.070801,2.013756,-0.507954,-0.646397,11.070258,0.601923
0.360000,-1.458840,-0.280339,0.320262,0.986640,-0.008746,-0.022590,0.161104,-0.733125,-0.179548,-0.023323,-0.203220,-0.395625,-0.040632,-0.034434,-0.982529,0.484990,0.077357,0.493281,0.338011,0.007238,-0.538296,-0.151150,-0.032455,0.991616,-0.488685,-1.264672,-12.067634,1.020982,-0.021989,-2.095537,0.931419,0.013859,2.025852,-0.479307,-0.514593,11.013279,-1.112838
0.362000,-1.460303,-0.280723,0.320213,0.986628,-0.009140,-0.023094,0.161084,-0.731440,-0.192169,-0.024426,-0.470789,-0.433406,-0.014117,-0.036462,-1.005873,0.482801,0.077812,0.489151,0.339824,0.006676,-0.534303,-0.152171,-0.034784,1.013033,-0.487117,-1.014074,-11.672062,-1.094450,0.227584,-2.064812,0.906654,-0.281022,1.996629,-0.510681,-1.164189,10.708523,0.784018
0.364000,-1.461773,-0.281125,0.320140,0.986616,-0.009667,-0.023633,0.161047,-0.735272,-0.200896,-0.036358,-0.607069,-0.447147,-0.027238,-0.037461,-1.029036,0.484492,0.078569,0.485105,0.341499,0.005847,-0.530310,-0.153156,-0.037131,1.034411,-0.488257,-0.499738,-11.581279,0.845397,0.378688,-2.023437,0.837479,-0.414766,1.996638,-0.492644,-1.173482,10.688596,-0.570115
0.366000,-1.463248,-0.281519,0.320055,0.986601,-0.010146,-0.024193,0.161029,-0.737501,-0.196712,-0.042523,-0.563367,-0.475216,-0.009646,-0.038683,-1.051804,0.484213,0.079182,0.481050,0.343263,0.005105,-0.526499,-0.153915,-0.039523,1.055550,-0.487838,-0.610707,-11.383940,-0.139793,0.306350,-2.027508,0.882082,-0.371099,1.905159,-0.379422,-1.196034,10.569744,0.209688
0.368000,-1.464741,-0.281890,0.319947,0.986587,-0.010420,-0.024720,0.161015,-0.746142,-0.185817,-0.053893,-0.355835,-0.476913,-0.009671,-0.040279,-1.074373,0.485857,0.079342,0.476946,0.345100,0.004817,-0.522809,-0.154392,-0.040986,1.076617,-0.489269,-0.798071,-11.284593,0.822421,0.079984,-2.051800,0.918657,-0.143834,1.845030,-0.238168,-0.731631,10.533673,-0.715499
0.370000,-1.466249,-0.282238,0.319848,0.986569,-0.010505,-0.025206,0.161047,-0.754019,-0.173953,-0.049350,-0.161235,-0.466434,0.031404,-0.043181,-1.095611,0.481433,0.078998,0.472676,0.347140,0.004905,-0.519149,-0.154822,-0.042527,1.096271,-0.484725,-1.450999,-10.619001,-2.212053,-0.171877,-2.135152,1.019631,0.044164,1.830268,-0.215378,-0.770535,9.826663,2.272045
0.372000,-1.467767,-0.282595,0.319739,0.986550,-0.010678,-0.025708,0.161072,-0.758862,-0.178506,-0.054893,-0.251298,-0.467600,0.027117,-0.045445,-1.116361,0.478537,0.078830,0.468443,0.349080,0.004823,-0.515419,-0.155324,-0.043960,1.115494,-0.481601,-1.132113,-10.375262,-1.448049,-0.084130,-2.116269,0.970323,-0.041348,1.864866,-0.251026,-0.716722,9.611796,1.561594
0.374000,-1.469293,-0.282972,0.319653,0.986522,-0.011085,-0.026234,0.161131,-0.763333,-0.188645,-0.042696,-0.485469,-0.454700,0.067434,-0.047849,-1.134900,0.468741,0.079049,0.464169,0.350944,0.004215,-0.511452,-0.156273,-0.046798,1.132499,-0.472610,-1.202024,-9.269367,-4.897887,0.109564,-2.137031,0.931955,-0.303954,1.983646,-0.474181,-1.418624,8.502256,4.495789
0.376000,-1.470834,-0.283366,0.319558,0.986497,-0.011632,-0.026774,0.161159,-0.770292,-0.196865,-0.047412,-0.625500,-0.445474,0.040073,-0.048862,-1.152984,0.463726,0.079566,0.460075,0.352499,0.003358,-0.507293,-0.157426,-0.048973,1.149214,-0.468228,-0.506370,-9.041954,-2.507950,0.258446,-2.046939,0.777358,-0.428280,2.079358,-0.576709,-1.087768,8.357460,2.190783
0.378000,-1.472403,-0.283747,0.319499,0.986466,-0.012072,-0.027236,0.161237,-0.784673,-0.190603,-0.029960,-0.506695,-0.387100,0.088171,-0.051294,-1.168008,0.451848,0.079713,0.455792,0.354108,0.002707,-0.502829,-0.158979,-0.051519,1.162784,-0.457144,-1.216028,-7.511794,-5.938919,0.073217,-2.141352,0.804404,-0.325683,2.231726,-0.776559,-1.273029,6.785187,5.542271
0.380000,-1.473994,-0.284120,0.319436,0.986440,-0.012398,-0.027665,0.161297,-0.795390,-0.186238,-0.031362,-0.389763,-0.372100,0.066708,-0.053003,-1.182348,0.444618,0.079604,0.451599,0.355598,0.002334,-0.498266,-0.160564,-0.052512,1.175850,-0.450186,-0.854441,-7.170202,-3.614612,-0.054041,-2.096573,0.745084,-0.186302,2.281692,-0.792240,-0.496115,6.533098,3.478947
0.382000,-1.475608,-0.284477,0.319418,0.986407,-0.012591,-0.028027,0.161424,-0.807277,-0.178558,-0.009134,-0.245748,-0.328664,0.132149,-0.056379,-1.192995,0.429074,0.079047,0.447181,0.357274,0.002183,-0.493548,-0.162424,-0.054186,1.185108,-0.434656,-1.688051,-5.323468,-7.772051,-0.278494,-2.208979,0.838057,-0.075677,2.359160,-0.929977,-0.837276,4.629000,7.764854
0.384000,-1.477223,-0.284852,0.319398,0.986373,-0.012944,-0.028468,0.161524,-0.807326,-0.187458,-0.009942,-0.417183,-0.379685,0.107768,-0.057604,-1.203272,0.418612,0.078838,0.443019,0.358807,0.001692,-0.488971,-0.164194,-0.054980,1.194391,-0.424436,-0.612619,-5.138578,-5.231012,-0.104512,-2.081359,0.766560,-0.245340,2.288239,-0.884901,-0.396924,4.641203,5.109982
0.386000,-1.478841,-0.285238,0.319424,0.986326,-0.013453,-0.028939,0.161687,-0.808882,-0.192986,0.013010,-0.574290,-0.386333,0.177401,-0.059274,-1.209913,0.400225,0.078790,0.438809,0.360415,0.000549,-0.484834,-0.165484,-0.057183,1.200215,-0.407488,-0.834947,-3.320538,-9.193519,-0.024011,-2.104654,0.803712,-0.571573,2.068730,-0.645159,-1.101778,2.912084,8.474208
0.388000,-1.480458,-0.285626,0.319445,0.986281,-0.013983,-0.029475,0.161821,-0.808813,-0.194282,0.010653,-0.605920,-0.445967,0.147408,-0.058904,-1.216576,0.387911,0.078785,0.434887,0.361942,-0.000597,-0.481074,-0.166369,-0.057837,1.206475,-0.396510,0.185303,-3.331519,-6.157175,-0.002828,-1.961219,0.763835,-0.573074,1.879673,-0.442705,-0.326552,3.129875,5.489058
0.390000,-1.482095,-0.285987,0.319512,0.986228,-0.014274,-0.029932,0.162031,-0.818262,-0.180414,0.033337,-0.355486,-0.407686,0.217581,-0.060441,-1.219457,0.367968,0.078074,0.430784,0.363694,-0.001438,-0.477480,-0.167038,-0.058894,1.208770,-0.377008,-0.768908,-1.440631,-9.971419,-0.355518,-2.051210,0.875987,-0.420422,1.797153,-0.334149,-0.528656,1.147632,9.750637
0.392000,-1.483736,-0.286340,0.319573,0.986181,-0.014485,-0.030418,0.162211,-0.820626,-0.176321,0.030844,-0.282387,-0.449058,0.185019,-0.060481,-1.222378,0.353603,0.077188,0.426942,0.365385,-0.001972,-0.473992,-0.167673,-0.058218,1.211389,-0.362524,-0.019563,-1.460083,-7.182785,-0.442899,-1.921385,0.845189,-0.266934,1.744096,-0.317672,0.337925,1.309539,7.242107
0.394000,-1.485387,-0.286676,0.319689,0.986126,-0.014566,-0.030901,0.162444,-0.825503,-0.168195,0.057606,-0.152036,-0.468147,0.234184,-0.061938,-1.221644,0.331704,0.075642,0.422535,0.374646,-0.002273,-0.470445,-0.168646,-0.058324,1.210439,-0.340950,-0.728726,0.366804,-10.949304,-0.772959,-2.203552,4.630890,-0.150502,1.773641,-0.486710,-0.052788,-0.475013,10.787116
0.396000,-1.487016,-0.287045,0.319777,0.986071,-0.015094,-0.031490,0.162618,-0.814505,-0.184328,0.044337,-0.611552,-0.499876,0.188233,-0.060524,-1.221245,0.315536,0.074506,0.420458,0.378539,-0.003414,-0.466772,-0.170008,-0.058146,1.210310,-0.325848,0.706954,0.199427,-8.083986,-0.568032,-1.038211,1.946242,-0.570470,1.836162,-0.681068,0.088648,-0.064416,7.551158
0.398000,-1.488642,-0.287421,0.319877,0.986005,-0.015850,-0.032054,0.162834,-0.812828,-0.187857,0.049861,-0.831270,-0.438280,0.238839,-0.059960,-1.217514,0.292913,0.073134,0.420245,0.376677,-0.005096,-0.462926,-0.171760,-0.059600,1.206815,-0.304711,0.282190,1.865505,-11.311294,-0.686007,-0.106746,-0.931056,-0.841028,1.923234,-0.875849,-0.726623,-1.747555,10.568067
0.400000,-1.490274,-0.287788,0.319947,0.985944,-0.016517,-0.032609,0.163027,-0.816069,-0.183716,0.035093,-0.742370,-0.443135,0.212503,-0.058532,-1.214198,0.275794,0.071801,0.420233,0.374217,-0.006441,-0.459275,-0.173265,-0.059487,1.203815,-0.288475,0.713681,1.658132,-8.559901,-0.666508,-0.005759,-1.229620,-0.672623,1.825699,-0.752620,0.056447,-1.499846,8.118040
0.402000,-1.491938,-0.288124,0.320049,0.985880,-0.016850,-0.033025,0.163298,-0.831948,-0.167947,0.050856,-0.389193,-0.363083,0.281478,-0.059533,-1.207922,0.253249,0.069990,0.418636,0.373428,-0.007131,-0.455645,-0.182545,-0.059356,1.197288,-0.265466,-0.500124,3.137914,-11.272307,-0.905654,-0.798637,-0.394725,-0.344891,1.814539,-4.639634,0.065513,-3.263458,11.504667
0.404000,-1.493600,-0.288436,0.320120,0.985813,-0.016824,-0.033525,0.163604,-0.830767,-0.155805,0.035602,-0.046888,-0.504555,0.303172,-0.060102,-1.202540,0.235366,0.067756,0.415881,0.374642,-0.007450,-0.454686,-0.186319,-0.057558,1.191757,-0.247629,-0.284546,2.691206,-8.941435,-1.116992,-1.377628,0.607074,-0.159359,0.479582,-1.887293,0.898705,-2.765675,8.918581
0.406000,-1.495253,-0.288756,0.320199,0.985727,-0.016790,-0.034127,0.163999,-0.826881,-0.160303,0.039610,-0.052884,-0.608565,0.392448,-0.061193,-1.195218,0.212893,0.065659,0.412118,0.377433,-0.008621,-0.456172,-0.185151,-0.057119,1.184130,-0.226100,-0.545619,3.660564,-11.236430,-1.048458,-1.881388,1.395647,-0.585599,-0.742703,0.584001,0.219580,-3.813620,10.764482
0.408000,-1.496894,-0.289120,0.320252,0.985636,-0.017079,-0.034898,0.164355,-0.820184,-0.181830,0.026435,-0.400291,-0.721097,0.362632,-0.059939,-1.188763,0.194761,0.064547,0.407914,0.381055,-0.010527,-0.458135,-0.182333,-0.056960,1.177649,-0.209275,0.626779,3.227933,-9.066003,-0.555892,-2.101919,1.810647,-0.953325,-0.981724,1.409048,0.079609,-3.240334,8.412427
0.410000,-1.498552,-0.289514,0.320314,0.985544,-0.017575,-0.035668,0.164689,-0.829320,-0.197237,0.030869,-0.606004,-0.686575,0.349122,-0.058927,-1.180318,0.173303,0.064420,0.402557,0.392290,-0.012579,-0.458590,-0.180791,-0.058027,1.169083,-0.188327,0.505963,4.222064,-10.729351,-0.063500,-2.678754,5.617573,-1.025770,-0.227231,0.771180,-0.533714,-4.283081,10.473930
0.412000,-1.500220,-0.289923,0.320330,0.985465,-0.018327,-0.036344,0.164932,-0.833808,-0.204225,0.007990,-0.845310,-0.549946,0.267587,-0.057196,-1.172100,0.155248,0.064605,0.399674,0.394670,-0.014754,-0.457427,-0.180579,-0.058426,1.160957,-0.170108,0.865858,4.109372,-9.027377,0.092758,-1.441403,1.189825,-1.087700,0.581265,0.106106,-0.199421,-4.062996,9.109396
0.414000,-1.501924,-0.290300,0.320324,0.985402,-0.018891,-0.036794,0.165146,-0.852233,-0.188472,-0.002936,-0.623256,-0.356382,0.233051,-0.057435,-1.162278,0.135423,0.063969,0.398645,0.390039,-0.016177,-0.454744,-0.181565,-0.057905,1.151137,-0.149564,-0.119656,4.910743,-9.912244,-0.318415,-0.514347,-2.315343,-0.711224,1.341376,-0.493087,0.260644,-4.909784,10.272316
0.416000,-1.503657,-0.290652,0.320295,0.985354,-0.019227,-0.037154,0.165312,-0.866380,-0.175958,-0.014592,-0.385405,-0.303746,0.177120,-0.058176,-1.152790,0.117929,0.062982,0.397261,0.386175,-0.016854,-0.451233,-0.183045,-0.055644,1.142003,-0.132455,-0.370398,4.744281,-8.746940,-0.493317,-0.691856,-1.931819,-0.338355,1.755652,-0.740171,1.130546,-4.567029,8.554472
0.418000,-1.505417,-0.290995,0.320278,0.985310,-0.019338,-0.037523,0.165475,-0.879801,-0.171668,-0.008221,-0.165341,-0.350264,0.164588,-0.059552,-1.142726,0.099800,0.062189,0.392980,0.398769,-0.016954,-0.447350,-0.184698,-0.053154,1.132143,-0.114988,-0.688108,5.031850,-9.064690,-0.396523,-2.140500,6.296796,-0.050431,1.941364,-0.826293,1.244730,-4.930123,8.733463
0.420000,-1.507145,-0.291383,0.320216,0.985257,-0.020003,-0.038020,0.165596,-0.864361,-0.193918,-0.030954,-0.733101,-0.384306,0.143725,-0.058918,-1.133410,0.083185,0.062390,0.390298,0.406741,-0.018106,-0.443186,-0.186633,-0.052338,1.122878,-0.099035,0.316994,4.657822,-8.307334,0.100323,-1.341345,3.986024,-0.575654,2.081922,-0.967742,0.408136,-4.632816,7.976580
0.422000,-1.508847,-0.291798,0.320092,0.985194,-0.021120,-0.038577,0.165706,-0.850764,-0.207757,-0.062228,-1.190417,-0.367721,0.149985,-0.057222,-1.124302,0.067620,0.062923,0.390614,0.403111,-0.020111,-0.438801,-0.188720,-0.053321,1.113379,-0.083420,0.848197,4.554046,-7.782877,0.266843,0.158436,-1.814729,-1.002574,2.192897,-1.043540,-0.491507,-4.749103,7.807336
0.424000,-1.510542,-0.292176,0.319920,0.985130,-0.021957,-0.039138,0.165849,-0.847614,-0.189036,-0.085766,-0.912859,-0.420174,0.171603,-0.056361,-1.115661,0.052193,0.062765,0.391198,0.398858,-0.021404,-0.435082,-0.189756,-0.053942,1.104141,-0.067942,0.430438,4.320862,-7.713477,-0.079296,0.291773,-2.126834,-0.646760,1.859210,-0.518014,-0.310372,-4.618979,7.739154
0.426000,-1.512264,-0.292492,0.319712,0.985072,-0.022125,-0.039651,0.166044,-0.861069,-0.157941,-0.104160,-0.244341,-0.483917,0.197617,-0.057266,-1.107574,0.039372,0.061377,0.390339,0.396648,-0.021186,-0.432179,-0.189433,-0.052955,1.095217,-0.054847,-0.452755,4.043020,-6.410201,-0.693660,-0.429377,-1.104904,0.109041,1.451394,0.161460,0.493367,-4.462341,6.547337
0.428000,-1.513994,-0.292779,0.319496,0.985012,-0.021960,-0.040240,0.166283,-0.864701,-0.143571,-0.107840,0.072750,-0.614840,0.225560,-0.058994,-1.099539,0.025526,0.059452,0.388247,0.396514,-0.020281,-0.429908,-0.188269,-0.051644,1.086555,-0.041651,-0.863740,4.017734,-6.923013,-0.962890,-1.046237,-0.067215,0.452509,1.135720,0.582321,0.655402,-4.330765,6.598193
0.430000,-1.515724,-0.293093,0.319273,0.984944,-0.021915,-0.040984,0.166508,-0.865272,-0.156770,-0.111883,-0.071922,-0.748336,0.214950,-0.059524,-1.092410,0.016011,0.058001,0.385261,0.397943,-0.019707,-0.427731,-0.187034,-0.050863,1.078852,-0.032207,-0.265082,3.564321,-4.757591,-0.725419,-1.493118,0.714938,0.287033,1.088356,0.617241,0.390653,-3.851666,4.721662
0.432000,-1.517439,-0.293453,0.319062,0.984859,-0.022272,-0.041925,0.166731,-0.857406,-0.180042,-0.105098,-0.501399,-0.875652,0.228127,-0.058861,-1.084909,0.004404,0.057533,0.381632,0.400571,-0.020072,-0.425551,-0.186073,-0.052062,1.070964,-0.020580,0.331692,3.750440,-5.803541,-0.233833,-1.814405,1.313834,-0.182215,1.090070,0.480474,-0.599429,-3.944060,5.813846
0.434000,-1.519145,-0.293856,0.318835,0.984768,-0.023001,-0.043011,0.166891,-0.852768,-0.201312,-0.113969,-0.893570,-0.955206,0.179099,-0.056535,-1.078368,-0.001981,0.058051,0.377675,0.403810,-0.021210,-0.423208,-0.185412,-0.053915,1.065492,-0.013701,1.162618,3.270813,-3.192381,0.259000,-1.978382,1.619704,-0.569142,1.171693,0.330745,-0.926611,-2.735874,3.439157
0.436000,-1.520860,-0.294240,0.318601,0.984678,-0.023635,-0.044089,0.167052,-0.857492,-0.192036,-0.116584,-0.799984,-0.963962,0.176066,-0.055341,-1.071014,-0.011372,0.058400,0.373333,0.407587,-0.022117,-0.420691,-0.184946,-0.055458,1.061487,-0.009940,0.597362,3.677032,-4.695561,0.174221,-2.170781,1.888109,-0.453607,1.258167,0.232707,-0.771374,-2.002722,1.880794
0.438000,-1.522604,-0.294576,0.318329,0.984608,-0.023743,-0.044974,0.167217,-0.872128,-0.168030,-0.136304,-0.248167,-0.859832,0.157199,-0.055487,-1.065185,-0.013287,0.057665,0.368821,0.411238,-0.021850,-0.417854,-0.184484,-0.055719,1.058164,-0.008279,-0.073221,2.914526,-0.957469,-0.367054,-2.256327,1.825534,0.133843,1.418525,0.231157,-0.130814,-1.661144,0.830213
0.440000,-1.524366,-0.294863,0.318056,0.984547,-0.023462,-0.045668,0.167425,-0.881218,-0.143438,-0.136213,0.168685,-0.738346,0.186596,-0.057964,-1.058475,-0.019414,0.055887,0.364815,0.413757,-0.020724,-0.414624,-0.184335,-0.055097,1.055015,-0.007865,-1.238383,3.354998,-3.063425,-0.889125,-2.003117,1.259610,0.562560,1.615084,0.074671,0.311327,-1.574630,0.206941
0.442000,-1.526130,-0.295150,0.317761,0.984497,-0.023088,-0.046197,0.167628,-0.882009,-0.143490,-0.147423,0.287661,-0.590719,0.178773,-0.060145,-1.053682,-0.018272,0.053851,0.361649,0.414522,-0.019387,-0.410862,-0.184640,-0.054209,1.052069,-0.008637,-1.090630,2.396501,0.570815,-1.018330,-1.582861,0.382315,0.668888,1.881283,-0.152834,0.443944,-1.473076,-0.385781
0.444000,-1.527876,-0.295466,0.317496,0.984437,-0.022998,-0.046679,0.167854,-0.872866,-0.158300,-0.132733,0.016203,-0.497003,0.216905,-0.062162,-1.048151,-0.022618,0.052563,0.358740,0.418379,-0.018703,-0.406606,-0.185745,-0.054006,1.049245,-0.010242,-1.008296,2.765312,-2.172895,-0.643568,-1.454270,1.928494,0.341810,2.127744,-0.552088,0.101360,-1.411999,-0.802541
0.446000,-1.529586,-0.295854,0.317215,0.984371,-0.023466,-0.047132,0.168051,-0.855187,-0.193962,-0.140618,-0.528972,-0.375554,0.215971,-0.061568,-1.044811,-0.019776,0.052682,0.357018,0.419078,-0.019244,-0.401799,-0.187614,-0.055017,1.046750,-0.012923,0.297022,1.670260,1.420902,0.059374,-0.860993,0.349527,-0.270270,2.403333,-0.934767,-0.505317,-1.247426,-1.340319
0.448000,-1.531278,-0.296254,0.316954,0.984295,-0.024032,-0.047514,0.168309,-0.845957,-0.199747,-0.130315,-0.610632,-0.289855,0.284531,-0.061224,-1.040957,-0.021884,0.052805,0.355752,0.418149,-0.020088,-0.396854,-0.189778,-0.056381,1.044092,-0.015879,0.171663,1.926769,-1.053756,0.061543,-0.633386,-0.464458,-0.422026,2.472891,-1.082139,-0.682104,-1.328868,-1.478330
0.450000,-1.532970,-0.296634,0.316675,0.984225,-0.024195,-0.047748,0.168630,-0.845631,-0.190421,-0.139470,-0.185833,-0.214052,0.330625,-0.060962,-1.039430,-0.016139,0.052034,0.353879,0.417390,-0.020148,-0.392274,-0.191259,-0.057004,1.041221,-0.018979,0.130888,0.763616,2.872375,-0.385548,-0.936335,-0.379228,-0.030406,2.289951,-0.740208,-0.311514,-1.435414,-1.549544
0.452000,-1.534661,-0.296980,0.316420,0.984148,-0.023961,-0.047890,0.169071,-0.845556,-0.173011,-0.127845,0.225416,-0.194008,0.431620,-0.062468,-1.037087,-0.016038,0.050281,0.350973,0.417741,-0.019634,-0.388622,-0.191410,-0.057001,1.038015,-0.021901,-0.752904,1.171501,0.050522,-0.876357,-1.453055,0.175308,0.257038,1.826012,-0.075803,0.001721,-1.603242,-1.461332
0.454000,-1.536342,-0.297324,0.316157,0.984070,-0.023507,-0.048000,0.169555,-0.840635,-0.171699,-0.131433,0.449532,-0.200641,0.465261,-0.063623,-1.036396,-0.009929,0.048096,0.347318,0.418956,-0.018716,-0.385641,-0.190663,-0.056649,1.034922,-0.025119,-0.577237,0.345243,3.054514,-1.092543,-1.827186,0.607430,0.458968,1.490296,0.373652,0.175911,-1.546466,-1.608978
0.456000,-1.537999,-0.297697,0.315923,0.983976,-0.023316,-0.048192,0.170074,-0.828650,-0.186541,-0.116913,0.178015,-0.237263,0.513581,-0.064436,-1.034694,-0.008756,0.046426,0.343179,0.420755,-0.018553,-0.382887,-0.189914,-0.057000,1.032063,-0.028700,-0.406481,0.851002,0.586564,-0.834966,-2.069576,0.899616,0.081884,1.377032,0.374393,-0.175408,-1.429547,-1.790319
0.458000,-1.539626,-0.298129,0.315689,0.983871,-0.023595,-0.048492,0.170557,-0.813112,-0.216221,-0.116676,-0.305097,-0.264434,0.499443,-0.063152,-1.033873,-0.002896,0.045849,0.338963,0.422530,-0.019425,-0.379914,-0.189785,-0.058373,1.029731,-0.033010,0.641874,0.410659,2.929950,-0.288753,-2.108007,0.887321,-0.435959,1.486517,0.064483,-0.686790,-1.165916,-2.154870
0.460000,-1.541234,-0.298581,0.315470,0.983757,-0.024090,-0.048843,0.171045,-0.804198,-0.225930,-0.109515,-0.525572,-0.277881,0.514645,-0.061804,-1.032010,-0.000353,0.045717,0.334681,0.424323,-0.020758,-0.376746,-0.190220,-0.060232,1.027577,-0.037588,0.673870,0.931499,1.271583,-0.066141,-2.141174,0.896840,-0.666922,1.584166,-0.217284,-0.929293,-1.076808,-2.289379
0.462000,-1.542841,-0.299016,0.315242,0.983649,-0.024384,-0.049137,0.171537,-0.803703,-0.217383,-0.114142,-0.318533,-0.255886,0.510555,-0.061006,-1.030312,0.004967,0.045150,0.330460,0.425930,-0.021621,-0.373405,-0.190899,-0.061619,1.025366,-0.042164,0.399224,0.849128,2.659561,-0.283419,-2.110240,0.803387,-0.431199,1.670576,-0.339381,-0.693603,-1.105872,-2.288002
0.464000,-1.544448,-0.299417,0.315029,0.983548,-0.024476,-0.049338,0.172048,-0.803112,-0.200368,-0.106640,-0.102677,-0.199963,0.519441,-0.061554,-1.027598,0.007742,0.044018,0.326539,0.426957,-0.021608,-0.369654,-0.205359,-0.062499,1.022815,-0.046378,-0.274323,1.356796,1.387906,-0.566017,-1.960870,0.513239,0.006500,1.875332,-7.230118,-0.439919,-1.275207,-2.106999
0.466000,-1.546031,-0.299748,0.314792,0.983445,-0.023882,-0.049487,0.172677,-0.791657,-0.165875,-0.118442,0.587290,-0.269015,0.603050,-0.064124,-1.024757,0.009714,0.041250,0.322866,0.428002,-0.020871,-0.369623,-0.211212,-0.062119,1.020232,-0.050358,-1.284557,1.420683,0.985980,-1.383637,-1.836248,0.522472,0.368585,0.015653,-2.926323,0.190033,-1.291553,-1.989944
0.468000,-1.547567,-0.300066,0.314548,0.983329,-0.023029,-0.049684,0.173391,-0.768321,-0.158573,-0.122029,0.837636,-0.363351,0.675228,-0.066991,-1.022075,0.011336,0.038357,0.318879,0.438742,-0.020778,-0.373566,-0.207319,-0.061447,1.017842,-0.054322,-1.433676,1.340883,0.810950,-1.446695,-1.993679,5.370486,0.046360,-1.971530,1.946329,0.335695,-1.194943,-1.981831
0.470000,-1.549104,-0.300401,0.314354,0.983195,-0.022658,-0.049775,0.174173,-0.768188,-0.167779,-0.096790,0.384934,-0.179130,0.771506,-0.072677,-1.011497,-0.013878,0.036263,0.317945,0.437598,-0.022838,-0.378318,-0.199759,-0.061811,1.014346,-0.057372,-2.842914,5.289226,-12.607047,-1.046891,-0.466863,-0.572418,-1.030026,-2.376015,3.780149,-0.181841,-1.747913,-1.525183
0.472000,-1.550671,-0.300803,0.314243,0.983052,-0.023107,-0.049816,0.174907,-0.783366,-0.201106,-0.055908,-0.415520,0.014175,0.768116,-0.079406,-0.992896,-0.065806,0.036327,0.318302,0.431797,-0.026164,-0.380290,-0.195291,-0.063743,1.009860,-0.059711,-3.364495,9.300486,-25.964162,0.032023,0.178284,-2.900388,-1.663090,-0.985925,2.233839,-0.966160,-2.243313,-1.169509
0.474000,-1.552348,-0.301284,0.314165,0.982962,-0.023511,-0.049375,0.175488,-0.838613,-0.240168,-0.038918,-0.292937,0.486440,0.617231,-0.083463,-0.975470,-0.095852,0.037017,0.317703,0.425295,-0.028726,-0.378253,-0.194857,-0.065169,1.003034,-0.060138,-2.028678,8.713026,-15.023012,0.344731,-0.299183,-3.250732,-1.281060,1.018509,0.217181,-0.713058,-3.413070,-0.213330
0.476000,-1.554153,-0.301821,0.314140,0.982924,-0.023478,-0.048443,0.175963,-0.902464,-0.268720,-0.012319,0.218544,0.897210,0.493685,-0.085553,-0.959751,-0.103268,0.038789,0.312250,0.439285,-0.029875,-0.372848,-0.197683,-0.065374,0.993781,-0.058413,-1.044837,7.859371,-3.707861,0.886300,-2.726815,6.994996,-0.574463,2.702368,-1.413036,-0.102389,-4.626454,0.862543
0.478000,-1.556051,-0.302376,0.314109,0.982937,-0.022952,-0.046952,0.176361,-0.949111,-0.277338,-0.015628,0.799330,1.364834,0.398998,-0.086424,-0.945980,-0.087705,0.039856,0.307382,0.447225,-0.029531,-0.364638,-0.203006,-0.064215,0.982197,-0.054658,-0.435641,6.885301,7.781686,0.533386,-2.434009,3.969984,0.172284,4.104971,-2.661543,0.579797,-5.792101,1.877458
0.480000,-1.557977,-0.302926,0.314088,0.982962,-0.022284,-0.045157,0.176776,-0.963246,-0.274953,-0.010618,0.992513,1.638141,0.413249,-0.087506,-0.929995,-0.072428,0.040096,0.305582,0.441815,-0.028931,-0.356395,-0.207456,-0.062658,0.969189,-0.049594,-0.540764,7.992600,7.638186,0.120132,-0.899570,-2.705058,0.299967,4.121433,-2.225007,0.778391,-6.503699,2.532054
0.482000,-1.559893,-0.303455,0.314151,0.982955,-0.021647,-0.043400,0.177336,-0.957876,-0.264746,0.031478,0.962283,1.600990,0.561719,-0.090071,-0.908121,-0.083221,0.039697,0.304354,0.434714,-0.029180,-0.351162,-0.207152,-0.061421,0.955691,-0.043814,-1.282478,10.937206,-5.396502,-0.199624,-0.614180,-3.550666,-0.124723,2.616349,0.151725,0.618319,-6.748905,2.889994
0.484000,-1.561796,-0.303968,0.314301,0.982915,-0.020858,-0.041710,0.178054,-0.951236,-0.256403,0.075005,1.105849,1.504123,0.715098,-0.092970,-0.883557,-0.113363,0.038325,0.301584,0.429609,-0.029757,-0.348996,-0.202475,-0.060213,0.941842,-0.037340,-1.449558,12.281579,-15.070875,-0.686038,-1.385276,-2.552369,-0.288381,1.083246,2.338594,0.604039,-6.924927,3.236710
0.486000,-1.563694,-0.304484,0.314474,0.982883,-0.019466,-0.039871,0.178811,-0.949019,-0.257918,0.086867,1.726088,1.542808,0.730502,-0.093156,-0.864925,-0.126118,0.035418,0.297123,0.426562,-0.028842,-0.347611,-0.196763,-0.057926,0.927340,-0.029865,-0.092943,9.316277,-6.377554,-1.453529,-2.230119,-1.523468,0.457430,0.692480,2.856110,1.143691,-7.251010,3.737867
0.488000,-1.565569,-0.305053,0.314684,0.982860,-0.017978,-0.037922,0.179515,-0.937629,-0.284640,0.104794,1.838592,1.635277,0.675235,-0.089095,-0.853324,-0.115959,0.032254,0.291427,0.424829,-0.027155,-0.345063,-0.205310,-0.055492,0.912336,-0.021596,2.030117,5.800357,5.079520,-1.582181,-2.847957,-0.866497,0.843298,1.274166,-4.273523,1.216828,-7.501890,4.134229
0.490000,-1.567370,-0.305665,0.314934,0.982810,-0.016808,-0.036292,0.180236,-0.900294,-0.305946,0.125267,1.469041,1.377413,0.701848,-0.082903,-0.842667,-0.112800,0.029585,0.285025,0.424957,-0.026398,-0.344600,-0.208998,-0.053996,0.898511,-0.014119,3.096124,5.328703,1.579743,-1.334573,-3.200997,0.063771,0.378739,0.231256,-1.844030,0.748268,-6.912352,3.738810
0.492000,-1.569091,-0.306294,0.315224,0.982728,-0.016023,-0.035080,0.180990,-0.860509,-0.314642,0.145015,1.016566,1.033856,0.747954,-0.076597,-0.829700,-0.130772,0.027507,0.278244,0.426847,-0.026841,-0.346862,-0.207443,-0.053546,0.886311,-0.007881,3.153199,6.483328,-8.986299,-1.038683,-3.390628,0.945031,-0.221409,-1.130780,0.777499,0.224637,-6.100107,3.118584
0.494000,-1.570769,-0.306910,0.315486,0.982648,-0.015096,-0.033986,0.181713,-0.839439,-0.307721,0.130786,1.132481,0.892805,0.709557,-0.070934,-0.817440,-0.151675,0.025394,0.271688,0.428910,-0.026663,-0.349699,-0.203853,-0.052801,0.875023,-0.002304,2.831389,6.130003,-10.451523,-1.056742,-3.278230,1.031551,0.089057,-1.418734,1.795225,0.372862,-5.644067,2.788544
0.496000,-1.572445,-0.307502,0.315679,0.982598,-0.013702,-0.032690,0.182333,-0.837913,-0.296075,0.096335,1.625706,1.008760,0.591166,-0.065876,-0.809084,-0.155593,0.022973,0.265752,0.429580,-0.024584,-0.350573,-0.210638,-0.050835,0.863649,0.003466,2.528815,4.177931,-1.958698,-1.210305,-2.968069,0.334821,1.039312,-0.437061,-3.392926,0.982979,-5.686921,2.885363
0.498000,-1.574114,-0.308057,0.315793,0.982564,-0.011779,-0.031279,0.182897,-0.834363,-0.277330,0.057368,2.165024,1.027376,0.516440,-0.062687,-0.802582,-0.150595,0.020069,0.260494,0.429170,-0.021102,-0.351171,-0.214607,-0.047638,0.852520,0.009126,1.594771,3.251241,2.498784,-1.452278,-2.628537,-0.204655,1.740947,-0.298735,-1.984371,1.598367,-5.564396,2.830022
0.500000,-1.575745,-0.308634,0.315881,0.982523,-0.010191,-0.030052,0.183415,-0.815515,-0.288852,0.043882,1.800214,0.908091,0.481572,-0.060879,-0.793391,-0.156817,0.018388,0.256086,0.427896,-0.018810,-0.352312,-0.215318,-0.045277,0.842462,0.013754,0.904066,4.595137,-3.110773,-0.840031,-2.204438,-0.637079,1.145861,-0.570699,-0.355328,1.180367,-5.028972,2.313844
0.502000,-1.577332,-0.309282,0.315957,0.982478,-0.009265,-0.029072,0.183862,-0.793709,-0.323683,0.037830,1.102075,0.786563,0.429188,-0.059422,-0.781320,-0.174416,0.019895,0.250965,0.441524,-0.018530,-0.353342,-0.214206,-0.044539,0.833581,0.017159,0.728327,6.035533,-8.799833,0.753463,-2.560196,6.813748,0.140403,-0.515116,0.555803,0.369005,-4.440401,1.702224
0.504000,-1.578886,-0.309969,0.315947,0.982450,-0.008708,-0.027997,0.184208,-0.776820,-0.343550,-0.004877,0.755217,0.949951,0.338946,-0.057940,-0.770102,-0.184852,0.022924,0.249398,0.445941,-0.019188,-0.352878,-0.213179,-0.044329,0.824671,0.020404,0.741195,5.609197,-5.217722,1.514081,-0.783465,2.208929,-0.329399,0.232345,0.513495,0.104879,-4.454906,1.622804
0.506000,-1.580427,-0.310644,0.315843,0.982443,-0.008027,-0.026686,0.184469,-0.770387,-0.337743,-0.051966,0.917984,1.160020,0.250036,-0.057290,-0.760836,-0.183535,0.025924,0.252012,0.438313,-0.019261,-0.350440,-0.213311,-0.043574,0.815339,0.023986,0.324963,4.632854,0.658415,1.500334,1.306918,-3.814345,-0.036299,1.218706,-0.065924,0.377561,-4.666281,1.790798
0.508000,-1.581989,-0.311276,0.315712,0.982441,-0.006919,-0.025257,0.184726,-0.781248,-0.315662,-0.065800,1.359108,1.197561,0.235107,-0.058889,-0.750927,-0.184047,0.027893,0.255044,0.428722,-0.018137,-0.346721,-0.214225,-0.041797,0.805695,0.028011,-0.799745,4.954663,-0.256228,0.984538,1.515972,-4.795526,0.561822,1.859632,-0.456728,0.888410,-4.822211,2.012836
0.510000,-1.583587,-0.311858,0.315614,0.982428,-0.005289,-0.023882,0.185034,-0.798701,-0.291350,-0.048897,1.862727,1.046693,0.272796,-0.062859,-0.739014,-0.194762,0.027879,0.255633,0.422724,-0.015777,-0.342787,-0.214957,-0.038976,0.796086,0.032325,-1.985038,5.956394,-5.357215,-0.007011,0.294255,-2.999102,1.180189,1.966922,-0.366477,1.410764,-4.804251,2.156920
0.512000,-1.585180,-0.312473,0.315548,0.982403,-0.003630,-0.022667,0.185358,-0.796545,-0.307355,-0.032702,1.862722,0.884240,0.290459,-0.066439,-0.727184,-0.207057,0.029043,0.251354,0.444857,-0.013687,-0.339150,-0.214844,-0.036266,0.786798,0.036549,-1.790142,5.914864,-6.147474,0.582027,-2.139434,11.066725,1.044747,1.818347,0.056494,1.354726,-4.644153,2.112009
0.514000,-1.586696,-0.313184,0.315432,0.982375,-0.002897,-0.021592,0.185648,-0.757881,-0.355535,-0.058186,0.925282,0.919231,0.276509,-0.066604,-0.717609,-0.211216,0.032104,0.249326,0.458028,-0.014072,-0.335628,-0.214033,-0.035725,0.778157,0.039873,-0.082368,4.787560,-2.079532,1.530348,-1.013795,6.585384,-0.192052,1.761156,0.405625,0.270683,-4.320364,1.661976
0.516000,-1.588129,-0.313953,0.315245,0.982347,-0.003002,-0.020574,0.185911,-0.716787,-0.384316,-0.093347,0.091400,1.018050,0.269487,-0.064244,-0.709551,-0.210887,0.035957,0.253021,0.447232,-0.016520,-0.332080,-0.212859,-0.036944,0.769912,0.042546,1.180060,4.029396,0.164440,1.926305,1.847264,-5.397637,-1.224121,1.774084,0.586981,-0.609520,-4.122347,1.336199
0.518000,-1.589695,-0.314703,0.315182,0.982324,-0.002621,-0.019357,0.186165,-0.782727,-0.375020,-0.031881,0.605541,1.123281,0.249152,-0.063501,-0.699302,-0.221732,0.037995,0.253447,0.440069,-0.017362,-0.325620,-0.215479,-0.036899,0.760160,0.047042,0.371628,5.124520,-5.422494,1.019285,0.213001,-3.581527,-0.421026,3.230079,-1.309934,0.022502,-4.876055,2.247906
0.520000,-1.591410,-0.315392,0.315227,0.982318,-0.001227,-0.017877,0.186358,-0.857902,-0.344758,0.022881,1.648968,1.194270,0.167908,-0.064920,-0.688618,-0.235232,0.037437,0.250716,0.436967,-0.013984,-0.311882,-0.245766,-0.034423,0.748990,0.053429,-0.709765,5.341752,-6.749918,-0.279064,-1.365142,-1.551080,1.688898,6.868853,-15.143598,1.237863,-5.585007,3.193638
0.522000,-1.593162,-0.315963,0.315255,0.982279,0.001915,-0.016315,0.186701,-0.876008,-0.285595,0.014042,3.383495,0.947185,0.289944,-0.069469,-0.681473,-0.239454,0.032741,0.245594,0.438162,-0.007998,-0.302994,-0.252588,-0.028628,0.737840,0.060479,-2.274197,3.572508,-2.111052,-2.348160,-2.561016,0.597334,2.993048,4.443974,-3.410857,2.897865,-5.574838,3.525305
0.524000,-1.594858,-0.316580,0.315273,0.982205,0.005137,-0.015104,0.187131,-0.847977,-0.308256,0.009004,3.398601,0.587643,0.381272,-0.073563,-0.676865,-0.238872,0.027636,0.239150,0.442285,-0.003949,-0.300086,-0.233879,-0.023613,0.728464,0.065960,-2.047379,2.304162,0.291082,-2.552238,-3.222341,2.061350,2.024364,1.454161,9.354325,2.507073,-4.688262,2.740542
0.526000,-1.596420,-0.317461,0.315268,0.982146,0.005827,-0.014527,0.187466,-0.780577,-0.440316,-0.002742,0.790939,0.438150,0.327028,-0.072447,-0.671733,-0.239437,0.028490,0.233146,0.443517,-0.006834,-0.298193,-0.214634,-0.024998,0.721870,0.067861,0.558319,2.565999,-0.282946,0.426665,-3.001608,0.616090,-1.442574,0.946559,9.622667,-0.692407,-3.296952,0.950059
0.528000,-1.597927,-0.318561,0.315306,0.982129,0.004282,-0.014345,0.187614,-0.753535,-0.550410,0.019175,-1.480717,0.469632,0.169634,-0.066824,-0.665480,-0.241252,0.034684,0.227504,0.442183,-0.013898,-0.291435,-0.221787,-0.031127,0.716338,0.068155,2.811289,3.126493,-0.907353,3.097364,-2.821103,-0.666748,-3.531947,3.378642,-3.576481,-3.064449,-2.765843,0.147231
0.530000,-1.599351,-0.319606,0.315296,0.982105,0.002624,-0.014263,0.187777,-0.712132,-0.522430,-0.005162,-1.611153,0.392151,0.188303,-0.061478,-0.659755,-0.242714,0.039598,0.228977,0.413116,-0.021087,-0.287816,-0.223926,-0.037139,0.711318,0.068221,2.673304,2.862510,-0.730795,2.456973,0.736537,-14.533555,-3.594245,1.809509,-1.069576,-3.005940,-2.510336,0.032882
0.532000,-1.600845,-0.320363,0.315359,0.982043,0.003780,-0.013957,0.188100,-0.746872,-0.378585,0.031576,1.197212,0.082820,0.311208,-0.062544,-0.655206,-0.243345,0.037763,0.226728,0.407790,-0.021234,-0.288509,-0.215598,-0.037139,0.704156,0.086909,-0.532948,2.274308,-0.315717,-0.917465,-1.124900,-2.663029,-0.073578,-0.346179,4.164329,-0.000141,-3.580859,9.344205
0.534000,-1.602268,-0.320872,0.315353,0.981956,0.006524,-0.013811,0.188490,-0.711544,-0.254115,-0.003074,2.727908,-0.372237,0.360428,-0.067293,-0.651997,-0.243736,0.030567,0.230599,0.387737,-0.017575,-0.297177,-0.181559,-0.033154,0.700238,0.099344,-2.374608,1.604603,-0.195236,-3.598409,1.935952,-10.026731,1.829420,-4.334404,17.019472,1.992884,-1.958770,6.217476
0.536000,-1.603671,-0.321443,0.315398,0.981915,0.008210,-0.014053,0.188621,-0.701384,-0.285672,0.022422,1.612521,-0.555081,0.115029,-0.069681,-0.647864,-0.245755,0.026732,0.234776,0.376591,-0.013928,-0.301749,-0.172463,-0.029563,0.700030,0.100368,-1.193992,2.066647,-1.009636,-1.917159,2.088204,-5.572628,1.823579,-2.285557,4.547908,1.795165,-0.104434,0.512079
0.538000,-1.604927,-0.322180,0.315386,0.981907,0.007583,-0.014814,0.188629,-0.628383,-0.368466,-0.006079,-0.759122,-0.628792,0.024352,-0.067216,-0.643004,-0.249405,0.027794,0.247082,0.336190,-0.015494,-0.307439,-0.164931,-0.031192,0.701379,0.097222,1.232616,2.430018,-1.825184,0.531024,6.153138,-20.200844,-0.783091,-2.845283,3.765813,-0.814129,0.674548,-1.573041
0.540000,-1.606205,-0.322968,0.315457,0.981898,0.006705,-0.015797,0.188630,-0.638909,-0.394099,0.035511,-1.047491,-0.800189,0.023013,-0.064227,-0.637538,-0.254431,0.031010,0.255461,0.321092,-0.017481,-0.313339,-0.159234,-0.033555,0.702354,0.094053,1.494430,2.732738,-2.512865,1.607671,4.189644,-7.548787,-0.993459,-2.950085,2.848455,-1.181984,0.487687,-1.584845
0.542000,-1.607445,-0.323668,0.315505,0.981851,0.006456,-0.016757,0.188803,-0.619979,-0.349852,0.024363,-0.422338,-0.894895,0.189168,-0.062918,-0.632712,-0.259191,0.031809,0.268431,0.290810,-0.019548,-0.325706,-0.127080,-0.034950,0.702783,0.091327,0.654514,2.413223,-2.380048,0.399603,6.485053,-15.141186,-1.033630,-6.183129,16.077122,-0.697410,0.214525,-1.362968
0.544000,-1.608794,-0.324310,0.315655,0.981790,0.007053,-0.017431,0.189039,-0.674452,-0.321139,0.074880,0.463435,-0.774424,0.237268,-0.063647,-0.627727,-0.263524,0.031232,0.279060,0.272559,-0.018989,-0.335982,-0.103787,-0.034600,0.701077,0.090852,-0.364868,2.492233,-2.166280,-0.288524,5.314247,-9.125324,0.279416,-5.138322,11.646392,0.175276,-0.852858,-0.237217
0.546000,-1.610167,-0.324889,0.315809,0.981713,0.008053,-0.017807,0.189362,-0.686346,-0.289591,0.076934,0.916560,-0.556673,0.316785,-0.065603,-0.623042,-0.266744,0.028596,0.294819,0.231440,-0.017658,-0.346957,-0.077014,-0.033408,0.697761,0.091877,-0.977941,2.342490,-1.610155,-1.317735,7.879338,-20.559401,0.665929,-5.487543,13.386465,0.596007,-1.658148,0.512254
0.548000,-1.611637,-0.325505,0.316074,0.981640,0.009102,-0.017976,0.189677,-0.734931,-0.307934,0.132438,1.003714,-0.363812,0.305650,-0.067764,-0.617715,-0.269978,0.027165,0.307374,0.205726,-0.015377,-0.354188,-0.065839,-0.032061,0.692561,0.094744,-1.080305,2.663559,-1.616940,-0.715553,6.277636,-12.857225,1.140304,-3.615557,5.587476,0.673585,-2.599994,1.433762
