QPZ-918/AT_DOG_AMP/temp/gmr_data_csv/Vx0.4.csv
time_sec,root_pos_x,root_pos_y,root_pos_z,root_quat_w,root_quat_x,root_quat_y,root_quat_z,base_lin_vel_x,base_lin_vel_y,base_lin_vel_z,base_ang_vel_x,base_ang_vel_y,base_ang_vel_z,FR_hip_joint,FR_thigh_joint,FR_calf_joint,FL_hip_joint,FL_thigh_joint,FL_calf_joint,RR_hip_joint,RR_thigh_joint,RR_calf_joint,RL_hip_joint,RL_thigh_joint,RL_calf_joint,FR_hip_joint_vel,FR_thigh_joint_vel,FR_calf_joint_vel,FL_hip_joint_vel,FL_thigh_joint_vel,FL_calf_joint_vel,RR_hip_joint_vel,RR_thigh_joint_vel,RR_calf_joint_vel,RL_hip_joint_vel,RL_thigh_joint_vel,RL_calf_joint_vel
0.002000,-0.487237,-1.504244,0.282453,0.657799,-0.001302,-0.001554,-0.753191,-0.047930,-0.294934,0.028556,0.074196,-0.020132,-0.023317,-0.048517,-0.995056,0.039998,0.054376,0.769583,-0.044775,0.041362,-0.706730,0.086248,-0.045583,0.946733,-0.090351,-0.029541,-0.720505,-0.263216,-0.154929,1.504571,-0.280621,-0.017621,-1.716565,0.690920,0.068218,0.771741,0.191154
0.004000,-0.487340,-1.504837,0.282494,0.657782,-0.001307,-0.001538,-0.753206,-0.051392,-0.296447,0.020642,-0.015075,0.007119,-0.023054,-0.048400,-0.996521,0.039566,0.054247,0.773050,-0.046042,0.041186,-0.709913,0.087299,-0.045629,0.948268,-0.090017,0.058903,-0.732480,-0.215934,-0.064480,1.733339,-0.633157,-0.088300,-1.591213,0.525850,-0.022934,0.767261,0.166969
0.006000,-0.487457,-1.505434,0.282531,0.657765,-0.001390,-0.001340,-0.753221,-0.058216,-0.298745,0.018192,-0.204370,0.067783,-0.022493,-0.047907,-0.997923,0.039174,0.054611,0.776810,-0.047846,0.040864,-0.712593,0.077855,-0.046050,0.949674,-0.089623,0.246273,-0.701091,-0.196066,0.182092,1.880252,-0.902368,-0.160925,-1.340202,-4.722366,-0.210475,0.703056,0.197265
0.008000,-0.487555,-1.506049,0.282541,0.657786,-0.001328,-0.001379,-0.753202,-0.049407,-0.307453,0.005109,0.070772,0.020465,0.028205,-0.048032,-0.999590,0.038910,0.054324,0.780528,-0.049486,0.040514,-0.717213,0.072883,-0.046025,0.951161,-0.089250,-0.062540,-0.833754,-0.131910,-0.143388,1.858982,-0.819759,-0.175015,-2.309831,-2.485909,0.012269,0.743852,0.186545
0.010000,-0.487636,-1.506688,0.282529,0.657845,-0.001084,-0.001750,-0.753151,-0.040490,-0.319147,-0.005723,0.439841,-0.060333,0.077436,-0.048939,-1.001564,0.038724,0.053344,0.783969,-0.044388,0.039935,-0.724369,0.075128,-0.045384,0.952809,-0.088899,-0.453498,-0.986800,-0.092702,-0.490362,1.720355,2.548731,-0.289537,-3.578405,1.122733,0.320348,0.823850,0.175578
0.012000,-0.487730,-1.507321,0.282490,0.657922,-0.000881,-0.002011,-0.753083,-0.046646,-0.316879,-0.019619,0.330639,-0.018595,0.102482,-0.049649,-1.003583,0.038697,0.052393,0.788198,-0.041854,0.038672,-0.732054,0.079469,-0.045034,0.954366,-0.088585,-0.355027,-1.009681,-0.013530,-0.475105,2.114836,1.267153,-0.631504,-3.842240,2.170550,0.174901,0.778714,0.156984
0.014000,-0.487850,-1.507928,0.282430,0.657983,-0.000831,-0.001919,-0.753030,-0.060003,-0.303232,-0.030019,-0.036659,0.098427,0.080568,-0.049596,-1.005437,0.038881,0.052064,0.793512,-0.043349,0.037030,-0.738194,0.082736,-0.045393,0.955669,-0.088273,0.026513,-0.926816,0.092105,-0.164544,2.656656,-0.747634,-0.820915,-3.070116,1.633506,-0.179341,0.651015,0.155898
0.016000,-0.487996,-1.508496,0.282369,0.658018,-0.000924,-0.001441,-0.753000,-0.073418,-0.283963,-0.030431,-0.421001,0.244802,0.046434,-0.048732,-1.007007,0.039247,0.052757,0.799067,-0.046272,0.034937,-0.742680,0.084681,-0.046461,0.956527,-0.087778,0.432236,-0.785079,0.182540,0.346552,2.777418,-1.461161,-1.046653,-2.243087,0.972423,-0.534015,0.429243,0.247451
0.018000,-0.488131,-1.509028,0.282324,0.658033,-0.000926,-0.000880,-0.752988,-0.067109,-0.266203,-0.022584,-0.423333,0.367359,0.019570,-0.047873,-1.008393,0.039873,0.053601,0.803985,-0.049377,0.033144,-0.745830,0.085616,-0.047435,0.956801,-0.086831,0.429366,-0.692789,0.313183,0.421804,2.459314,-1.552684,-0.896419,-1.574706,0.467192,-0.486873,0.136857,0.473222
0.020000,-0.488219,-1.509535,0.282304,0.658033,-0.000656,-0.000524,-0.752988,-0.044132,-0.253629,-0.010220,-0.090433,0.437460,0.000386,-0.047733,-1.009717,0.040764,0.053796,0.808010,-0.052034,0.032307,-0.748093,0.085986,-0.047619,0.956535,-0.085339,0.069825,-0.662021,0.445542,0.097513,2.012565,-1.328270,-0.418467,-1.131729,0.185212,-0.091789,-0.132873,0.746232
0.022000,-0.488264,-1.510027,0.282308,0.658021,-0.000165,-0.000403,-0.753000,-0.022607,-0.245915,0.002093,0.231890,0.449614,-0.017045,-0.048283,-1.010988,0.041731,0.053354,0.811268,-0.054079,0.032357,-0.749834,0.086070,-0.047047,0.955997,-0.083512,-0.274816,-0.635734,0.483457,-0.220869,1.628836,-1.022921,0.025168,-0.870244,0.042217,0.285929,-0.268763,0.913518
0.024000,-0.488284,-1.510513,0.282332,0.657993,0.000408,-0.000446,-0.753024,-0.009798,-0.242781,0.012118,0.409518,0.402871,-0.036921,-0.049200,-1.012180,0.042529,0.052576,0.813952,-0.055487,0.032952,-0.751364,0.086076,-0.045894,0.955663,-0.082192,-0.458540,-0.595710,0.399120,-0.388935,1.341999,-0.703977,0.297314,-0.765097,0.002939,0.576208,-0.167187,0.660178
0.026000,-0.488314,-1.510996,0.282371,0.657948,0.000818,-0.000431,-0.753063,-0.015282,-0.241773,0.019344,0.258372,0.318433,-0.059572,-0.049772,-1.013183,0.042862,0.052147,0.816323,-0.056441,0.033362,-0.752821,0.085996,-0.044863,0.955865,-0.081781,-0.285931,-0.501431,0.166688,-0.214623,1.185652,-0.476576,0.204954,-0.728641,-0.040427,0.515493,0.100830,0.205231
0.028000,-0.488404,-1.511506,0.282403,0.657864,0.000653,-0.000090,-0.753137,-0.044787,-0.254776,0.016152,-0.365508,0.099818,-0.112677,-0.048961,-1.013976,0.042195,0.053053,0.818800,-0.056962,0.032641,-0.754641,0.086013,-0.044748,0.959456,-0.087113,0.405489,-0.396809,-0.333855,0.452842,1.238244,-0.260588,-0.360385,-0.909957,0.008812,0.057403,1.795807,-2.666049
0.030000,-0.488517,-1.512038,0.282437,0.657779,0.000251,0.000306,-0.753211,-0.056517,-0.265787,0.017186,-0.562517,-0.041762,-0.113168,-0.047717,-1.014759,0.040972,0.054352,0.821194,-0.057027,0.031559,-0.756811,0.086245,-0.045521,0.964018,-0.092270,0.621918,-0.391431,-0.611477,0.649557,1.196978,-0.032514,-0.540818,-1.084939,0.116178,-0.386159,2.280984,-2.578343
0.032000,-0.488607,-1.512598,0.282468,0.657714,0.000035,0.000407,-0.753268,-0.044957,-0.280224,0.015135,-0.217626,-0.096292,-0.086470,-0.047084,-1.016641,0.040518,0.054908,0.823355,-0.056626,0.031178,-0.759341,0.086901,-0.046330,0.968189,-0.090359,0.316359,-0.940991,-0.226808,0.278029,1.080771,0.200148,-0.190832,-1.265178,0.327771,-0.404677,2.085409,0.955639
0.034000,-0.488663,-1.513181,0.282488,0.657667,0.000051,0.000197,-0.753309,-0.027884,-0.291447,0.009957,0.167842,-0.125646,-0.062422,-0.047349,-1.019466,0.040787,0.054624,0.825330,-0.055908,0.031596,-0.762158,0.087951,-0.046689,0.972063,-0.084665,-0.132300,-1.412281,0.134480,-0.142123,0.987257,0.359213,0.208962,-1.408473,0.524912,-0.179272,1.936729,2.846631
0.036000,-0.488705,-1.513783,0.282455,0.657589,0.000081,-0.000134,-0.753377,-0.021091,-0.300997,-0.016357,0.269520,-0.195602,-0.102910,-0.047043,-1.024685,0.047572,0.054166,0.827457,-0.055195,0.032347,-0.765320,0.089490,-0.045646,0.978716,-0.089828,0.153144,-2.609793,3.392296,-0.228726,1.063795,0.356753,0.375580,-1.580778,0.769398,0.521116,3.326813,-2.581219
0.038000,-0.488757,-1.514392,0.282406,0.657526,-0.000040,-0.000346,-0.753432,-0.026055,-0.304525,-0.024574,0.079964,-0.229928,-0.083370,-0.046791,-1.029836,0.051219,0.054031,0.829707,-0.054672,0.032719,-0.768543,0.091028,-0.045205,0.985726,-0.097615,0.125636,-2.575502,1.823715,-0.067804,1.124616,0.261445,0.186034,-1.611842,0.769207,0.220812,3.504682,-3.893534
0.040000,-0.488833,-1.514997,0.282322,0.657462,-0.000313,-0.000350,-0.753488,-0.038109,-0.302375,-0.041970,-0.176008,-0.208563,-0.085763,-0.045659,-1.036379,0.059142,0.054428,0.832162,-0.054640,0.032575,-0.771609,0.092430,-0.045474,0.993131,-0.109057,0.566372,-3.271397,3.961394,0.198597,1.227449,0.015880,-0.071945,-1.532738,0.700920,-0.134465,3.702830,-5.721297
0.042000,-0.488904,-1.515592,0.282247,0.657447,-0.000498,-0.000303,-0.753500,-0.035546,-0.297619,-0.037186,-0.158113,-0.108763,-0.018698,-0.045785,-1.042029,0.062635,0.054684,0.834504,-0.054941,0.032369,-0.774296,0.093443,-0.047308,0.997581,-0.111125,-0.063360,-2.825104,1.746600,0.128052,1.170988,-0.150382,-0.103184,-1.343511,0.506764,-0.917175,2.224736,-1.033670
0.044000,-0.488964,-1.516178,0.282133,0.657411,-0.000591,-0.000263,-0.753532,-0.029899,-0.293177,-0.057045,-0.090341,-0.043539,-0.048610,-0.045743,-1.049421,0.073963,0.054847,0.836934,-0.055630,0.032377,-0.776746,0.094405,-0.048389,1.002837,-0.118921,0.021337,-3.695910,5.664028,0.081299,1.215013,-0.344555,0.004179,-1.225189,0.480844,-0.540237,2.628122,-3.897911
0.046000,-0.489008,-1.516762,0.282018,0.657384,-0.000647,-0.000210,-0.753555,-0.022095,-0.291711,-0.057860,-0.077261,-0.007204,-0.035358,-0.046881,-1.055869,0.081518,0.054920,0.839342,-0.056477,0.032441,-0.779011,0.095186,-0.049494,1.007750,-0.126698,-0.569249,-3.224111,3.777486,0.036689,1.204223,-0.423543,0.031912,-1.132442,0.390442,-0.552610,2.456447,-3.888537
0.048000,-0.489048,-1.517344,0.281863,0.657313,-0.000727,-0.000130,-0.753617,-0.019850,-0.291048,-0.077086,-0.112209,-0.007940,-0.093499,-0.047455,-1.063864,0.095998,0.055136,0.841907,-0.057526,0.032562,-0.781232,0.096041,-0.049353,1.015000,-0.144109,-0.287117,-3.997236,7.239835,0.107840,1.282345,-0.524698,0.060853,-1.110170,0.427655,0.070294,3.625232,-8.705592
0.050000,-0.489084,-1.517929,0.281728,0.657268,-0.000799,-0.000019,-0.753656,-0.018169,-0.292441,-0.067917,-0.131303,0.018502,-0.059869,-0.049101,-1.070618,0.104677,0.055323,0.844383,-0.058579,0.032603,-0.783320,0.096680,-0.050133,1.020891,-0.154614,-0.822839,-3.377068,4.339700,0.093441,1.237966,-0.526290,0.020459,-1.044289,0.319266,-0.389978,2.945532,-5.252572
0.052000,-0.489135,-1.518514,0.281569,0.657192,-0.000944,0.000165,-0.753722,-0.025221,-0.292800,-0.079205,-0.234396,0.011790,-0.100593,-0.049654,-1.079009,0.120071,0.055802,0.846968,-0.059736,0.032487,-0.785391,0.097344,-0.050667,1.028062,-0.168423,-0.276353,-4.195783,7.696994,0.239595,1.292600,-0.578829,-0.057929,-1.035652,0.332180,-0.266900,3.585441,-6.904539
0.054000,-0.489192,-1.519106,0.281428,0.657131,-0.001162,0.000407,-0.753775,-0.028753,-0.296071,-0.070569,-0.325978,-0.004771,-0.080259,-0.050638,-1.086549,0.130839,0.056427,0.849508,-0.060791,0.032154,-0.787475,0.097902,-0.052077,1.034597,-0.177237,-0.492302,-3.769804,5.383889,0.312487,1.270183,-0.527187,-0.166763,-1.041873,0.278863,-0.705206,3.267222,-4.406704
0.056000,-0.489253,-1.519701,0.281261,0.657026,-0.001448,0.000651,-0.753866,-0.030632,-0.297251,-0.083625,-0.371632,-0.055917,-0.138766,-0.050498,-1.095782,0.148642,0.057232,0.852157,-0.061781,0.031834,-0.789710,0.098676,-0.052355,1.043557,-0.194602,0.070044,-4.616378,8.901415,0.402466,1.324335,-0.494988,-0.159946,-1.117294,0.386961,-0.138681,4.480003,-8.682650
0.058000,-0.489300,-1.520302,0.281113,0.656939,-0.001689,0.000807,-0.753942,-0.023323,-0.300324,-0.074056,-0.276152,-0.078328,-0.115788,-0.051401,-1.104026,0.161440,0.057782,0.854670,-0.062515,0.031695,-0.792040,0.099486,-0.052833,1.051989,-0.208653,-0.451117,-4.122225,6.399308,0.275307,1.256695,-0.367190,-0.069288,-1.165253,0.405159,-0.239210,4.215925,-7.025803
0.060000,-0.489334,-1.520898,0.280954,0.656832,-0.001842,0.000850,-0.754034,-0.016744,-0.298101,-0.079603,-0.132583,-0.087320,-0.141319,-0.052017,-1.113425,0.179675,0.058084,0.857123,-0.063122,0.031899,-0.794428,0.100461,-0.052450,1.061233,-0.226622,-0.308212,-4.699192,9.117037,0.150893,1.226243,-0.303630,0.101614,-1.194007,0.487600,0.191622,4.622235,-8.984076
0.062000,-0.489364,-1.521491,0.280820,0.656755,-0.001976,0.000878,-0.754101,-0.015008,-0.296674,-0.066724,-0.109667,-0.081743,-0.101308,-0.053466,-1.121753,0.193237,0.058274,0.859421,-0.063590,0.032081,-0.796772,0.101316,-0.053065,1.068912,-0.238815,-0.724279,-4.163996,6.781129,0.095216,1.149279,-0.233605,0.091311,-1.171674,0.427507,-0.307680,3.839456,-6.096782
0.064000,-0.489407,-1.522070,0.280680,0.656662,-0.002203,0.001000,-0.754181,-0.021902,-0.289339,-0.069957,-0.241524,-0.091565,-0.123584,-0.053874,-1.130905,0.211836,0.058780,0.861746,-0.064111,0.032017,-0.799034,0.102116,-0.053663,1.077123,-0.255709,-0.204346,-4.576259,9.299394,0.252999,1.162433,-0.260627,-0.032181,-1.131428,0.399589,-0.298695,4.105695,-8.446763
0.066000,-0.489456,-1.522641,0.280561,0.656586,-0.002496,0.001189,-0.754246,-0.024370,-0.285449,-0.059408,-0.334270,-0.096040,-0.099490,-0.054629,-1.139067,0.226874,0.059427,0.863991,-0.064575,0.031725,-0.801215,0.102747,-0.055066,1.084393,-0.270631,-0.377509,-4.080784,7.519293,0.323406,1.122426,-0.231827,-0.145983,-1.090130,0.315863,-0.701740,3.634966,-7.461038
0.068000,-0.489501,-1.523195,0.280442,0.656497,-0.002775,0.001379,-0.754322,-0.022552,-0.277361,-0.059783,-0.327077,-0.085560,-0.117239,-0.054988,-1.147572,0.245802,0.060083,0.866189,-0.065048,0.031480,-0.803271,0.103320,-0.055999,1.091868,-0.289769,-0.179418,-4.252865,9.463659,0.327969,1.099020,-0.236930,-0.122606,-1.028118,0.286181,-0.466584,3.737535,-9.568908
0.070000,-0.489529,-1.523744,0.280346,0.656428,-0.002950,0.001486,-0.754382,-0.013935,-0.274524,-0.047896,-0.195471,-0.062208,-0.091225,-0.056347,-1.155043,0.261375,0.060414,0.868213,-0.065389,0.031473,-0.805230,0.103784,-0.057147,1.098061,-0.305267,-0.679423,-3.735521,7.786803,0.165536,1.012197,-0.170149,-0.003643,-0.979311,0.231962,-0.573714,3.096468,-7.749203
0.072000,-0.489543,-1.524280,0.280259,0.656354,-0.003025,0.001520,-0.754445,-0.007142,-0.267603,-0.043736,-0.075183,-0.033346,-0.096961,-0.057778,-1.162470,0.279500,0.060506,0.870116,-0.065678,0.031721,-0.807047,0.104181,-0.057812,1.103789,-0.321697,-0.715521,-3.713446,9.062351,0.045780,0.951363,-0.144550,0.124108,-0.908536,0.198604,-0.332621,2.863667,-8.215207
0.074000,-0.489561,-1.524811,0.280191,0.656290,-0.003142,0.001597,-0.754500,-0.008689,-0.265718,-0.033676,-0.134705,-0.037295,-0.084543,-0.059283,-1.169118,0.295172,0.060687,0.871962,-0.065900,0.031823,-0.808803,0.104446,-0.058860,1.108875,-0.336112,-0.752618,-3.323915,7.836019,0.090536,0.923154,-0.111313,0.051364,-0.878018,0.132485,-0.524243,2.543444,-7.207526
0.076000,-0.489591,-1.525329,0.280134,0.656219,-0.003362,0.001786,-0.754561,-0.014911,-0.259204,-0.028699,-0.286650,-0.041890,-0.093626,-0.060031,-1.175446,0.312296,0.061186,0.873816,-0.066162,0.031618,-0.810439,0.104557,-0.059971,1.113872,-0.352592,-0.374065,-3.163696,8.562262,0.249385,0.926846,-0.130833,-0.102701,-0.818290,0.055516,-0.555119,2.498417,-8.239840
0.078000,-0.489624,-1.525846,0.280093,0.656151,-0.003632,0.002011,-0.754618,-0.016548,-0.258212,-0.020556,-0.348083,-0.055960,-0.087842,-0.060610,-1.181152,0.327804,0.061784,0.875641,-0.066352,0.031276,-0.812064,0.104592,-0.061190,1.118570,-0.368185,-0.289131,-2.853128,7.753689,0.299348,0.912533,-0.094728,-0.171057,-0.812479,0.017470,-0.609820,2.348632,-7.796513
0.080000,-0.489644,-1.526350,0.280067,0.656090,-0.003820,0.002178,-0.754670,-0.010211,-0.252285,-0.012879,-0.248714,-0.031721,-0.079785,-0.061437,-1.186089,0.343747,0.062158,0.877340,-0.066479,0.031123,-0.813576,0.104550,-0.062115,1.122366,-0.383103,-0.413888,-2.468657,7.971822,0.186671,0.849537,-0.063725,-0.076604,-0.755780,-0.020986,-0.462403,1.898115,-7.458756
0.082000,-0.489653,-1.526853,0.280055,0.656037,-0.003947,0.002276,-0.754715,-0.004553,-0.251361,-0.005767,-0.157901,-0.031376,-0.069092,-0.062491,-1.190404,0.358706,0.062314,0.878950,-0.066490,0.031142,-0.815099,0.104517,-0.062770,1.125602,-0.396662,-0.526587,-2.157436,7.479239,0.077928,0.804838,-0.005651,0.009444,-0.761524,-0.016506,-0.327383,1.617850,-6.779701
0.084000,-0.489653,-1.527342,0.280062,0.656000,-0.004021,0.002349,-0.754746,-0.000124,-0.244611,0.003168,-0.103754,-0.008076,-0.048739,-0.063881,-1.193507,0.372946,0.062319,0.880438,-0.066471,0.031233,-0.816506,0.104381,-0.063470,1.127515,-0.408936,-0.695238,-1.551516,7.120036,0.002601,0.744054,0.009484,0.045872,-0.703683,-0.067940,-0.350142,0.956804,-6.137090
0.086000,-0.489662,-1.527828,0.280077,0.655967,-0.004183,0.002486,-0.754774,-0.004282,-0.242593,0.007707,-0.209870,-0.031369,-0.042764,-0.064672,-1.196104,0.386945,0.062520,0.881942,-0.066434,0.031092,-0.817945,0.104222,-0.064233,1.129185,-0.421989,-0.395513,-1.298649,6.999432,0.100483,0.752123,0.018798,-0.070582,-0.719492,-0.079451,-0.381341,0.834802,-6.526465
0.088000,-0.489673,-1.528298,0.280112,0.655955,-0.004377,0.002687,-0.754782,-0.005633,-0.235074,0.017692,-0.279100,-0.015178,-0.014357,-0.065571,-1.197145,0.399170,0.062810,0.883369,-0.066433,0.030754,-0.819250,0.103890,-0.065529,1.129262,-0.433480,-0.449447,-0.520516,6.112427,0.145371,0.713365,0.000455,-0.169259,-0.652532,-0.165845,-0.648137,0.038871,-5.745401
0.090000,-0.489684,-1.528765,0.280155,0.655947,-0.004587,0.002883,-0.754787,-0.005169,-0.233455,0.021066,-0.285145,-0.029432,-0.009087,-0.065990,-1.197803,0.411929,0.063095,0.884778,-0.066382,0.030394,-0.820598,0.103588,-0.066544,1.129014,-0.445585,-0.209299,-0.328909,6.379665,0.142007,0.704462,0.025240,-0.179831,-0.673902,-0.151132,-0.507432,-0.124460,-6.052664
0.092000,-0.489676,-1.529218,0.280220,0.655967,-0.004677,0.003006,-0.754769,0.003613,-0.226683,0.032864,-0.151915,0.012841,0.027211,-0.067279,-1.196651,0.422274,0.063041,0.886006,-0.066289,0.030250,-0.821789,0.103149,-0.067688,1.126691,-0.454085,-0.644518,0.576035,5.172335,-0.026689,0.613925,0.046723,-0.072260,-0.595661,-0.219564,-0.571887,-1.161424,-4.249824
0.094000,-0.489665,-1.529670,0.280290,0.655986,-0.004765,0.003103,-0.754752,0.005475,-0.225922,0.034859,-0.131079,-0.003094,0.025604,-0.067973,-1.195266,0.433714,0.062936,0.887222,-0.066130,0.030155,-0.823037,0.102766,-0.068217,1.124294,-0.463842,-0.347005,0.692471,5.720238,-0.052765,0.607850,0.079406,-0.047406,-0.623739,-0.191424,-0.264559,-1.198433,-4.878467
0.096000,-0.489650,-1.530109,0.280385,0.656032,-0.004836,0.003221,-0.754710,0.007923,-0.219527,0.047219,-0.135285,0.023470,0.062826,-0.069225,-1.191842,0.441611,0.062772,0.888317,-0.065973,0.029989,-0.824131,0.102190,-0.069221,1.119914,-0.470089,-0.626105,1.711847,3.948596,-0.082031,0.547849,0.078329,-0.082885,-0.547188,-0.288139,-0.502131,-2.189826,-3.123517
0.098000,-0.489643,-1.530547,0.280479,0.656072,-0.005002,0.003398,-0.754674,0.003231,-0.219055,0.047247,-0.243281,-0.009857,0.053836,-0.069292,-1.188336,0.451068,0.062832,0.889478,-0.065804,0.029617,-0.825299,0.101649,-0.069771,1.115793,-0.478697,-0.033381,1.753345,4.728553,0.030324,0.580293,0.084562,-0.186106,-0.584014,-0.270311,-0.274699,-2.060672,-4.304296
0.100000,-0.489631,-1.530974,0.280598,0.656140,-0.005144,0.003582,-0.754613,0.006138,-0.213292,0.059306,-0.231011,0.013364,0.091981,-0.069961,-1.182788,0.456771,0.062803,0.890509,-0.065610,0.029207,-0.826338,0.100940,-0.070798,1.109677,-0.483235,-0.334683,2.773764,2.851287,-0.014736,0.515804,0.096997,-0.205084,-0.519131,-0.354669,-0.513736,-3.057971,-2.268761
0.102000,-0.489617,-1.531401,0.280713,0.656200,-0.005296,0.003737,-0.754559,0.006934,-0.213678,0.057485,-0.217128,-0.013952,0.081203,-0.069720,-1.177312,0.464693,0.062755,0.891563,-0.065346,0.028848,-0.827485,0.100351,-0.071024,1.103825,-0.489841,0.120553,2.738371,3.960902,-0.023889,0.526698,0.132042,-0.179193,-0.573667,-0.294470,-0.112908,-2.925767,-3.302887
0.104000,-0.489587,-1.531818,0.280850,0.656294,-0.005353,0.003826,-0.754477,0.014831,-0.208558,0.068866,-0.104267,0.014427,0.124989,-0.070552,-1.169700,0.468269,0.062404,0.892443,-0.065010,0.028655,-0.828535,0.099658,-0.071606,1.095825,-0.491375,-0.416201,3.805977,1.787984,-0.175445,0.440268,0.167910,-0.096697,-0.524864,-0.346518,-0.290873,-3.999960,-0.767137
0.106000,-0.489561,-1.532236,0.280980,0.656378,-0.005464,0.003919,-0.754402,0.013019,-0.209058,0.064627,-0.142540,-0.022957,0.112160,-0.070329,-1.162223,0.474144,0.062147,0.893386,-0.064635,0.028409,-0.829721,0.099104,-0.071516,1.088236,-0.495658,0.111870,3.738332,2.937593,-0.128494,0.471221,0.187604,-0.122750,-0.593423,-0.276696,0.045026,-3.794721,-2.141247
0.108000,-0.489532,-1.532644,0.281127,0.656494,-0.005574,0.004031,-0.754300,0.014718,-0.203708,0.073879,-0.156243,-0.010259,0.154521,-0.070832,-1.152685,0.475375,0.061850,0.894226,-0.064254,0.028068,-0.830827,0.098427,-0.072141,1.078701,-0.495482,-0.251626,4.768784,0.615400,-0.148290,0.420320,0.190550,-0.170488,-0.552917,-0.338619,-0.312721,-4.767478,0.087928
0.110000,-0.489510,-1.533052,0.281261,0.656597,-0.005760,0.004170,-0.754208,0.010966,-0.204060,0.066998,-0.227219,-0.049769,0.138152,-0.070151,-1.143436,0.479384,0.061724,0.895162,-0.063876,0.027613,-0.832073,0.097896,-0.072193,1.069680,-0.498476,0.340401,4.624674,2.004729,-0.063263,0.467696,0.189284,-0.227606,-0.622728,-0.265670,-0.025822,-4.510571,-1.497114
0.112000,-0.489478,-1.533451,0.281408,0.656729,-0.005893,0.004275,-0.754091,0.016032,-0.199537,0.073421,-0.165683,-0.032962,0.177074,-0.070360,-1.132422,0.479266,0.061411,0.895985,-0.063476,0.027227,-0.833262,0.097304,-0.072733,1.058887,-0.496883,-0.104378,5.507082,-0.058878,-0.156299,0.411489,0.199616,-0.192872,-0.594772,-0.296052,-0.270187,-5.396645,0.796288
0.114000,-0.489445,-1.533853,0.281537,0.656849,-0.006040,0.004348,-0.753985,0.016354,-0.200875,0.064549,-0.151819,-0.064184,0.159910,-0.069727,-1.121820,0.481951,0.061097,0.896882,-0.063064,0.026909,-0.834604,0.096905,-0.072531,1.048637,-0.498010,0.316282,5.300757,1.342477,-0.156937,0.448392,0.206234,-0.159404,-0.671016,-0.199145,0.101077,-5.124563,-0.563082
0.116000,-0.489402,-1.534248,0.281674,0.656996,-0.006137,0.004380,-0.753857,0.021515,-0.197689,0.068290,-0.087554,-0.053127,0.194549,-0.069990,-1.109742,0.480501,0.060599,0.897691,-0.062636,0.026676,-0.835925,0.096487,-0.072765,1.036944,-0.494790,-0.131447,6.039356,-0.725463,-0.249384,0.404461,0.214047,-0.116423,-0.660253,-0.209418,-0.117210,-5.846570,1.609629
0.118000,-0.489365,-1.534647,0.281789,0.657127,-0.006298,0.004431,-0.753740,0.018402,-0.199584,0.057688,-0.143559,-0.089676,0.174835,-0.069318,-1.098175,0.481526,0.060247,0.898620,-0.062243,0.026370,-0.837396,0.096239,-0.072503,1.025966,-0.494496,0.335876,5.783065,0.512699,-0.175855,0.464566,0.196290,-0.152848,-0.735605,-0.123687,0.131130,-5.489088,0.146976
0.120000,-0.489327,-1.535042,0.281904,0.657275,-0.006467,0.004490,-0.753609,0.019391,-0.197436,0.057214,-0.154826,-0.090018,0.197635,-0.069135,-1.085644,0.479465,0.059886,0.899534,-0.061888,0.026014,-0.838869,0.095986,-0.072717,1.014099,-0.491253,0.091852,6.265771,-1.030479,-0.180661,0.456976,0.177714,-0.177965,-0.736371,-0.126735,-0.106769,-5.933720,1.621573
0.122000,-0.489292,-1.535441,0.281994,0.657409,-0.006676,0.004552,-0.753491,0.017480,-0.199747,0.045264,-0.183942,-0.117879,0.177583,-0.068242,-1.073740,0.479865,0.059619,0.900564,-0.061586,0.025643,-0.840475,0.095901,-0.072495,1.002956,-0.490506,0.446133,5.952000,0.199943,-0.133239,0.515313,0.151091,-0.185426,-0.803010,-0.042308,0.110565,-5.571323,0.373679
0.124000,-0.489249,-1.535839,0.282076,0.657554,-0.006851,0.004580,-0.753363,0.021054,-0.198951,0.041066,-0.136580,-0.115262,0.193046,-0.067942,-1.061326,0.478242,0.059236,0.901586,-0.061318,0.025360,-0.842109,0.095871,-0.072531,0.991280,-0.487474,0.150298,6.207118,-0.811271,-0.191678,0.510783,0.133608,-0.141630,-0.816905,-0.014883,-0.017824,-5.837813,1.515891
0.126000,-0.489207,-1.536243,0.282135,0.657687,-0.007037,0.004592,-0.753244,0.021221,-0.201636,0.029224,-0.130743,-0.133924,0.178084,-0.067345,-1.049504,0.478257,0.058868,0.902703,-0.061107,0.025129,-0.843858,0.095999,-0.072271,0.980228,-0.486071,0.298383,5.911052,0.007496,-0.183935,0.558687,0.105866,-0.115358,-0.874567,0.063951,0.129968,-5.526263,0.701633
0.128000,-0.489162,-1.536648,0.282175,0.657822,-0.007222,0.004591,-0.753125,0.022496,-0.202519,0.020007,-0.120230,-0.141579,0.179324,-0.067028,-1.037781,0.478001,0.058482,0.903875,-0.060963,0.024936,-0.845676,0.096230,-0.072168,0.969281,-0.484507,0.158526,5.861270,-0.128270,-0.192915,0.585833,0.071752,-0.096764,-0.909054,0.115272,0.051623,-5.473225,0.781628
0.130000,-0.489120,-1.537059,0.282192,0.657948,-0.007441,0.004602,-0.753012,0.020907,-0.205574,0.008597,-0.151991,-0.158868,0.167862,-0.066549,-1.026681,0.478672,0.058185,0.905152,-0.060898,0.024711,-0.847590,0.096578,-0.072089,0.958954,-0.484068,0.239307,5.550027,0.335428,-0.148726,0.638596,0.032512,-0.112280,-0.957223,0.174178,0.039407,-5.163879,0.219575
0.132000,-0.489075,-1.537465,0.282214,0.658086,-0.007650,0.004632,-0.752890,0.022413,-0.203192,0.010875,-0.159492,-0.139389,0.183701,-0.066747,-1.014976,0.475635,0.057882,0.906379,-0.060866,0.024458,-0.849382,0.096790,-0.072536,0.947961,-0.479872,-0.098660,5.852420,-1.518064,-0.151419,0.613451,0.016262,-0.126700,-0.896029,0.105746,-0.223645,-5.496519,2.098277
0.134000,-0.489032,-1.537869,0.282228,0.658212,-0.007871,0.004691,-0.752777,0.021691,-0.202011,0.006963,-0.189491,-0.129041,0.167869,-0.066805,-1.003501,0.473047,0.057669,0.907630,-0.060892,0.024181,-0.851079,0.096925,-0.072880,0.937197,-0.476052,-0.029011,5.737594,-1.294164,-0.106289,0.625695,-0.013032,-0.138556,-0.848132,0.067698,-0.171949,-5.381645,1.909960
0.136000,-0.488983,-1.538261,0.282261,0.658345,-0.008063,0.004775,-0.752658,0.024450,-0.195640,0.016543,-0.189190,-0.089995,0.178223,-0.067516,-0.991038,0.466198,0.057440,0.908752,-0.060905,0.023897,-0.852498,0.096769,-0.073538,0.925476,-0.467999,-0.355882,6.231617,-3.424814,-0.114600,0.560724,-0.006752,-0.141769,-0.709862,-0.077881,-0.328903,-5.860885,4.026395
0.138000,-0.488937,-1.538644,0.282288,0.658447,-0.008272,0.004903,-0.752566,0.022905,-0.191608,0.013615,-0.233748,-0.074577,0.138179,-0.067544,-0.978879,0.462312,0.057366,0.909890,-0.060961,0.023595,-0.853743,0.096484,-0.073566,0.914232,-0.463054,-0.013578,6.079200,-1.942987,-0.036968,0.568993,-0.028083,-0.150803,-0.622116,-0.142481,-0.013864,-5.621600,2.472507
0.140000,-0.488886,-1.539013,0.282341,0.658554,-0.008451,0.005045,-0.752469,0.025851,-0.184403,0.026694,-0.224196,-0.042205,0.143999,-0.068040,-0.965645,0.454100,0.057261,0.910863,-0.060928,0.023308,-0.854718,0.095911,-0.073745,0.902009,-0.453885,-0.248031,6.617205,-4.105997,-0.052566,0.486680,0.016409,-0.143792,-0.487664,-0.286629,-0.089684,-6.111845,4.584462
0.142000,-0.488837,-1.539375,0.282392,0.658631,-0.008649,0.005211,-0.752398,0.024197,-0.181085,0.025560,-0.254626,-0.041139,0.105060,-0.067748,-0.952685,0.448620,0.057280,0.911836,-0.060864,0.023022,-0.855592,0.095274,-0.073293,0.890226,-0.447459,0.145794,6.479927,-2.739860,0.009453,0.486544,0.032307,-0.142962,-0.437158,-0.318418,0.226168,-5.891203,3.212858
0.144000,-0.488783,-1.539727,0.282475,0.658722,-0.008826,0.005364,-0.752315,0.026996,-0.176082,0.041183,-0.232103,-0.033420,0.123848,-0.067984,-0.938611,0.436981,0.057220,0.912627,-0.060612,0.022748,-0.856334,0.094452,-0.073219,0.877362,-0.435025,-0.117806,7.037198,-5.819213,-0.030071,0.395460,0.125738,-0.136752,-0.370764,-0.410990,0.036798,-6.432186,6.217072
0.146000,-0.488733,-1.540078,0.282550,0.658785,-0.009029,0.005512,-0.752257,0.025058,-0.175457,0.037480,-0.244789,-0.055991,0.085823,-0.067313,-0.925039,0.428462,0.057246,0.913446,-0.060283,0.022507,-0.857125,0.093717,-0.072507,0.865143,-0.425711,0.335358,6.785876,-4.259532,0.013200,0.409601,0.164680,-0.120772,-0.395827,-0.367669,0.355963,-6.109716,4.657057
0.148000,-0.488678,-1.540425,0.282646,0.658861,-0.009218,0.005623,-0.752187,0.027663,-0.173555,0.047985,-0.206962,-0.070261,0.102765,-0.067000,-0.910743,0.414676,0.057163,0.914143,-0.059766,0.022312,-0.857942,0.092969,-0.072091,0.852201,-0.411287,0.156428,7.147834,-6.893129,-0.041492,0.348162,0.258619,-0.097708,-0.408335,-0.373737,0.208179,-6.470676,7.211836
0.150000,-0.488625,-1.540776,0.282723,0.658907,-0.009425,0.005704,-0.752144,0.026250,-0.175320,0.038495,-0.197718,-0.102989,0.063303,-0.065771,-0.897236,0.405068,0.057123,0.914926,-0.059210,0.022196,-0.858917,0.092442,-0.070975,0.840168,-0.400987,0.614315,6.753492,-4.803937,-0.020244,0.391513,0.277653,-0.057863,-0.487538,-0.263827,0.557891,-6.016812,5.150480
0.152000,-0.488564,-1.541126,0.282815,0.658973,-0.009600,0.005725,-0.752083,0.030445,-0.175216,0.045987,-0.130570,-0.119161,0.088693,-0.065115,-0.883130,0.389804,0.056897,0.915613,-0.058504,0.022176,-0.859979,0.091970,-0.070232,0.827444,-0.385033,0.328034,7.052986,-7.632078,-0.112844,0.343499,0.353011,-0.009793,-0.530821,-0.235990,0.371344,-6.361578,7.976800
0.154000,-0.488506,-1.541481,0.282884,0.659017,-0.009794,0.005727,-0.752043,0.029231,-0.177545,0.034499,-0.129361,-0.144998,0.058634,-0.063795,-0.869767,0.377969,0.056714,0.916416,-0.057838,0.022208,-0.861195,0.091711,-0.069015,0.815539,-0.372493,0.660112,6.681608,-5.917546,-0.091700,0.401500,0.333022,0.016061,-0.607971,-0.129271,0.608874,-5.952805,6.269969
0.156000,-0.488444,-1.541836,0.282962,0.659081,-0.009992,0.005719,-0.751984,0.030915,-0.177571,0.039274,-0.123921,-0.155488,0.085382,-0.063002,-0.855893,0.360457,0.056468,0.917181,-0.057131,0.022210,-0.862462,0.091464,-0.068364,0.803038,-0.354569,0.396665,6.937120,-8.755755,-0.122596,0.382697,0.353782,0.001083,-0.633860,-0.123825,0.325254,-6.250234,8.961756
0.158000,-0.488386,-1.542195,0.283012,0.659120,-0.010218,0.005724,-0.751947,0.028835,-0.179561,0.025021,-0.152703,-0.166216,0.052672,-0.061571,-0.842839,0.346959,0.056330,0.918103,-0.056570,0.022212,-0.863816,0.091370,-0.067288,0.791440,-0.340665,0.715230,6.526759,-6.749137,-0.069138,0.461146,0.280413,0.000796,-0.676742,-0.046743,0.537853,-5.799282,6.952256
0.160000,-0.488324,-1.542554,0.283066,0.659174,-0.010432,0.005726,-0.751897,0.031071,-0.179463,0.026971,-0.142462,-0.161307,0.072400,-0.060664,-0.829475,0.329004,0.056132,0.919010,-0.056038,0.022210,-0.865160,0.091249,-0.066640,0.779408,-0.322276,0.453789,6.682003,-8.977480,-0.098908,0.453485,0.266241,-0.000881,-0.672103,-0.060352,0.324050,-6.015801,9.194291
0.162000,-0.488262,-1.542916,0.283092,0.659204,-0.010646,0.005735,-0.751867,0.030905,-0.181048,0.013097,-0.147342,-0.155298,0.041169,-0.059359,-0.816903,0.314832,0.055990,0.920056,-0.055679,0.022261,-0.866522,0.091225,-0.065545,0.768211,-0.307509,0.652169,6.285943,-7.086181,-0.071402,0.522829,0.179255,0.025220,-0.681092,-0.012079,0.547501,-5.598710,7.383678
0.164000,-0.488195,-1.543278,0.283124,0.659249,-0.010844,0.005742,-0.751825,0.033713,-0.181006,0.015727,-0.135741,-0.144431,0.060618,-0.058667,-0.804048,0.295961,0.055784,0.921075,-0.055349,0.022315,-0.867840,0.091135,-0.064869,0.756609,-0.288207,0.346283,6.427869,-9.435352,-0.102643,0.509720,0.164967,0.027327,-0.658859,-0.045117,0.338426,-5.800774,9.650973
0.166000,-0.488129,-1.543643,0.283131,0.659271,-0.011052,0.005775,-0.751802,0.032846,-0.182511,0.003745,-0.161667,-0.135184,0.031128,-0.057639,-0.791937,0.280218,0.055675,0.922221,-0.055186,0.022378,-0.869140,0.091088,-0.063860,0.745814,-0.272134,0.513788,6.055180,-7.871443,-0.054815,0.572887,0.081322,0.031047,-0.649882,-0.023665,0.504042,-5.397812,8.036702
0.168000,-0.488063,-1.544010,0.283142,0.659302,-0.011269,0.005830,-0.751771,0.033420,-0.183191,0.005232,-0.184045,-0.127904,0.042333,-0.056987,-0.779779,0.260897,0.055588,0.923364,-0.055057,0.022385,-0.870395,0.090968,-0.063240,0.734864,-0.252688,0.326250,6.079057,-9.660458,-0.043345,0.571375,0.064557,0.003709,-0.627653,-0.059823,0.310285,-5.474629,9.723064
0.170000,-0.487998,-1.544380,0.283130,0.659309,-0.011494,0.005906,-0.751761,0.032350,-0.185051,-0.005763,-0.205701,-0.118397,0.012254,-0.055993,-0.768454,0.244946,0.055592,0.924617,-0.055067,0.022407,-0.871630,0.090884,-0.062304,0.724751,-0.236443,0.496796,5.662846,-7.975486,0.001985,0.626664,-0.004911,0.011083,-0.617331,-0.042222,0.467750,-5.056784,8.122337
0.172000,-0.487930,-1.544753,0.283121,0.659323,-0.011707,0.005975,-0.751745,0.034008,-0.186733,-0.004557,-0.191765,-0.115353,0.019665,-0.055359,-0.757282,0.226375,0.055554,0.925848,-0.055055,0.022453,-0.872856,0.090772,-0.061612,0.714631,-0.217450,0.317245,5.585714,-9.285502,-0.019127,0.615551,0.006229,0.023184,-0.613206,-0.055810,0.345989,-5.060063,9.496561
0.174000,-0.487862,-1.545131,0.283097,0.659318,-0.011916,0.006046,-0.751745,0.033996,-0.188672,-0.012345,-0.191600,-0.110636,-0.003472,-0.054559,-0.746834,0.210192,0.055551,0.927144,-0.055108,0.022546,-0.874081,0.090700,-0.060684,0.705222,-0.200808,0.399718,5.224128,-8.091835,-0.001126,0.647942,-0.026625,0.046447,-0.612288,-0.036246,0.464062,-4.704435,8.320659
0.176000,-0.487792,-1.545513,0.283074,0.659316,-0.012128,0.006106,-0.751743,0.034804,-0.191272,-0.011385,-0.184886,-0.119104,-0.000845,-0.054013,-0.736679,0.192035,0.055530,0.928421,-0.055096,0.022655,-0.875340,0.090636,-0.059955,0.696027,-0.182512,0.273280,5.077656,-9.078143,-0.010534,0.638415,0.006116,0.054279,-0.629797,-0.031935,0.364467,-4.597289,9.147986
0.178000,-0.487724,-1.545899,0.283040,0.659299,-0.012346,0.006174,-0.751754,0.034023,-0.192914,-0.016836,-0.194672,-0.118976,-0.020339,-0.053325,-0.727186,0.175826,0.055562,0.929741,-0.055111,0.022780,-0.876602,0.090599,-0.059112,0.687478,-0.166196,0.343771,4.746090,-8.104469,0.015956,0.659914,-0.007469,0.062380,-0.630810,-0.018569,0.421758,-4.274335,8.158281
0.180000,-0.487656,-1.546292,0.283003,0.659281,-0.012567,0.006227,-0.751766,0.034136,-0.196592,-0.018472,-0.185710,-0.130881,-0.022709,-0.052755,-0.718246,0.159171,0.055580,0.931071,-0.055078,0.022930,-0.877936,0.090619,-0.058400,0.679365,-0.149369,0.285265,4.470424,-8.327836,0.008858,0.665176,0.016478,0.075041,-0.667153,0.009991,0.355883,-4.056681,8.413307
0.182000,-0.487588,-1.546688,0.282959,0.659253,-0.012787,0.006281,-0.751786,0.033817,-0.197829,-0.022199,-0.186714,-0.129256,-0.034475,-0.052166,-0.709869,0.143859,0.055620,0.932426,-0.055064,0.023099,-0.879272,0.090658,-0.057690,0.671728,-0.133643,0.294241,4.188321,-7.655774,0.020217,0.677543,0.006999,0.084656,-0.667815,0.019868,0.355233,-3.818564,7.863025
0.184000,-0.487523,-1.547093,0.282908,0.659221,-0.013028,0.006334,-0.751810,0.032682,-0.202481,-0.025507,-0.199041,-0.145840,-0.041230,-0.051583,-0.702205,0.128880,0.055695,0.933825,-0.055024,0.023257,-0.880701,0.090773,-0.057096,0.664771,-0.118527,0.291696,3.832130,-7.489834,0.037410,0.699354,0.019936,0.079091,-0.714593,0.057305,0.297027,-3.478497,7.558063
0.186000,-0.487457,-1.547499,0.282854,0.659184,-0.013267,0.006390,-0.751837,0.032895,-0.203217,-0.026919,-0.199763,-0.142817,-0.046169,-0.051120,-0.694947,0.114224,0.055779,0.935229,-0.054993,0.023425,-0.882116,0.090880,-0.056602,0.658152,-0.103729,0.231465,3.628701,-7.327733,0.041690,0.702078,0.015421,0.083840,-0.707670,0.053589,0.246872,-3.309476,7.399168
0.188000,-0.487393,-1.547917,0.282788,0.659137,-0.013520,0.006437,-0.751874,0.031991,-0.209101,-0.032812,-0.201862,-0.158172,-0.060473,-0.050578,-0.688674,0.101354,0.055886,0.936705,-0.054960,0.023617,-0.883637,0.091088,-0.056071,0.652517,-0.090939,0.270906,3.136567,-6.435012,0.053481,0.737887,0.016455,0.096096,-0.760378,0.103845,0.265351,-2.817637,6.394858
0.190000,-0.487329,-1.548339,0.282721,0.659082,-0.013787,0.006499,-0.751916,0.032100,-0.210552,-0.033615,-0.223769,-0.158516,-0.070103,-0.050185,-0.682718,0.088210,0.056043,0.938201,-0.054936,0.023789,-0.885135,0.091265,-0.055666,0.648495,-0.081246,0.196620,2.978262,-6.571858,0.078522,0.748159,0.011945,0.086121,-0.749003,0.088702,0.202437,-2.010729,4.846541
0.192000,-0.487258,-1.548768,0.282644,0.659025,-0.013965,0.006491,-0.751963,0.035618,-0.214844,-0.038437,-0.111544,-0.138449,-0.075513,-0.049943,-0.677996,0.078301,0.055989,0.939698,-0.054929,0.024197,-0.886651,0.091508,-0.055108,0.645819,-0.074036,0.120978,2.360714,-4.954854,-0.026923,0.748475,0.003604,0.204048,-0.758027,0.121301,0.279063,-1.338080,3.605091
0.194000,-0.487171,-1.549186,0.282587,0.658986,-0.013995,0.006423,-0.751998,0.043112,-0.208737,-0.028530,0.031712,-0.066491,-0.053568,-0.050454,-0.673334,0.067059,0.055622,0.941009,-0.054931,0.024851,-0.887873,0.091509,-0.054358,0.643777,-0.068317,-0.255395,2.331107,-5.620832,-0.183578,0.655328,-0.000900,0.326982,-0.611058,0.000627,0.375028,-1.020922,2.859405
0.196000,-0.487083,-1.549597,0.282537,0.658962,-0.013874,0.006318,-0.752022,0.044115,-0.205798,-0.025289,0.158068,0.022315,-0.033897,-0.051066,-0.670021,0.059792,0.055015,0.942212,-0.055072,0.025687,-0.888823,0.091314,-0.053470,0.642212,-0.063783,-0.306422,1.656317,-3.633625,-0.303123,0.601443,-0.070473,0.417610,-0.474663,-0.097718,0.444060,-0.782624,2.267018
0.198000,-0.487001,-1.549983,0.282526,0.658972,-0.013666,0.006289,-0.752017,0.041197,-0.192999,-0.005369,0.158675,0.136773,0.010858,-0.052035,-0.666601,0.050156,0.054390,0.943180,-0.055347,0.026387,-0.889220,0.090577,-0.052740,0.640631,-0.059772,-0.484110,1.710004,-4.817673,-0.312894,0.484081,-0.137623,0.350286,-0.198468,-0.368518,0.365009,-0.790507,2.005320
0.200000,-0.486944,-1.550360,0.282528,0.659002,-0.013416,0.006360,-0.751995,0.028522,-0.188387,0.001249,0.111657,0.234461,0.040023,-0.052379,-0.664823,0.045486,0.053903,0.944081,-0.055858,0.026848,-0.889268,0.089513,-0.052271,0.639201,-0.056389,-0.172052,0.889376,-2.335381,-0.243249,0.450634,-0.255505,0.230177,-0.024225,-0.531651,0.234633,-0.714880,1.691537
0.202000,-0.486906,-1.550715,0.282574,0.659071,-0.013142,0.006537,-0.751937,0.018902,-0.177610,0.022912,0.047696,0.321481,0.094564,-0.052786,-0.663002,0.037946,0.053533,0.944765,-0.056438,0.026998,-0.888899,0.087992,-0.052114,0.637625,-0.053175,-0.203566,0.910339,-3.769952,-0.185270,0.341975,-0.290188,0.075199,0.184444,-0.760361,0.078106,-0.788155,1.607054
0.204000,-0.486892,-1.551076,0.282622,0.659164,-0.012817,0.006716,-0.751860,0.006992,-0.180327,0.024153,0.080867,0.361017,0.125384,-0.052564,-0.663210,0.036341,0.053141,0.945413,-0.057073,0.027066,-0.888555,0.086507,-0.052046,0.636289,-0.050478,0.111056,-0.104309,-0.802549,-0.195941,0.323704,-0.317196,0.033970,0.172264,-0.742857,0.034292,-0.667802,1.348444
0.206000,-0.486888,-1.551432,0.282703,0.659299,-0.012454,0.006865,-0.751747,0.002016,-0.178181,0.040495,0.127935,0.368635,0.180005,-0.052701,-0.663375,0.030928,0.052625,0.945867,-0.057518,0.027068,-0.888245,0.084994,-0.052037,0.635000,-0.047965,-0.068756,-0.082399,-2.706521,-0.257952,0.226950,-0.222711,0.001133,0.154626,-0.756282,0.004495,-0.644594,1.256622
0.208000,-0.486900,-1.551811,0.282771,0.659450,-0.012042,0.006899,-0.751620,-0.005825,-0.189567,0.033776,0.247377,0.329092,0.200790,-0.052422,-0.665593,0.031321,0.051910,0.946347,-0.057805,0.027205,-0.888390,0.083933,-0.051905,0.634241,-0.046134,0.139780,-1.109087,0.196603,-0.357589,0.240065,-0.143432,0.068311,-0.072396,-0.530652,0.065762,-0.379554,0.915290
0.210000,-0.486923,-1.552199,0.282857,0.659630,-0.011664,0.006881,-0.751468,-0.011609,-0.193968,0.042980,0.263892,0.270063,0.237741,-0.052466,-0.667615,0.027526,0.051141,0.946743,-0.057802,0.027265,-0.888858,0.083097,-0.051845,0.633826,-0.044721,-0.022085,-1.010663,-1.897285,-0.384206,0.198186,0.001622,0.029889,-0.233998,-0.417767,0.030024,-0.207693,0.706715
0.212000,-0.486975,-1.552619,0.282913,0.659807,-0.011380,0.006834,-0.751318,-0.026044,-0.209568,0.028248,0.223482,0.179167,0.232737,-0.051716,-0.671493,0.029692,0.050521,0.947341,-0.057687,0.027194,-0.889922,0.082805,-0.052150,0.634743,-0.044785,0.375214,-1.939010,1.083025,-0.309993,0.298859,0.057250,-0.035054,-0.532120,-0.146417,-0.152490,0.458850,-0.032026
0.214000,-0.487038,-1.553048,0.282978,0.659994,-0.011166,0.006764,-0.751157,-0.031373,-0.214591,0.032406,0.194763,0.111006,0.248143,-0.051294,-0.674897,0.027976,0.049952,0.947937,-0.057349,0.027019,-0.891286,0.082719,-0.052561,0.636018,-0.045264,0.210724,-1.702112,-0.858290,-0.284619,0.298200,0.169018,-0.087717,-0.681783,-0.042797,-0.205214,0.637111,-0.239590
0.216000,-0.487119,-1.553503,0.283011,0.660163,-0.011024,0.006673,-0.751011,-0.040649,-0.227407,0.016443,0.163260,0.043893,0.222996,-0.050369,-0.679620,0.031699,0.049514,0.948749,-0.056989,0.026804,-0.893056,0.083019,-0.053244,0.638814,-0.047413,0.462332,-2.361737,1.861434,-0.218945,0.406068,0.179919,-0.107349,-0.884861,0.149829,-0.341524,1.398063,-1.074323
0.218000,-0.487195,-1.553959,0.283052,0.660335,-0.010876,0.006538,-0.750864,-0.038184,-0.228111,0.020353,0.199756,0.019314,0.225711,-0.050184,-0.683470,0.031523,0.048988,0.949529,-0.056508,0.026675,-0.894882,0.083343,-0.053870,0.641757,-0.049701,0.092911,-1.924956,-0.087677,-0.262829,0.389645,0.240858,-0.064772,-0.913130,0.162439,-0.313161,1.471831,-1.144266
0.220000,-0.487270,-1.554425,0.283073,0.660484,-0.010681,0.006352,-0.750737,-0.037471,-0.233185,0.010408,0.268834,0.021327,0.194516,-0.050068,-0.687974,0.035521,0.048376,0.950406,-0.056084,0.026750,-0.896742,0.083753,-0.054279,0.645609,-0.053038,0.057852,-2.252041,1.998980,-0.306393,0.438747,0.211725,0.037564,-0.930164,0.204684,-0.204636,1.925793,-1.668404
0.222000,-0.487339,-1.554880,0.283107,0.660630,-0.010457,0.006185,-0.750614,-0.034596,-0.227536,0.017174,0.274595,0.055532,0.190868,-0.050619,-0.691482,0.036331,0.047745,0.951222,-0.055705,0.026860,-0.898329,0.083897,-0.054631,0.649063,-0.055929,-0.275372,-1.753867,0.404836,-0.315046,0.407835,0.189427,0.055227,-0.793566,0.072026,-0.175779,1.726788,-1.445220
0.224000,-0.487417,-1.555328,0.283139,0.660756,-0.010243,0.006100,-0.750506,-0.038649,-0.223740,0.015776,0.206004,0.102893,0.166932,-0.051023,-0.695043,0.039306,0.047299,0.952091,-0.055530,0.026871,-0.899611,0.083769,-0.055142,0.652452,-0.058750,-0.202155,-1.780572,1.487403,-0.223330,0.434582,0.087950,0.005293,-0.640967,-0.063922,-0.255670,1.694614,-1.410461
0.226000,-0.487498,-1.555759,0.283187,0.660875,-0.010032,0.006109,-0.750404,-0.040496,-0.215400,0.024272,0.133091,0.162395,0.157409,-0.051631,-0.697815,0.040295,0.047013,0.952909,-0.055493,0.026750,-0.900466,0.083223,-0.055684,0.655206,-0.060903,-0.304238,-1.386001,0.494867,-0.143099,0.408809,0.018023,-0.060642,-0.427425,-0.272871,-0.270909,1.376938,-1.076862
0.228000,-0.487585,-1.556174,0.283250,0.660981,-0.009827,0.006211,-0.750312,-0.043615,-0.207514,0.031707,0.059464,0.219964,0.142591,-0.052156,-0.700072,0.040691,0.046901,0.953683,-0.055590,0.026496,-0.900918,0.082291,-0.056262,0.657383,-0.062450,-0.262464,-1.128101,0.197921,-0.055595,0.387240,-0.048196,-0.126613,-0.225738,-0.466039,-0.289166,1.088593,-0.773306
0.230000,-0.487673,-1.556576,0.283328,0.661080,-0.009585,0.006342,-0.750227,-0.043810,-0.201143,0.038614,0.062480,0.266401,0.133232,-0.052708,-0.701941,0.040687,0.046803,0.954380,-0.055732,0.026256,-0.901080,0.081101,-0.056748,0.659042,-0.063413,-0.275828,-0.934824,-0.001931,-0.049164,0.348495,-0.071223,-0.120235,-0.080998,-0.595353,-0.242860,0.829430,-0.481405
0.232000,-0.487762,-1.557051,0.283387,0.661161,-0.009400,0.006268,-0.750159,-0.044776,-0.237696,0.029545,0.177682,0.088935,0.106542,-0.052459,-0.706437,0.037631,0.046491,0.955296,-0.055346,0.026317,-0.902251,0.080730,-0.056550,0.663075,-0.066821,0.124635,-2.247913,-1.528272,-0.155993,0.457880,0.193059,0.030727,-0.585406,-0.185188,0.099080,2.016544,-1.704094
0.234000,-0.487846,-1.557583,0.283424,0.661234,-0.009144,0.005951,-0.750101,-0.042156,-0.265858,0.018718,0.407294,-0.018398,0.091462,-0.051561,-0.713733,0.035461,0.045747,0.956337,-0.054579,0.026871,-0.904190,0.081060,-0.055687,0.668314,-0.071304,0.448988,-3.648016,-1.085140,-0.371866,0.520414,0.383610,0.276708,-0.969934,0.165075,0.431711,2.619490,-2.241621
0.236000,-0.487923,-1.558143,0.283446,0.661309,-0.008740,0.005437,-0.750043,-0.038232,-0.280053,0.011010,0.653720,-0.037981,0.092218,-0.050289,-0.723182,0.035636,0.044537,0.957398,-0.053665,0.027904,-0.906479,0.081773,-0.054450,0.673210,-0.075090,0.635908,-4.724227,0.087632,-0.605209,0.530746,0.456736,0.516753,-1.144111,0.356295,0.618022,2.447867,-1.892791
0.238000,-0.488003,-1.558706,0.283469,0.661382,-0.008257,0.004901,-0.749987,-0.039784,-0.281392,0.011344,0.721365,0.007064,0.089901,-0.048773,-0.733342,0.035878,0.043229,0.958446,-0.052839,0.029049,-0.908629,0.082391,-0.053150,0.677335,-0.077872,0.757935,-5.080333,0.121230,-0.654114,0.524159,0.413431,0.572152,-1.075161,0.309013,0.650070,2.062502,-1.391262
0.240000,-0.488100,-1.559252,0.283503,0.661446,-0.007815,0.004538,-0.749938,-0.048906,-0.272883,0.017099,0.564541,0.090737,0.079634,-0.047045,-0.742789,0.033750,0.042284,0.959509,-0.052317,0.029854,-0.910273,0.082527,-0.052225,0.680624,-0.079708,0.864090,-4.723601,-1.064188,-0.472415,0.531204,0.261044,0.402747,-0.821783,0.068140,0.462501,1.644805,-0.918009
0.242000,-0.488211,-1.559768,0.283542,0.661488,-0.007359,0.004344,-0.749907,-0.055533,-0.258035,0.019498,0.447989,0.212987,0.053118,-0.045460,-0.751036,0.033097,0.041652,0.960566,-0.052207,0.030431,-0.911238,0.082107,-0.051556,0.683032,-0.080616,0.792385,-4.123085,-0.326315,-0.316024,0.528561,0.054539,0.288281,-0.482854,-0.210168,0.334733,1.204187,-0.453800
0.244000,-0.488339,-1.560255,0.283586,0.661508,-0.006943,0.004341,-0.749894,-0.063925,-0.243786,0.021867,0.276560,0.309397,0.024521,-0.043964,-0.757805,0.033064,0.041435,0.961640,-0.052465,0.030673,-0.911612,0.081185,-0.051244,0.684770,-0.080826,0.747974,-3.384675,-0.016688,-0.108291,0.537008,-0.128583,0.121377,-0.186848,-0.461058,0.155759,0.868671,-0.104869
0.246000,-0.488476,-1.560725,0.283632,0.661506,-0.006557,0.004439,-0.749898,-0.068171,-0.234831,0.022826,0.182205,0.354740,-0.001987,-0.042630,-0.763432,0.033472,0.041455,0.962714,-0.052882,0.030751,-0.911676,0.080017,-0.051115,0.686177,-0.080629,0.667167,-2.813748,0.204095,0.009978,0.536992,-0.208917,0.038871,-0.032276,-0.583710,0.064546,0.703754,0.098356
0.248000,-0.488608,-1.561191,0.283673,0.661487,-0.006171,0.004507,-0.749918,-0.066458,-0.232965,0.020861,0.204825,0.334449,-0.025135,-0.041632,-0.768238,0.034160,0.041453,0.963772,-0.053205,0.030915,-0.911813,0.078961,-0.050974,0.687793,-0.080503,0.498730,-2.403031,0.343722,-0.001053,0.529295,-0.161440,0.082131,-0.068048,-0.528270,0.070692,0.807587,0.063024
0.250000,-0.488734,-1.561663,0.283707,0.661452,-0.005789,0.004481,-0.749952,-0.062666,-0.236145,0.017017,0.271633,0.269974,-0.047042,-0.041001,-0.772459,0.034988,0.041329,0.964824,-0.053284,0.031264,-0.912257,0.078221,-0.050743,0.690065,-0.080898,0.315533,-2.110443,0.414098,-0.062009,0.525604,-0.039463,0.174167,-0.222047,-0.369793,0.115543,1.136242,-0.197548
0.252000,-0.488850,-1.562148,0.283732,0.661403,-0.005413,0.004330,-0.749998,-0.058070,-0.242387,0.012265,0.361885,0.182785,-0.066247,-0.040735,-0.776273,0.035871,0.041029,0.965874,-0.053044,0.031842,-0.913136,0.077905,-0.050328,0.693231,-0.082087,0.133203,-1.907071,0.441772,-0.149821,0.524916,0.119923,0.288885,-0.439489,-0.157899,0.207546,1.583152,-0.594570
0.254000,-0.488961,-1.562649,0.283756,0.661344,-0.005008,0.004065,-0.750055,-0.055329,-0.250613,0.012236,0.467193,0.128603,-0.081660,-0.040813,-0.779790,0.036840,0.040535,0.966890,-0.052510,0.032653,-0.914310,0.077855,-0.049856,0.697166,-0.075482,-0.039269,-1.758152,0.484550,-0.247281,0.508321,0.267197,0.405616,-0.587300,-0.025129,0.235667,1.967313,3.302347
0.256000,-0.489095,-1.563165,0.283762,0.661252,-0.004871,0.003941,-0.750138,-0.067267,-0.257885,0.002747,0.182653,0.021904,-0.124349,-0.040366,-0.782985,0.037549,0.040649,0.968150,-0.051922,0.032970,-0.915811,0.078016,-0.049567,0.703110,-0.073101,0.223729,-1.597427,0.354299,0.056971,0.630043,0.293785,0.158499,-0.750627,0.080602,0.144910,2.972080,1.190697
0.258000,-0.489250,-1.563690,0.283750,0.661131,-0.004969,0.003964,-0.750244,-0.077198,-0.262775,-0.005993,-0.082098,-0.057624,-0.160731,-0.039426,-0.785916,0.038054,0.041319,0.969631,-0.051357,0.032829,-0.917519,0.078290,-0.049334,0.710789,-0.074339,0.470144,-1.465851,0.252595,0.334893,0.740577,0.282713,-0.070594,-0.853584,0.137008,0.116457,3.839356,-0.619111
0.260000,-0.489406,-1.564213,0.283728,0.661008,-0.005145,0.004046,-0.750350,-0.078427,-0.261252,-0.010885,-0.178450,-0.076743,-0.163047,-0.038382,-0.788654,0.038565,0.042160,0.971190,-0.050878,0.032516,-0.919251,0.078574,-0.049116,0.718687,-0.077124,0.522038,-1.369027,0.255414,0.420549,0.779151,0.239297,-0.156317,-0.866253,0.141993,0.109051,3.949251,-1.392472
0.262000,-0.489540,-1.564720,0.283707,0.660912,-0.005184,0.004034,-0.750435,-0.066996,-0.253752,-0.010415,-0.016385,-0.036621,-0.127911,-0.037817,-0.791283,0.039332,0.042603,0.972619,-0.050457,0.032497,-0.920873,0.078828,-0.048713,0.725214,-0.079334,0.282450,-1.314481,0.383409,0.221859,0.714806,0.210544,-0.009468,-0.810846,0.126893,0.201063,3.263588,-1.105059
0.264000,-0.489635,-1.565208,0.283694,0.660854,-0.004940,0.003830,-0.750489,-0.047429,-0.243954,-0.006434,0.314090,0.048879,-0.079278,-0.038122,-0.793910,0.040585,0.042294,0.973802,-0.050082,0.033094,-0.922260,0.078990,-0.047776,0.730229,-0.080620,-0.152616,-1.313310,0.626351,-0.154866,0.591421,0.187606,0.298409,-0.693403,0.080807,0.468896,2.507028,-0.642651
0.266000,-0.489711,-1.565674,0.283694,0.660829,-0.004530,0.003574,-0.750514,-0.037959,-0.233016,-0.000272,0.462978,0.138683,-0.035157,-0.038847,-0.796425,0.042133,0.041620,0.974804,-0.049856,0.033921,-0.923298,0.078894,-0.046670,0.733938,-0.081097,-0.362389,-1.257479,0.774018,-0.336748,0.500863,0.113233,0.413806,-0.519352,-0.047905,0.553051,1.854617,-0.238849
0.268000,-0.489795,-1.566119,0.283705,0.660829,-0.004127,0.003444,-0.750517,-0.041980,-0.222435,0.005854,0.363583,0.216456,-0.001411,-0.039434,-0.798750,0.043759,0.041114,0.975751,-0.049902,0.034469,-0.923930,0.078406,-0.045896,0.736655,-0.081037,-0.293615,-1.162324,0.813260,-0.253278,0.473410,-0.023332,0.273766,-0.315660,-0.244192,0.386994,1.358427,0.030182
0.270000,-0.489904,-1.566549,0.283727,0.660845,-0.003856,0.003527,-0.750504,-0.054275,-0.214781,0.010528,0.117733,0.258252,0.022022,-0.039546,-0.800863,0.045263,0.041090,0.976734,-0.050212,0.034446,-0.924256,0.077564,-0.045736,0.738748,-0.080750,-0.056138,-1.056616,0.751884,-0.011801,0.491605,-0.154864,-0.011560,-0.163381,-0.420969,0.079751,1.046645,0.143426
0.272000,-0.490043,-1.566972,0.283751,0.660871,-0.003779,0.003831,-0.750480,-0.069454,-0.211472,0.012394,-0.177516,0.258310,0.037233,-0.039061,-0.802800,0.046515,0.041656,0.977818,-0.050714,0.033769,-0.924461,0.076508,-0.046268,0.740564,-0.080518,0.242635,-0.968639,0.625898,0.282883,0.541806,-0.250803,-0.338306,-0.102351,-0.527779,-0.266117,0.908024,0.115982
0.274000,-0.490187,-1.567400,0.283775,0.660910,-0.003768,0.004149,-0.750445,-0.072331,-0.213926,0.011853,-0.231401,0.218900,0.053359,-0.038492,-0.804722,0.047592,0.042303,0.978920,-0.051138,0.032958,-0.924851,0.075577,-0.046965,0.742287,-0.080386,0.284605,-0.960804,0.538819,0.323742,0.551388,-0.212207,-0.405486,-0.195015,-0.465297,-0.348515,0.861670,0.066246
0.276000,-0.490292,-1.567872,0.283779,0.660988,-0.003564,0.003990,-0.750377,-0.052149,-0.236362,0.001745,0.254143,0.046653,0.103467,-0.039002,-0.806997,0.048512,0.041677,0.980453,-0.051374,0.032802,-0.928089,0.078841,-0.046757,0.744321,-0.080472,-0.255212,-1.137545,0.459950,-0.313087,0.766249,-0.117873,-0.078079,-1.618719,1.631849,0.104293,1.017065,-0.043115
0.278000,-0.490375,-1.568379,0.283772,0.661077,-0.003305,0.003569,-0.750302,-0.041924,-0.253325,-0.003252,0.486875,-0.083987,0.115846,-0.040013,-0.809449,0.049198,0.040432,0.982276,-0.051397,0.033321,-0.932569,0.082812,-0.046094,0.746677,-0.080827,-0.505213,-1.226004,0.342790,-0.622443,0.911643,-0.011824,0.259343,-2.240028,1.985654,0.331415,1.177547,-0.177723
0.280000,-0.490470,-1.568911,0.283752,0.661157,-0.003182,0.003175,-0.750234,-0.047469,-0.266077,-0.010107,0.377606,-0.169109,0.104306,-0.040773,-0.811936,0.049602,0.039294,0.985035,-0.052009,0.033941,-0.937460,0.086673,-0.045652,0.749392,-0.081598,-0.380193,-1.243430,0.202060,-0.569121,1.379466,-0.305640,0.310024,-2.445782,1.930503,0.220939,1.357523,-0.385274
0.282000,-0.490605,-1.569454,0.283732,0.661207,-0.003351,0.003103,-0.750190,-0.067214,-0.271494,-0.009919,-0.058165,-0.174353,0.066348,-0.040567,-0.814234,0.049682,0.039429,0.988315,-0.052916,0.034488,-0.940992,0.082266,-0.046058,0.752293,-0.082690,0.102861,-1.149159,0.040020,0.067329,1.639823,-0.453766,0.273391,-1.765752,-2.203504,-0.203007,1.450961,-0.546196
0.284000,-0.490760,-1.570015,0.283673,0.661278,-0.003667,0.003106,-0.750125,-0.077707,-0.280639,-0.029636,-0.210766,-0.235738,0.095240,-0.040072,-0.816666,0.049668,0.039454,0.993442,-0.058867,0.033974,-0.946441,0.084186,-0.046862,0.755504,-0.084232,0.247780,-1.215872,-0.006728,0.012682,2.563478,-2.975408,-0.256868,-2.724386,0.959712,-0.401864,1.605211,-0.770684
0.286000,-0.490906,-1.570591,0.283600,0.661350,-0.003887,0.002905,-0.750061,-0.072826,-0.287590,-0.036209,0.005155,-0.298216,0.094649,-0.039992,-0.819260,0.049704,0.039447,0.998344,-0.061713,0.033839,-0.952800,0.089871,-0.047253,0.758829,-0.085825,0.039600,-1.296932,0.017814,-0.003522,2.451340,-1.423166,-0.067601,-3.179837,2.842473,-0.195614,1.662632,-0.796637
0.288000,-0.491027,-1.571175,0.283490,0.661450,-0.003932,0.002472,-0.749975,-0.060551,-0.292049,-0.055223,0.295039,-0.321237,0.130023,-0.040571,-0.822127,0.050067,0.038339,1.004727,-0.070049,0.033804,-0.960853,0.103349,-0.047113,0.762108,-0.087398,-0.289496,-1.433626,0.181245,-0.553872,3.191542,-4.168018,-0.017554,-4.026473,6.738938,0.069994,1.639563,-0.786678
0.290000,-0.491152,-1.571748,0.283395,0.661510,-0.003953,0.002130,-0.749923,-0.062619,-0.286812,-0.047580,0.242250,-0.242243,0.078176,-0.040962,-0.824842,0.050576,0.038349,1.010319,-0.074713,0.034986,-0.966347,0.108390,-0.046996,0.765049,-0.088635,-0.195249,-1.357630,0.254746,0.005040,2.796042,-2.331825,0.591422,-2.747060,2.520420,0.058286,1.470549,-0.618337
0.292000,-0.491287,-1.572313,0.283271,0.661589,-0.003998,0.001906,-0.749853,-0.067358,-0.282442,-0.061919,0.138882,-0.182220,0.104387,-0.041184,-0.827585,0.051325,0.038308,1.017524,-0.086889,0.035590,-0.972249,0.116874,-0.047148,0.767759,-0.089806,-0.110764,-1.371509,0.374261,-0.020571,3.602440,-6.087792,0.301937,-2.950904,4.242235,-0.075646,1.355018,-0.585308
0.294000,-0.491430,-1.572871,0.283159,0.661653,-0.004012,0.001695,-0.749798,-0.071542,-0.278957,-0.056027,0.149256,-0.149973,0.083218,-0.041361,-0.830248,0.052122,0.039375,1.023591,-0.094171,0.036646,-0.977252,0.122932,-0.047276,0.770254,-0.090729,-0.088735,-1.331369,0.398587,0.533292,3.033127,-3.641331,0.527972,-2.501485,3.029219,-0.064269,1.247453,-0.461584
0.296000,-0.491571,-1.573431,0.283011,0.661764,-0.003968,0.001390,-0.749700,-0.070500,-0.279744,-0.073736,0.258082,-0.169724,0.147516,-0.041842,-0.833096,0.053069,0.039718,1.031145,-0.108186,0.036576,-0.984845,0.139758,-0.047320,0.772723,-0.091707,-0.240387,-1.424027,0.473617,0.171398,3.777107,-7.007445,-0.034980,-3.796489,8.412629,-0.022111,1.234121,-0.489399
0.298000,-0.491716,-1.573988,0.282883,0.661858,-0.003901,0.001087,-0.749618,-0.072732,-0.278946,-0.064029,0.271554,-0.150321,0.123543,-0.042292,-0.835839,0.053962,0.040973,1.037662,-0.117149,0.037183,-0.991401,0.151798,-0.047313,0.775049,-0.092475,-0.225316,-1.371319,0.446443,0.627835,3.258456,-4.481305,0.303187,-3.277901,6.020327,0.003486,1.163099,-0.383930
0.300000,-0.491858,-1.574548,0.282735,0.661984,-0.003817,0.000777,-0.749508,-0.070917,-0.279698,-0.074314,0.288468,-0.142912,0.165358,-0.042852,-0.838647,0.054923,0.041466,1.045862,-0.133283,0.037272,-0.999165,0.167649,-0.047338,0.777313,-0.093257,-0.279915,-1.404300,0.480602,0.246304,4.100380,-8.066948,0.044830,-3.881854,7.925194,-0.012206,1.132252,-0.390923
0.302000,-0.492000,-1.575109,0.282611,0.662087,-0.003710,0.000455,-0.749418,-0.070831,-0.280810,-0.061896,0.312166,-0.133672,0.136219,-0.043406,-0.841336,0.055766,0.042637,1.053176,-0.144454,0.038327,-1.005706,0.176904,-0.047267,0.779494,-0.093859,-0.276955,-1.344300,0.421483,0.585696,3.656848,-5.585393,0.527301,-3.270761,4.627504,0.035478,1.090382,-0.300786
0.304000,-0.492137,-1.575676,0.282465,0.662229,-0.003585,0.000051,-0.749293,-0.068594,-0.283314,-0.073083,0.386352,-0.174646,0.188193,-0.044185,-0.844140,0.056580,0.042838,1.062005,-0.161867,0.038527,-1.014386,0.193710,-0.047142,0.781775,-0.094605,-0.389438,-1.402158,0.406941,0.100536,4.414556,-8.706693,0.100057,-4.339967,8.403237,0.062295,1.140719,-0.373103
0.306000,-0.492281,-1.576245,0.282338,0.662357,-0.003478,-0.000368,-0.749180,-0.072029,-0.284436,-0.063118,0.385527,-0.197260,0.168955,-0.044903,-0.846847,0.057196,0.043741,1.069936,-0.174312,0.039138,-1.022670,0.207855,-0.047008,0.784104,-0.095314,-0.359143,-1.353352,0.307823,0.451427,3.965364,-6.222458,0.305621,-4.142159,7.072275,0.066932,1.164020,-0.354485
0.308000,-0.492432,-1.576810,0.282198,0.662510,-0.003423,-0.000750,-0.749045,-0.075333,-0.282453,-0.070314,0.323032,-0.212446,0.203125,-0.045537,-0.849556,0.057738,0.044144,1.079092,-0.192496,0.038888,-1.032202,0.227370,-0.047071,0.786480,-0.096156,-0.316661,-1.354832,0.271435,0.201221,4.578025,-9.092129,-0.125175,-4.765723,9.757843,-0.031130,1.188362,-0.421124
0.310000,-0.492591,-1.577369,0.282083,0.662635,-0.003407,-0.001062,-0.748934,-0.079650,-0.279483,-0.057389,0.244389,-0.195442,0.166116,-0.045938,-0.852085,0.058131,0.045432,1.087333,-0.206455,0.039419,-1.040225,0.241076,-0.047236,0.788787,-0.096881,-0.200651,-1.264180,0.196362,0.644335,4.120356,-6.979673,0.265546,-4.011570,6.852831,-0.082766,1.153368,-0.362496
0.312000,-0.492746,-1.577918,0.281961,0.662776,-0.003369,-0.001390,-0.748809,-0.077367,-0.274514,-0.061234,0.270953,-0.188746,0.186870,-0.046427,-0.854612,0.058567,0.046122,1.096366,-0.225375,0.039680,-1.048703,0.258535,-0.047379,0.791013,-0.097586,-0.244572,-1.263701,0.217755,0.344802,4.516591,-9.459815,0.130595,-4.239142,8.729463,-0.071159,1.112975,-0.352402
0.314000,-0.492896,-1.578461,0.281859,0.662898,-0.003274,-0.001776,-0.748701,-0.075001,-0.271353,-0.050535,0.353692,-0.184960,0.161026,-0.047031,-0.857056,0.058962,0.047234,1.104369,-0.240326,0.040779,-1.056191,0.273313,-0.047313,0.793143,-0.098117,-0.301813,-1.221698,0.197808,0.556113,4.001527,-7.475577,0.549438,-3.743708,7.388842,0.033039,1.064855,-0.265389
0.316000,-0.493041,-1.578991,0.281756,0.663033,-0.003131,-0.002209,-0.748581,-0.072581,-0.265046,-0.051843,0.419053,-0.180400,0.179113,-0.047784,-0.859501,0.059414,0.047889,1.112574,-0.258449,0.041569,-1.064072,0.292517,-0.047149,0.795162,-0.098575,-0.376755,-1.222633,0.225872,0.327448,4.102250,-9.061550,0.394742,-3.940519,9.602270,0.081983,1.009799,-0.228884
0.318000,-0.493195,-1.579511,0.281673,0.663151,-0.003013,-0.002583,-0.748475,-0.077053,-0.260163,-0.041341,0.358963,-0.159484,0.156733,-0.048357,-0.861808,0.059785,0.049217,1.119855,-0.273619,0.042683,-1.070869,0.308815,-0.047080,0.797072,-0.098901,-0.286300,-1.153768,0.185698,0.663770,3.640606,-7.584930,0.556990,-3.398802,8.148953,0.034087,0.955012,-0.163478
0.320000,-0.493360,-1.580015,0.281596,0.663273,-0.002949,-0.002845,-0.748366,-0.082511,-0.251748,-0.038698,0.239321,-0.125496,0.163171,-0.048680,-0.864004,0.060138,0.050608,1.127127,-0.291638,0.043290,-1.077255,0.326267,-0.047272,0.798834,-0.099163,-0.161477,-1.097657,0.176098,0.695598,3.636340,-9.009409,0.303744,-3.192906,8.725783,-0.095678,0.880712,-0.130727
0.322000,-0.493528,-1.580512,0.281538,0.663384,-0.002879,-0.003098,-0.748267,-0.083720,-0.248787,-0.029063,0.235710,-0.115323,0.147835,-0.048955,-0.866107,0.060422,0.052248,1.133644,-0.307450,0.044191,-1.082825,0.341250,-0.047446,0.800515,-0.099307,-0.137724,-1.051442,0.142194,0.820110,3.258391,-7.906226,0.450449,-2.785195,7.491707,-0.086999,0.840877,-0.071841
0.324000,-0.493688,-1.580999,0.281489,0.663498,-0.002748,-0.003410,-0.748165,-0.080008,-0.243382,-0.024398,0.320985,-0.109165,0.152074,-0.049402,-0.868184,0.060733,0.053472,1.139719,-0.324255,0.045062,-1.088137,0.357797,-0.047447,0.802080,-0.099325,-0.223517,-1.038896,0.155409,0.611882,3.037434,-8.402134,0.435562,-2.655621,8.273393,-0.000667,0.782333,-0.008993
0.326000,-0.493843,-1.581484,0.281455,0.663607,-0.002572,-0.003792,-0.748067,-0.077469,-0.242545,-0.016676,0.403807,-0.121323,0.144635,-0.049992,-0.870237,0.060990,0.054491,1.145139,-0.339279,0.046133,-1.093115,0.373597,-0.047266,0.803628,-0.099261,-0.294676,-1.026476,0.128450,0.509780,2.709802,-7.512011,0.535249,-2.489412,7.900106,0.090652,0.773716,0.031763
0.328000,-0.494001,-1.581956,0.281436,0.663710,-0.002398,-0.004143,-0.747975,-0.079031,-0.236068,-0.009703,0.378728,-0.102863,0.136089,-0.050501,-0.872198,0.061223,0.055529,1.149800,-0.354387,0.047107,-1.097275,0.389094,-0.047120,0.805065,-0.099100,-0.254939,-0.980252,0.116484,0.518766,2.330718,-7.553962,0.487232,-2.079628,7.748441,0.072963,0.718902,0.080771
0.330000,-0.494167,-1.582424,0.281429,0.663805,-0.002268,-0.004442,-0.747889,-0.083195,-0.233783,-0.003428,0.309763,-0.101182,0.126818,-0.050837,-0.874078,0.061358,0.056603,1.153975,-0.368949,0.047859,-1.100905,0.403410,-0.047103,0.806507,-0.098939,-0.167760,-0.939911,0.067524,0.537096,2.087549,-7.281124,0.376204,-1.815023,7.157959,0.008404,0.720875,0.080262
0.332000,-0.494345,-1.582875,0.281439,0.663883,-0.002190,-0.004635,-0.747819,-0.088824,-0.225698,0.005051,0.197026,-0.069937,0.104908,-0.050891,-0.875807,0.061445,0.058118,1.157040,-0.382802,0.048532,-1.103138,0.415977,-0.047280,0.807836,-0.098699,-0.027244,-0.864798,0.043428,0.757733,1.532598,-6.926543,0.336416,-1.116440,6.283484,-0.088587,0.664579,0.119908
0.334000,-0.494519,-1.583324,0.281457,0.663957,-0.002091,-0.004877,-0.747752,-0.087335,-0.224553,0.009008,0.247843,-0.086025,0.098795,-0.051028,-0.877530,0.061493,0.059221,1.159621,-0.396454,0.049106,-1.105108,0.429081,-0.047342,0.809202,-0.098464,-0.068451,-0.861296,0.023951,0.551407,1.290206,-6.826120,0.286959,-0.985209,6.552004,-0.030940,0.682813,0.117559
0.336000,-0.494689,-1.583760,0.281494,0.664009,-0.001936,-0.005156,-0.747704,-0.084902,-0.217840,0.018464,0.311168,-0.069556,0.068831,-0.051240,-0.879172,0.061574,0.060476,1.160665,-0.407806,0.050197,-1.105522,0.440517,-0.047217,0.810450,-0.098075,-0.105839,-0.821199,0.040970,0.627188,0.521952,-5.676060,0.545635,-0.207089,5.718181,0.062292,0.623968,0.194669
0.338000,-0.494855,-1.584194,0.281535,0.664058,-0.001759,-0.005486,-0.747659,-0.082926,-0.216890,0.020608,0.364866,-0.086434,0.065189,-0.051547,-0.880825,0.061637,0.061136,1.161346,-0.419773,0.051093,-1.105722,0.452917,-0.046976,0.811743,-0.097708,-0.153408,-0.826372,0.031268,0.330235,0.340647,-5.983397,0.447778,-0.099977,6.199960,0.120954,0.646784,0.183253
0.340000,-0.495029,-1.584610,0.281598,0.664080,-0.001603,-0.005731,-0.747637,-0.086959,-0.208363,0.031515,0.286887,-0.045527,0.029700,-0.051629,-0.882318,0.061693,0.062426,1.160350,-0.429262,0.052286,-1.103897,0.461765,-0.046833,0.812871,-0.097181,-0.040905,-0.746557,0.027980,0.644814,-0.497765,-4.744432,0.596345,0.912380,4.423969,0.071281,0.563749,0.263439
0.342000,-0.495207,-1.585025,0.281663,0.664105,-0.001476,-0.005957,-0.747614,-0.089221,-0.207085,0.032286,0.253451,-0.054907,0.032637,-0.051635,-0.883798,0.061697,0.063214,1.159151,-0.440176,0.052835,-1.101987,0.471772,-0.046769,0.814042,-0.096711,-0.003006,-0.739770,0.002275,0.393942,-0.599656,-5.456990,0.274401,0.955155,5.003241,0.031794,0.585633,0.235098
0.344000,-0.495394,-1.585423,0.281752,0.664100,-0.001368,-0.006109,-0.747617,-0.093382,-0.199075,0.044609,0.185472,-0.020308,-0.006250,-0.051430,-0.885109,0.061665,0.064757,1.156024,-0.447339,0.053717,-1.098010,0.477850,-0.046783,0.815060,-0.096074,0.102236,-0.655491,-0.016373,0.771797,-1.563671,-3.581445,0.441137,1.988485,3.039310,-0.006540,0.509044,0.318638
0.346000,-0.495574,-1.585822,0.281840,0.664103,-0.001227,-0.006342,-0.747613,-0.090173,-0.199737,0.044035,0.267103,-0.049692,0.003361,-0.051403,-0.886470,0.061604,0.065336,1.152781,-0.456037,0.054063,-1.094304,0.486330,-0.046647,0.816153,-0.095487,0.013711,-0.680715,-0.030194,0.289595,-1.621464,-4.349031,0.172967,1.853212,4.239969,0.067939,0.546167,0.293676
0.348000,-0.495753,-1.586208,0.281953,0.664076,-0.001048,-0.006583,-0.747636,-0.089179,-0.193182,0.056095,0.299549,-0.026239,-0.036521,-0.051378,-0.887709,0.061544,0.066378,1.147596,-0.460550,0.055083,-1.088563,0.490667,-0.046374,0.817100,-0.094703,0.012300,-0.619492,-0.030248,0.520693,-2.592296,-2.256520,0.509967,2.870234,2.168471,0.136356,0.473784,0.391547
0.350000,-0.495928,-1.586596,0.282059,0.664058,-0.000865,-0.006869,-0.747649,-0.087563,-0.193881,0.053452,0.334775,-0.052951,-0.024048,-0.051443,-0.888993,0.061448,0.066434,1.142511,-0.467526,0.055427,-1.083125,0.497324,-0.046053,0.818139,-0.094013,-0.032370,-0.642079,-0.048037,0.028235,-2.542739,-3.488177,0.172168,2.719100,3.328378,0.160623,0.519352,0.345162
0.352000,-0.496115,-1.586969,0.282188,0.664007,-0.000730,-0.007051,-0.747692,-0.093340,-0.186484,0.064300,0.225848,-0.020555,-0.067432,-0.051211,-0.890100,0.061294,0.067401,1.135555,-0.470357,0.056157,-1.075542,0.498876,-0.045887,0.819065,-0.093208,0.116160,-0.553249,-0.076737,0.483361,-3.477771,-1.415084,0.365010,3.791370,0.776234,0.083041,0.463267,0.402598
0.354000,-0.496303,-1.587344,0.282307,0.663967,-0.000620,-0.007251,-0.747726,-0.093977,-0.187565,0.059324,0.222401,-0.051110,-0.053795,-0.050987,-0.891255,0.061093,0.067536,1.128766,-0.475670,0.056066,-1.068394,0.503127,-0.045760,0.820126,-0.092556,0.111596,-0.577768,-0.100733,0.067742,-3.394468,-2.656740,-0.045401,3.574217,2.125087,0.063480,0.530095,0.325985
0.356000,-0.496495,-1.587708,0.282444,0.663893,-0.000512,-0.007423,-0.747790,-0.096098,-0.181605,0.068544,0.199506,-0.033376,-0.098313,-0.050645,-0.892286,0.060872,0.068461,1.120096,-0.476030,0.056626,-1.059284,0.502602,-0.045610,0.821108,-0.091794,0.171208,-0.515613,-0.110345,0.462394,-4.335325,-0.180081,0.279725,4.554831,-0.262128,0.074730,0.491065,0.380846
0.358000,-0.496680,-1.588075,0.282566,0.663832,-0.000379,-0.007681,-0.747843,-0.092457,-0.183796,0.061173,0.281006,-0.071995,-0.082056,-0.050497,-0.893424,0.060664,0.068320,1.111692,-0.479037,0.056617,-1.050754,0.505302,-0.045327,0.822231,-0.091176,0.074074,-0.568553,-0.104297,-0.070762,-4.202025,-1.503305,-0.004239,4.265186,1.349709,0.141564,0.561738,0.309029
0.360000,-0.496867,-1.588432,0.282701,0.663740,-0.000242,-0.007918,-0.747921,-0.093749,-0.178481,0.067424,0.267276,-0.055696,-0.121971,-0.050260,-0.894465,0.060466,0.068840,1.101710,-0.477840,0.057259,-1.040485,0.503423,-0.045010,0.823288,-0.090471,0.118532,-0.520666,-0.098954,0.260269,-4.991020,0.598605,0.320938,5.134450,-0.939225,0.158440,0.528485,0.352359
0.362000,-0.497054,-1.588793,0.282817,0.663661,-0.000122,-0.008180,-0.747988,-0.093539,-0.180339,0.057976,0.275241,-0.084691,-0.104246,-0.050067,-0.895595,0.060278,0.068538,1.092149,-0.479726,0.057191,-1.030808,0.504421,-0.044718,0.824486,-0.089944,0.096308,-0.565060,-0.094073,-0.151084,-4.780106,-0.943023,-0.033808,4.838556,0.498625,0.146239,0.598708,0.263918
0.364000,-0.497250,-1.589144,0.282940,0.663556,-0.000034,-0.008381,-0.748080,-0.097872,-0.175632,0.061746,0.208003,-0.069066,-0.140728,-0.049677,-0.896629,0.060084,0.069071,1.081255,-0.477546,0.057577,-1.019663,0.500979,-0.044515,0.825649,-0.089384,0.194925,-0.517206,-0.096667,0.266256,-5.446996,1.089906,0.192802,5.572333,-1.720700,0.101445,0.581548,0.279967
0.366000,-0.497445,-1.589501,0.283043,0.663463,0.000048,-0.008623,-0.748160,-0.097311,-0.178341,0.051192,0.234957,-0.100190,-0.122788,-0.049370,-0.897772,0.059919,0.068898,1.070805,-0.477833,0.057370,-1.009220,0.500413,-0.044302,0.826957,-0.088998,0.153443,-0.571140,-0.082595,-0.086408,-5.225058,-0.143585,-0.103331,5.221656,-0.283012,0.106559,0.654316,0.192872
0.368000,-0.497641,-1.589853,0.283145,0.663351,0.000137,-0.008869,-0.748256,-0.098201,-0.175941,0.051172,0.242127,-0.097753,-0.148571,-0.049039,-0.898890,0.059791,0.069216,1.059453,-0.474889,0.057648,-0.997864,0.496806,-0.044044,0.828263,-0.088599,0.165526,-0.559006,-0.063839,0.158974,-5.676078,1.472202,0.138838,5.678093,-1.803415,0.128859,0.652936,0.199318
0.370000,-0.497834,-1.590211,0.283224,0.663252,0.000235,-0.009168,-0.748340,-0.096602,-0.179292,0.039534,0.287781,-0.125376,-0.130090,-0.048834,-0.900131,0.059723,0.068865,1.048680,-0.474421,0.057517,-0.987252,0.495791,-0.043738,0.829698,-0.088356,0.102587,-0.620593,-0.034285,-0.175262,-5.386329,0.233708,-0.065376,5.305642,-0.507617,0.153033,0.717600,0.121774
0.372000,-0.498032,-1.590568,0.283295,0.663142,0.000318,-0.009446,-0.748434,-0.098892,-0.178235,0.035456,0.262130,-0.123742,-0.146069,-0.048554,-0.901371,0.059697,0.068934,1.037537,-0.472265,0.057671,-0.976169,0.492692,-0.043474,0.831161,-0.088156,0.140264,-0.620025,-0.012801,0.034462,-5.571854,1.078222,0.076923,5.541818,-1.549730,0.131736,0.731375,0.099989
0.374000,-0.498232,-1.590931,0.283344,0.663041,0.000385,-0.009736,-0.748520,-0.099939,-0.181479,0.024200,0.260989,-0.142910,-0.133053,-0.048292,-0.902706,0.059720,0.068722,1.026975,-0.471818,0.057525,-0.965729,0.491225,-0.043254,0.832742,-0.088107,0.130712,-0.667666,0.011307,-0.106304,-5.281140,0.223486,-0.073009,5.220118,-0.733171,0.110098,0.790486,0.024446
0.376000,-0.498436,-1.591296,0.283375,0.662936,0.000438,-0.010022,-0.748609,-0.102000,-0.182547,0.015840,0.248170,-0.150534,-0.137698,-0.047999,-0.904089,0.059800,0.068791,1.016532,-0.470982,0.057529,-0.955392,0.489500,-0.043075,0.834396,-0.088155,0.146802,-0.691570,0.040272,0.034704,-5.221447,0.418033,0.002141,5.168337,-0.862846,0.089867,0.827105,-0.024122
0.378000,-0.498641,-1.591668,0.283386,0.662837,0.000493,-0.010335,-0.748692,-0.102347,-0.186185,0.005534,0.270557,-0.167388,-0.129951,-0.047765,-0.905567,0.059943,0.068788,1.006639,-0.470864,0.057532,-0.945649,0.488790,-0.042882,0.836150,-0.088317,0.116863,-0.738573,0.071124,-0.001563,-4.946232,0.059045,0.001174,4.871194,-0.354845,0.096076,0.876610,-0.080836
0.380000,-0.498848,-1.592036,0.283401,0.662726,0.000564,-0.010638,-0.748786,-0.103790,-0.183822,0.007470,0.272068,-0.149019,-0.145233,-0.047512,-0.906994,0.060114,0.069354,0.996283,-0.467505,0.057987,-0.935338,0.484747,-0.042677,0.837793,-0.088354,0.126608,-0.713902,0.085545,0.283032,-5.178092,1.679089,0.227370,5.155721,-2.021280,0.102661,0.821500,-0.018596
0.382000,-0.499055,-1.592402,0.283409,0.662626,0.000660,-0.010955,-0.748870,-0.103295,-0.183326,0.003781,0.300490,-0.139206,-0.131494,-0.047341,-0.908446,0.060340,0.069791,0.986170,-0.464693,0.058340,-0.925270,0.481086,-0.042450,0.839348,-0.088318,0.085487,-0.725828,0.113119,0.218473,-5.056234,1.406454,0.176601,5.033883,-1.830483,0.113460,0.777576,0.018261
0.384000,-0.499263,-1.592755,0.283437,0.662515,0.000796,-0.011258,-0.748963,-0.103886,-0.176478,0.014214,0.316656,-0.100631,-0.146193,-0.047179,-0.909766,0.060562,0.070827,0.975066,-0.457256,0.059133,-0.914179,0.472859,-0.042175,0.840625,-0.087974,0.081042,-0.659966,0.111175,0.517971,-5.552195,3.718062,0.396567,5.545803,-4.113528,0.137531,0.638469,0.171874
0.386000,-0.499467,-1.593102,0.283461,0.662432,0.000972,-0.011583,-0.749032,-0.102021,-0.173292,0.011805,0.359371,-0.084318,-0.109804,-0.047161,-0.911100,0.060828,0.071269,0.964210,-0.452542,0.059334,-0.903516,0.467449,-0.041882,0.841727,-0.087494,0.008803,-0.666867,0.133046,0.221176,-5.428245,2.357028,0.100518,5.331157,-2.704911,0.146594,0.551035,0.240093
0.388000,-0.499672,-1.593433,0.283510,0.662345,0.001177,-0.011894,-0.749104,-0.102615,-0.165561,0.024595,0.367396,-0.053054,-0.115075,-0.047146,-0.912279,0.061024,0.072063,0.952323,-0.443697,0.059706,-0.891922,0.458204,-0.041568,0.842558,-0.086716,0.007334,-0.589827,0.097813,0.396751,-5.943196,4.422690,0.185958,5.796944,-4.622558,0.156773,0.415488,0.388700
0.390000,-0.499875,-1.593759,0.283556,0.662287,0.001395,-0.012215,-0.749150,-0.101367,-0.162971,0.023081,0.384560,-0.050133,-0.075958,-0.047226,-0.913460,0.061191,0.072122,0.940721,-0.437913,0.059368,-0.880803,0.451929,-0.041288,0.843287,-0.085878,-0.039907,-0.590320,0.083735,0.029669,-5.801323,2.892221,-0.168987,5.559494,-3.137450,0.140269,0.364770,0.419219
0.392000,-0.500082,-1.594073,0.283633,0.662215,0.001598,-0.012502,-0.749208,-0.103800,-0.156854,0.038606,0.348421,-0.039444,-0.094681,-0.047195,-0.914452,0.061179,0.072674,0.928025,-0.426320,0.059361,-0.868609,0.439800,-0.041050,0.843876,-0.084852,0.015367,-0.495973,-0.006245,0.276048,-6.348008,5.796398,-0.003364,6.097277,-6.064758,0.118969,0.294458,0.513085
0.394000,-0.500288,-1.594387,0.283705,0.662168,0.001788,-0.012807,-0.749244,-0.102678,-0.157033,0.035609,0.354501,-0.060615,-0.060321,-0.047230,-0.915467,0.061086,0.072425,0.915763,-0.417633,0.058737,-0.857017,0.430419,-0.040855,0.844512,-0.083903,-0.017062,-0.507604,-0.046614,-0.124376,-6.130892,4.343262,-0.312037,5.795941,-4.690462,0.097355,0.318090,0.474397
0.396000,-0.500496,-1.594696,0.283800,0.662106,0.001952,-0.013114,-0.749293,-0.104061,-0.154642,0.047643,0.337717,-0.081217,-0.080895,-0.047191,-0.916351,0.060784,0.072479,0.902679,-0.403250,0.058518,-0.844684,0.415798,-0.040658,0.845182,-0.082925,0.019501,-0.442157,-0.150669,0.027037,-6.542007,7.191354,-0.109562,6.166483,-7.310585,0.098812,0.334789,0.488659
0.398000,-0.500702,-1.595011,0.283878,0.662071,0.002086,-0.013446,-0.749318,-0.103057,-0.157622,0.039031,0.337438,-0.119568,-0.043779,-0.047208,-0.917321,0.060421,0.071621,0.890351,-0.392996,0.057626,-0.833285,0.405270,-0.040521,0.846026,-0.082166,-0.008749,-0.484885,-0.181796,-0.429365,-6.163783,5.127439,-0.445888,5.699645,-5.264090,0.068360,0.421990,0.379516
0.400000,-0.500913,-1.595324,0.283972,0.662018,0.002181,-0.013763,-0.749358,-0.105735,-0.156505,0.046838,0.299805,-0.139159,-0.067084,-0.047103,-0.918204,0.059911,0.071144,0.877415,-0.377563,0.057135,-0.821263,0.389629,-0.040423,0.846948,-0.081441,0.052764,-0.441145,-0.255077,-0.238511,-6.467927,7.716542,-0.245418,6.010832,-7.820174,0.049040,0.460912,0.362535
0.402000,-0.501126,-1.595643,0.284043,0.661986,0.002244,-0.014082,-0.749380,-0.106250,-0.159387,0.035938,0.280854,-0.164660,-0.038306,-0.046999,-0.919191,0.059419,0.070041,0.865224,-0.365852,0.056103,-0.810053,0.377375,-0.040415,0.848026,-0.080930,0.051776,-0.493808,-0.245883,-0.551459,-6.095912,5.855066,-0.515956,5.604965,-6.126932,0.003877,0.539060,0.255629
0.404000,-0.501343,-1.595959,0.284128,0.661932,0.002290,-0.014396,-0.749422,-0.108828,-0.158105,0.042397,0.264951,-0.173980,-0.068311,-0.046804,-0.920118,0.058866,0.069498,0.852372,-0.348169,0.055641,-0.798156,0.359514,-0.040396,0.849142,-0.080410,0.097686,-0.463603,-0.276266,-0.271279,-6.425708,8.841656,-0.231265,5.948476,-8.930569,0.009456,0.558082,0.259965
0.406000,-0.501560,-1.596281,0.284187,0.661899,0.002337,-0.014727,-0.749445,-0.108565,-0.160671,0.029488,0.278830,-0.184703,-0.039670,-0.046675,-0.921187,0.058436,0.068415,0.840261,-0.334197,0.054733,-0.787092,0.345324,-0.040406,0.850345,-0.080038,0.064084,-0.534195,-0.215373,-0.541745,-6.055406,6.986244,-0.453943,5.532340,-7.095085,-0.004789,0.601350,0.185941
0.408000,-0.501779,-1.596600,0.284252,0.661851,0.002402,-0.015075,-0.749480,-0.109446,-0.159690,0.032337,0.303534,-0.181961,-0.059281,-0.046557,-0.922247,0.058043,0.067730,0.827716,-0.315671,0.054316,-0.775592,0.326976,-0.040341,0.851520,-0.079606,0.059079,-0.530100,-0.196186,-0.342516,-6.272610,9.262922,-0.208587,5.749731,-9.174263,0.032097,0.587870,0.215971
0.410000,-0.501999,-1.596923,0.284289,0.661827,0.002478,-0.015426,-0.749494,-0.109695,-0.161705,0.018512,0.313071,-0.175960,-0.028023,-0.046502,-0.923451,0.057825,0.066596,0.815983,-0.301293,0.053424,-0.764940,0.312418,-0.040323,0.852711,-0.079264,0.027753,-0.602155,-0.108893,-0.567062,-5.866652,7.188645,-0.445769,5.326122,-7.278976,0.009333,0.595503,0.171162
0.412000,-0.502226,-1.597243,0.284333,0.661787,0.002547,-0.015748,-0.749522,-0.113371,-0.159913,0.021815,0.287087,-0.162716,-0.048866,-0.046348,-0.924614,0.057630,0.066077,0.803845,-0.282256,0.052920,-0.753804,0.293211,-0.040338,0.853849,-0.078856,0.076932,-0.581330,-0.097589,-0.259282,-6.068752,9.518861,-0.252017,5.568034,-9.603172,-0.007439,0.568996,0.203824
0.414000,-0.502454,-1.597566,0.284353,0.661767,0.002625,-0.016068,-0.749533,-0.114284,-0.161534,0.010196,0.291619,-0.153092,-0.022064,-0.046239,-0.925892,0.057586,0.065284,0.792418,-0.266345,0.052037,-0.743421,0.276972,-0.040402,0.854980,-0.078508,0.054630,-0.639176,-0.021880,-0.396379,-5.713712,7.955408,-0.441792,5.191514,-8.119834,-0.032338,0.565126,0.174289
0.416000,-0.502684,-1.597889,0.284377,0.661739,0.002730,-0.016409,-0.749550,-0.115090,-0.161436,0.012137,0.324568,-0.147462,-0.033534,-0.046170,-0.927169,0.057579,0.064835,0.780789,-0.246639,0.051548,-0.732871,0.257526,-0.040394,0.856062,-0.078083,0.034291,-0.638152,-0.003702,-0.224469,-5.814423,9.852930,-0.244313,5.274675,-9.722856,0.004323,0.541199,0.212505
0.418000,-0.502913,-1.598217,0.284379,0.661733,0.002860,-0.016768,-0.749547,-0.114511,-0.163907,0.000935,0.354743,-0.140373,-0.003920,-0.046207,-0.928565,0.057713,0.064010,0.769976,-0.230375,0.050742,-0.723181,0.241392,-0.040384,0.857133,-0.077700,-0.018291,-0.698442,0.067194,-0.412781,-5.406361,8.132249,-0.402781,4.845102,-8.066965,0.004800,0.535602,0.191333
0.420000,-0.503146,-1.598546,0.284385,0.661720,0.002988,-0.017121,-0.749550,-0.116454,-0.164485,0.002740,0.350093,-0.138191,-0.012172,-0.046216,-0.929937,0.057826,0.063504,0.759185,-0.211338,0.050205,-0.713445,0.222497,-0.040380,0.858189,-0.077281,-0.004487,-0.685616,0.056379,-0.252911,-5.395442,9.518142,-0.268838,4.868114,-9.447432,0.001883,0.527752,0.209538
0.422000,-0.503381,-1.598879,0.284374,0.661724,0.003112,-0.017463,-0.749538,-0.117651,-0.166369,-0.005076,0.338132,-0.133024,0.009360,-0.046232,-0.931368,0.057999,0.062831,0.749124,-0.194887,0.049405,-0.704385,0.205791,-0.040446,0.859248,-0.076910,-0.008225,-0.715723,0.086419,-0.336204,-5.030766,8.225705,-0.399932,4.529925,-8.353055,-0.033012,0.529528,0.185429
0.424000,-0.503620,-1.599215,0.284367,0.661725,0.003231,-0.017811,-0.749528,-0.119031,-0.168127,-0.003892,0.340154,-0.140984,0.006354,-0.046245,-0.932782,0.058116,0.062374,0.739248,-0.176411,0.048816,-0.695508,0.187459,-0.040512,0.860331,-0.076537,-0.006307,-0.706928,0.058599,-0.228558,-4.937944,9.237727,-0.294270,4.438462,-9.166043,-0.032833,0.541503,0.186508
0.426000,-0.503858,-1.599555,0.284347,0.661740,0.003354,-0.018165,-0.749506,-0.119189,-0.170047,-0.009636,0.347107,-0.141782,0.025047,-0.046301,-0.934242,0.058262,0.061766,0.730029,-0.159962,0.048089,-0.687281,0.171164,-0.040601,0.861423,-0.076199,-0.028227,-0.730204,0.072758,-0.303991,-4.609255,8.224643,-0.363634,4.113484,-8.147503,-0.044618,0.546242,0.168925
0.428000,-0.504097,-1.599902,0.284326,0.661756,0.003477,-0.018540,-0.749482,-0.119512,-0.173314,-0.010940,0.362242,-0.155516,0.027280,-0.046391,-0.935721,0.058370,0.061224,0.721246,-0.142804,0.047537,-0.679483,0.154490,-0.040669,0.862579,-0.075902,-0.044901,-0.739317,0.053873,-0.271286,-4.391562,8.579261,-0.276044,3.899013,-8.336860,-0.033917,0.577741,0.148555
0.430000,-0.504338,-1.600251,0.284296,0.661781,0.003594,-0.018905,-0.749451,-0.120313,-0.174506,-0.014875,0.351608,-0.153217,0.037741,-0.046476,-0.937221,0.058494,0.060676,0.713031,-0.127081,0.046954,-0.672129,0.138841,-0.040780,0.863740,-0.075633,-0.042650,-0.749830,0.062081,-0.273978,-4.107819,7.861484,-0.291339,3.677024,-7.824606,-0.055658,0.580538,0.134619
0.432000,-0.504583,-1.600607,0.284259,0.661808,0.003686,-0.019258,-0.749417,-0.122508,-0.178382,-0.018187,0.326215,-0.164462,0.042882,-0.046513,-0.938745,0.058584,0.060227,0.705481,-0.111867,0.046388,-0.665369,0.123574,-0.040960,0.864986,-0.075446,-0.018492,-0.762103,0.045145,-0.224656,-3.774797,7.607002,-0.283041,3.380307,-7.633423,-0.089769,0.623006,0.093492
0.434000,-0.504830,-1.600965,0.284219,0.661839,0.003775,-0.019605,-0.749380,-0.123604,-0.178934,-0.019970,0.318956,-0.161656,0.047010,-0.046539,-0.940274,0.058683,0.059901,0.698327,-0.097041,0.045892,-0.658936,0.108669,-0.041167,0.866224,-0.075261,-0.012945,-0.764479,0.049499,-0.162856,-3.576931,7.412734,-0.248135,3.216326,-7.452740,-0.103301,0.619268,0.092422
0.436000,-0.505074,-1.601338,0.284166,0.661884,0.003887,-0.020015,-0.749329,-0.122210,-0.186203,-0.026802,0.382143,-0.186668,0.067013,-0.046718,-0.941920,0.058802,0.059356,0.692068,-0.083753,0.045498,-0.654467,0.097685,-0.041287,0.867579,-0.075168,-0.089616,-0.822890,0.059337,-0.272181,-3.129750,6.643959,-0.196955,2.234577,-5.491799,-0.060308,0.677122,0.046472
0.438000,-0.505325,-1.601707,0.284114,0.661930,0.003984,-0.020377,-0.749278,-0.125397,-0.184718,-0.025741,0.337011,-0.165598,0.067749,-0.046800,-0.943526,0.058932,0.059140,0.686077,-0.070221,0.045080,-0.651365,0.089456,-0.041507,0.868844,-0.075006,-0.040684,-0.803020,0.065138,-0.108001,-2.995304,6.766220,-0.208918,1.550877,-4.114503,-0.110083,0.632531,0.081146
0.440000,-0.505590,-1.602074,0.284060,0.661972,0.003996,-0.020560,-0.749236,-0.132398,-0.183643,-0.027372,0.145458,-0.110816,0.059612,-0.046489,-0.945046,0.059100,0.059288,0.681285,-0.060152,0.044358,-0.649232,0.083246,-0.042095,0.870005,-0.074822,0.155242,-0.760193,0.084198,0.073806,-2.395918,5.034642,-0.361260,1.066598,-3.105255,-0.293780,0.580453,0.091846
0.442000,-0.505865,-1.602418,0.284032,0.661990,0.003976,-0.020548,-0.749220,-0.137365,-0.171944,-0.013686,-0.021720,-0.007401,0.024048,-0.045804,-0.946311,0.059322,0.060212,0.676494,-0.048695,0.043421,-0.647392,0.078132,-0.042935,0.870744,-0.074283,0.342495,-0.632405,0.110763,0.462105,-2.395638,5.728282,-0.468357,0.919674,-2.556853,-0.420248,0.369534,0.269546
0.444000,-0.506131,-1.602752,0.284019,0.661988,0.003980,-0.020394,-0.749227,-0.133454,-0.166656,-0.006497,-0.112800,0.105643,-0.006843,-0.044952,-0.947428,0.059730,0.061096,0.673050,-0.041291,0.042450,-0.645773,0.073910,-0.043841,0.871094,-0.073424,0.426369,-0.558623,0.204139,0.442050,-1.722075,3.702044,-0.485381,0.809519,-2.111121,-0.452582,0.175398,0.429773
0.446000,-0.506376,-1.603060,0.284052,0.661947,0.004117,-0.020199,-0.749267,-0.122313,-0.154220,0.016599,-0.056226,0.229713,-0.061066,-0.044205,-0.948293,0.060303,0.062109,0.669467,-0.031263,0.041789,-0.643983,0.070031,-0.044450,0.870845,-0.071951,0.373070,-0.432475,0.286589,0.506164,-1.791184,5.013697,-0.330800,0.895153,-1.939351,-0.304542,-0.124753,0.736248
0.448000,-0.506586,-1.603367,0.284104,0.661878,0.004385,-0.020005,-0.749331,-0.104826,-0.153400,0.025593,0.030962,0.328522,-0.099828,-0.043688,-0.949081,0.061113,0.062349,0.667556,-0.026106,0.041499,-0.642252,0.066663,-0.044697,0.870254,-0.070137,0.258504,-0.393925,0.405009,0.119997,-0.955669,2.578769,-0.144808,0.865596,-1.684178,-0.123925,-0.295661,0.906966
0.450000,-0.506770,-1.603660,0.284199,0.661764,0.004744,-0.019798,-0.749435,-0.091941,-0.146717,0.047431,0.080928,0.403537,-0.162470,-0.043264,-0.949640,0.061945,0.062600,0.665651,-0.018064,0.041512,-0.640349,0.063410,-0.044636,0.869345,-0.067955,0.212368,-0.279323,0.415919,0.125436,-0.952662,4.020805,0.006719,0.951608,-1.626416,0.030932,-0.454211,1.090844
0.452000,-0.506936,-1.603969,0.284293,0.661622,0.005050,-0.019487,-0.749567,-0.083398,-0.154278,0.047489,-0.033166,0.431142,-0.201490,-0.042649,-0.950135,0.062746,0.062344,0.665996,-0.016801,0.041463,-0.638673,0.060608,-0.044637,0.868596,-0.065957,0.307232,-0.247648,0.400414,-0.127991,0.172664,0.631808,-0.024985,0.837900,-1.400974,-0.000807,-0.374389,0.999063
0.454000,-0.507094,-1.604280,0.284420,0.661434,0.005292,-0.019126,-0.749741,-0.078848,-0.155734,0.063060,-0.112118,0.415722,-0.262202,-0.041843,-0.950432,0.063275,0.062492,0.666255,-0.011350,0.041418,-0.637100,0.058011,-0.044606,0.868058,-0.064112,0.403180,-0.148363,0.264705,0.074007,0.129503,2.725320,-0.022264,0.786333,-1.298407,0.015558,-0.269395,0.922856
0.456000,-0.507240,-1.604625,0.284530,0.661226,0.005417,-0.018719,-0.749934,-0.072986,-0.172152,0.055231,-0.224803,0.357655,-0.288442,-0.040848,-0.950779,0.063605,0.062193,0.668634,-0.011830,0.041269,-0.636128,0.056147,-0.044601,0.868289,-0.063049,0.497602,-0.173538,0.165048,-0.149134,1.189363,-0.240098,-0.074465,0.486172,-0.931770,0.002711,0.115627,0.531243
0.458000,-0.507372,-1.604985,0.284658,0.660988,0.005510,-0.018389,-0.750151,-0.065846,-0.180372,0.063924,-0.189491,0.282713,-0.325577,-0.039913,-0.951081,0.063640,0.062094,0.670680,-0.007574,0.041300,-0.635585,0.054788,-0.044355,0.869035,-0.062399,0.467482,-0.151389,0.017389,-0.049721,1.023192,2.128359,0.015331,0.271429,-0.679890,0.123048,0.372922,0.324827
0.460000,-0.507479,-1.605386,0.284755,0.660756,0.005593,-0.018180,-0.750360,-0.053653,-0.200356,0.048314,-0.104568,0.194490,-0.314853,-0.039232,-0.951628,0.063607,0.061105,0.674630,-0.009807,0.041832,-0.636334,0.054908,-0.043942,0.870250,-0.062142,0.340542,-0.273125,-0.016690,-0.494280,1.974744,-1.116561,0.266229,-0.374358,0.060228,0.206476,0.607774,0.128966
0.462000,-0.507580,-1.605799,0.284859,0.660517,0.005651,-0.018035,-0.750573,-0.050539,-0.206534,0.052126,-0.072442,0.133846,-0.321382,-0.038618,-0.952189,0.063376,0.060469,0.677992,-0.008092,0.042443,-0.637458,0.055454,-0.043474,0.871632,-0.061946,0.306702,-0.280412,-0.115655,-0.318374,1.681152,0.857185,0.305205,-0.562222,0.272963,0.233752,0.690923,0.097989
0.464000,-0.507677,-1.606241,0.284931,0.660305,0.005661,-0.017909,-0.750763,-0.048239,-0.220884,0.036098,-0.090653,0.086276,-0.285825,-0.038041,-0.952962,0.063147,0.059518,0.682693,-0.012289,0.043021,-0.640123,0.057769,-0.043127,0.873269,-0.061995,0.288826,-0.386922,-0.114182,-0.475162,2.350332,-2.098519,0.289123,-1.332214,1.157414,0.173746,0.818304,-0.024793
0.466000,-0.507780,-1.606682,0.285011,0.660095,0.005637,-0.017771,-0.750951,-0.051752,-0.220519,0.040022,-0.121532,0.067733,-0.282441,-0.037385,-0.953715,0.062826,0.059365,0.686345,-0.011993,0.043553,-0.642843,0.060111,-0.042893,0.874859,-0.061955,0.327582,-0.376352,-0.160597,-0.076449,1.826216,0.148278,0.266325,-1.360324,1.170841,0.116802,0.795305,0.020125
0.468000,-0.507891,-1.607132,0.285072,0.659914,0.005567,-0.017561,-0.751115,-0.055194,-0.225251,0.030305,-0.205737,0.082012,-0.244085,-0.036613,-0.954567,0.062584,0.059382,0.690627,-0.015855,0.043719,-0.646435,0.063460,-0.042929,0.876378,-0.061890,0.386267,-0.426187,-0.121253,0.008527,2.140684,-1.930910,0.082793,-1.795644,1.674975,-0.017867,0.759373,0.032301
0.470000,-0.508001,-1.607572,0.285144,0.659741,0.005539,-0.017346,-0.751273,-0.055365,-0.219818,0.036345,-0.181741,0.117684,-0.234958,-0.035892,-0.955383,0.062417,0.059987,0.693887,-0.016448,0.043903,-0.649587,0.066303,-0.042958,0.877572,-0.061492,0.360631,-0.407688,-0.083342,0.302058,1.630362,-0.296656,0.092042,-1.576373,1.421106,-0.014538,0.596953,0.199130
0.472000,-0.508099,-1.608010,0.285212,0.659591,0.005612,-0.017174,-0.751408,-0.048789,-0.219172,0.033618,-0.082563,0.164326,-0.203958,-0.035433,-0.956286,0.062476,0.060330,0.697344,-0.019711,0.044263,-0.652765,0.069200,-0.042839,0.878439,-0.060785,0.229214,-0.451594,0.029710,0.171569,1.728137,-1.631604,0.179794,-1.588877,1.448698,0.059241,0.433320,0.353729
0.474000,-0.508186,-1.608438,0.285293,0.659451,0.005786,-0.017046,-0.751532,-0.043593,-0.213733,0.040652,0.017710,0.211998,-0.191007,-0.035201,-0.957168,0.062669,0.060793,0.700052,-0.020889,0.044751,-0.655396,0.071487,-0.042540,0.878918,-0.059677,0.115929,-0.440860,0.096632,0.231797,1.354101,-0.589153,0.244002,-1.315402,1.143234,0.149593,0.239440,0.553790
0.476000,-0.508264,-1.608856,0.285386,0.659323,0.006038,-0.016942,-0.751644,-0.038934,-0.209036,0.046432,0.086119,0.255281,-0.174326,-0.035140,-0.958022,0.062961,0.061191,0.702303,-0.021389,0.045306,-0.657544,0.073225,-0.042125,0.879064,-0.058241,0.030623,-0.427117,0.145781,0.198811,1.125640,-0.249828,0.277832,-1.074223,0.869136,0.207501,0.073471,0.717912
0.478000,-0.508342,-1.609265,0.285489,0.659204,0.006287,-0.016785,-0.751751,-0.039154,-0.204522,0.051842,0.045205,0.288085,-0.165315,-0.035011,-0.958795,0.063245,0.061733,0.704200,-0.021315,0.045725,-0.659229,0.074394,-0.041804,0.879006,-0.056627,0.064332,-0.386717,0.141907,0.271097,0.948356,0.036797,0.209538,-0.842399,0.584456,0.160648,-0.029346,0.807025
0.480000,-0.508442,-1.609735,0.285572,0.659103,0.006272,-0.016522,-0.751845,-0.049819,-0.234884,0.041289,-0.208631,0.159531,-0.139186,-0.034403,-0.959711,0.063052,0.061556,0.708991,-0.022813,0.045254,-0.662496,0.076989,-0.042061,0.879810,-0.055800,0.304108,-0.457905,-0.096214,-0.088656,2.395582,-0.748807,-0.235591,-1.633305,1.297597,-0.128406,0.401933,0.413778
0.482000,-0.508552,-1.610254,0.285642,0.659012,0.006075,-0.016221,-0.751933,-0.055055,-0.259717,0.035038,-0.356925,0.048525,-0.124837,-0.033524,-0.960741,0.062470,0.060694,0.715923,-0.023828,0.044329,-0.666667,0.080271,-0.042637,0.881307,-0.055573,0.439553,-0.515071,-0.291348,-0.431124,3.465964,-0.507360,-0.462584,-2.085679,1.640951,-0.288170,0.748449,0.113340
0.484000,-0.508661,-1.610803,0.285710,0.658923,0.005803,-0.015926,-0.752020,-0.054687,-0.274403,0.033772,-0.401632,-0.011811,-0.121835,-0.032578,-0.961838,0.061686,0.059296,0.723970,-0.022759,0.043420,-0.670749,0.083183,-0.043291,0.883162,-0.055633,0.472831,-0.548509,-0.392101,-0.698772,4.023459,0.534340,-0.454482,-2.040860,1.456266,-0.326821,0.927932,-0.030064
0.486000,-0.508765,-1.611362,0.285778,0.658840,0.005528,-0.015610,-0.752101,-0.051780,-0.279322,0.034172,-0.419989,-0.000338,-0.113038,-0.031638,-0.962956,0.060912,0.057553,0.732478,-0.020796,0.042554,-0.674401,0.085473,-0.043968,0.884994,-0.055669,0.470339,-0.559013,-0.386678,-0.871721,4.254280,0.981443,-0.433269,-1.826302,1.144761,-0.338446,0.915571,-0.018208
0.488000,-0.508857,-1.611914,0.285846,0.658772,0.005324,-0.015262,-0.752169,-0.045845,-0.276294,0.033909,-0.396639,0.074438,-0.094688,-0.030810,-0.964089,0.060376,0.055585,0.740923,-0.019649,0.041787,-0.677420,0.087022,-0.044590,0.886469,-0.055421,0.413620,-0.566373,-0.268126,-0.984016,4.222494,0.573599,-0.383487,-1.509407,0.774751,-0.311351,0.737898,0.124029
0.490000,-0.508938,-1.612451,0.285912,0.658725,0.005203,-0.014856,-0.752220,-0.040766,-0.268333,0.032895,-0.385737,0.175035,-0.069539,-0.030082,-0.965215,0.060149,0.053666,0.748794,-0.019832,0.041066,-0.679765,0.087837,-0.045200,0.887457,-0.054804,0.364432,-0.562841,-0.113232,-0.959350,3.935430,-0.091627,-0.360533,-1.172328,0.407530,-0.304711,0.494025,0.308436
0.492000,-0.509008,-1.612969,0.285976,0.658699,0.005184,-0.014433,-0.752250,-0.035090,-0.259215,0.032040,-0.331110,0.264252,-0.041298,-0.029535,-0.966345,0.060225,0.052003,0.755453,-0.019856,0.040459,-0.681555,0.088080,-0.045719,0.887972,-0.053823,0.273313,-0.564961,0.037900,-0.831513,3.329337,-0.011712,-0.303477,-0.895275,0.121337,-0.259591,0.257350,0.490789
0.494000,-0.509070,-1.613473,0.286035,0.658697,0.005239,-0.014002,-0.752260,-0.031003,-0.251822,0.029519,-0.288169,0.324965,-0.010886,-0.029134,-0.967487,0.060514,0.050744,0.760704,-0.019145,0.039928,-0.683009,0.087974,-0.046183,0.888156,-0.052608,0.200576,-0.570950,0.144298,-0.629329,2.625640,0.355296,-0.265150,-0.726685,-0.053261,-0.232278,0.091710,0.607590
0.496000,-0.509126,-1.613970,0.286081,0.658720,0.005327,-0.013573,-0.752247,-0.027996,-0.248555,0.023256,-0.264470,0.348514,0.021839,-0.028834,-0.968671,0.060915,0.049854,0.764767,-0.018227,0.039432,-0.684406,0.087794,-0.046639,0.888221,-0.051359,0.149853,-0.592252,0.200775,-0.444901,2.031225,0.459084,-0.248326,-0.698394,-0.089580,-0.227922,0.032799,0.624433
0.498000,-0.509179,-1.614470,0.286109,0.658770,0.005404,-0.013138,-0.752210,-0.026207,-0.249812,0.013785,-0.276203,0.345501,0.058531,-0.028572,-0.969920,0.061341,0.049210,0.768130,-0.018278,0.038791,-0.686210,0.088048,-0.047164,0.888340,-0.050239,0.130959,-0.624612,0.212971,-0.322361,1.681514,-0.025271,-0.320208,-0.902110,0.126790,-0.262413,0.059606,0.560173
0.500000,-0.509224,-1.614981,0.286116,0.658844,0.005467,-0.012742,-0.752151,-0.022860,-0.255417,0.003368,-0.255981,0.309785,0.092068,-0.028412,-0.971267,0.061720,0.048628,0.771036,-0.018833,0.038099,-0.688749,0.089079,-0.047685,0.888669,-0.049359,0.080144,-0.673316,0.189235,-0.290596,1.453185,-0.277546,-0.346093,-1.269802,0.515539,-0.260332,0.164164,0.439768
0.502000,-0.509262,-1.615506,0.286104,0.658935,0.005513,-0.012400,-0.752078,-0.018650,-0.262552,-0.005789,-0.227028,0.261520,0.114234,-0.028360,-0.972701,0.062009,0.048032,0.773681,-0.019215,0.037493,-0.691868,0.090675,-0.048160,0.889268,-0.048753,0.025964,-0.717151,0.144336,-0.297963,1.322546,-0.191369,-0.303255,-1.559297,0.797854,-0.237844,0.299903,0.303066
0.504000,-0.509292,-1.616044,0.286077,0.659031,0.005529,-0.012093,-0.751998,-0.014923,-0.269328,-0.013413,-0.219007,0.215963,0.122628,-0.028357,-0.974194,0.062196,0.047446,0.776228,-0.018968,0.037058,-0.695184,0.092352,-0.048608,0.890145,-0.048417,0.001315,-0.746476,0.093917,-0.293280,1.273334,0.123922,-0.217201,-1.657895,0.838831,-0.223802,0.438506,0.167912
0.506000,-0.509320,-1.616593,0.286039,0.659129,0.005485,-0.011749,-0.751918,-0.013993,-0.274352,-0.019265,-0.287003,0.195344,0.125367,-0.028244,-0.975689,0.062286,0.046955,0.778977,-0.018785,0.036548,-0.698405,0.093760,-0.049172,0.891216,-0.048292,0.056781,-0.747225,0.044993,-0.245356,1.374566,0.091043,-0.255219,-1.610769,0.703713,-0.281801,0.535149,0.062438
0.508000,-0.509343,-1.617149,0.285991,0.659228,0.005413,-0.011372,-0.751838,-0.011605,-0.278121,-0.023677,-0.330643,0.195928,0.125840,-0.028068,-0.977184,0.062351,0.046467,0.782040,-0.018882,0.036010,-0.701421,0.094810,-0.049795,0.892361,-0.048259,0.087753,-0.747550,0.032565,-0.244339,1.531467,-0.048517,-0.268727,-1.507992,0.524991,-0.311694,0.572526,0.016798
0.510000,-0.509357,-1.617712,0.285938,0.659327,0.005348,-0.010987,-0.751757,-0.007127,-0.281183,-0.026544,-0.332355,0.207073,0.126881,-0.027920,-0.978684,0.062436,0.045869,0.785417,-0.019104,0.035525,-0.704198,0.095507,-0.050392,0.893496,-0.048222,0.074034,-0.750176,0.042232,-0.298924,1.688484,-0.110954,-0.242812,-1.388384,0.348419,-0.298383,0.567726,0.018457
0.512000,-0.509359,-1.618285,0.285886,0.659424,0.005313,-0.010579,-0.751678,-0.001002,-0.286876,-0.025822,-0.329309,0.243772,0.122846,-0.027814,-0.980178,0.062575,0.045212,0.788981,-0.018858,0.035767,-0.706431,0.083906,-0.050928,0.894518,-0.048052,0.053065,-0.747150,0.069720,-0.328253,1.782144,0.123250,0.121428,-1.116305,-5.800561,-0.268163,0.510983,0.084734
0.514000,-0.509333,-1.618885,0.285808,0.659564,0.005451,-0.010472,-0.751556,0.012786,-0.299599,-0.039119,0.011071,0.176166,0.183278,-0.028481,-0.981992,0.062826,0.043621,0.792673,-0.017980,0.035993,-0.711047,0.077641,-0.050886,0.895680,-0.047926,-0.333629,-0.906909,0.125434,-0.795358,1.846228,0.438752,0.112765,-2.308178,-3.132120,0.021268,0.580896,0.063195
0.516000,-0.509301,-1.619504,0.285694,0.659757,0.005674,-0.010563,-0.751383,0.016432,-0.309496,-0.057319,0.215727,0.110784,0.258032,-0.029629,-0.984110,0.063162,0.041534,0.796487,-0.017195,0.035365,-0.718690,0.080552,-0.050604,0.897016,-0.047947,-0.573985,-1.058647,0.167669,-1.043705,1.906840,0.392748,-0.313886,-3.821718,1.455105,0.140889,0.668136,-0.010494
0.518000,-0.509296,-1.620114,0.285555,0.659969,0.005761,-0.010453,-0.751198,0.002305,-0.305410,-0.069063,-0.024015,0.140532,0.279632,-0.030280,-0.986198,0.063528,0.040250,0.800412,-0.017460,0.033710,-0.726934,0.085391,-0.050892,0.898335,-0.048093,-0.325579,-1.044068,0.182967,-0.642004,1.962428,-0.132774,-0.827765,-4.121739,2.419692,-0.144168,0.659430,-0.073003
0.520000,-0.509324,-1.620693,0.285411,0.660159,0.005683,-0.010008,-0.751037,-0.013908,-0.289129,-0.072404,-0.385155,0.238920,0.246920,-0.030133,-0.988058,0.064006,0.040315,0.804091,-0.017886,0.031643,-0.733449,0.088975,-0.051880,0.899400,-0.048193,0.073942,-0.930173,0.239009,0.032661,1.839361,-0.212581,-1.033471,-3.257632,1.792108,-0.493703,0.532307,-0.049961
0.522000,-0.509361,-1.621233,0.285276,0.660321,0.005585,-0.009330,-0.750904,-0.018535,-0.270379,-0.067238,-0.573742,0.375961,0.206654,-0.029562,-0.989679,0.064727,0.041289,0.807278,-0.017681,0.029512,-0.738218,0.091195,-0.053158,0.899932,-0.047926,0.285376,-0.810328,0.360952,0.486791,1.593873,0.102353,-1.065145,-2.384221,1.109819,-0.639140,0.266059,0.133515
0.524000,-0.509370,-1.621742,0.285161,0.660458,0.005672,-0.008653,-0.750792,-0.004367,-0.254118,-0.057491,-0.450637,0.514918,0.172223,-0.029254,-0.991165,0.065843,0.041990,0.810149,-0.018386,0.027948,-0.741493,0.092296,-0.054052,0.899773,-0.047043,0.153702,-0.743280,0.557991,0.350511,1.435352,-0.352461,-0.782380,-1.637487,0.550425,-0.447019,-0.079573,0.441418
0.526000,-0.509334,-1.622227,0.285066,0.660572,0.006013,-0.008105,-0.750695,0.017816,-0.242579,-0.047530,-0.186066,0.619429,0.144301,-0.029524,-0.992591,0.067324,0.042094,0.812694,-0.019673,0.027205,-0.743641,0.092595,-0.054267,0.899026,-0.045584,-0.134723,-0.712926,0.740248,0.052032,1.272517,-0.643587,-0.371307,-1.074297,0.149853,-0.107783,-0.373190,0.729323
0.528000,-0.509256,-1.622700,0.284988,0.660666,0.006562,-0.007727,-0.750612,0.039162,-0.236762,-0.039126,0.079343,0.662539,0.118215,-0.030366,-0.993991,0.068997,0.041606,0.814972,-0.021249,0.027245,-0.745078,0.092429,-0.053815,0.897989,-0.043796,-0.420836,-0.699957,0.836512,-0.244244,1.139084,-0.787933,0.020167,-0.718617,-0.083394,0.226156,-0.518534,0.894074
0.530000,-0.509161,-1.623172,0.284922,0.660737,0.007114,-0.007389,-0.750547,0.047096,-0.235586,-0.033092,0.110861,0.638209,0.089803,-0.031270,-0.995294,0.070519,0.041022,0.817144,-0.022996,0.027538,-0.746133,0.091980,-0.053195,0.897094,-0.042122,-0.452419,-0.651557,0.761074,-0.291827,1.086052,-0.873733,0.146463,-0.527483,-0.224128,0.310170,-0.447908,0.837170
0.532000,-0.509115,-1.623674,0.284849,0.660746,0.007101,-0.006724,-0.750545,0.023183,-0.251150,-0.036444,-0.507635,0.429770,0.003256,-0.030796,-0.996381,0.071066,0.041740,0.819662,-0.024746,0.026808,-0.747353,0.091456,-0.052786,0.900495,-0.048907,0.237051,-0.543480,0.273474,0.358898,1.258774,-0.874802,-0.365208,-0.609877,-0.262312,0.204199,1.700591,-3.392756
0.534000,-0.509087,-1.624203,0.284786,0.660742,0.006841,-0.006010,-0.750558,0.013949,-0.264423,-0.031527,-0.707885,0.277100,-0.014327,-0.029878,-0.997405,0.070954,0.042844,0.822238,-0.026255,0.025759,-0.748839,0.091049,-0.052929,0.905347,-0.055943,0.459365,-0.512038,-0.056153,0.552115,1.288156,-0.754592,-0.524300,-0.742868,-0.203493,-0.071145,2.426128,-3.517971
0.536000,-0.509042,-1.624762,0.284735,0.660754,0.006701,-0.005561,-0.750552,0.022829,-0.279546,-0.025249,-0.429502,0.192022,0.009643,-0.029519,-0.998838,0.070869,0.043334,0.824648,-0.027353,0.025280,-0.750666,0.090984,-0.053293,0.909863,-0.054410,0.179165,-0.716195,-0.042398,0.245029,1.204762,-0.548960,-0.239737,-0.913777,-0.032211,-0.182067,2.258109,0.766716
0.538000,-0.508969,-1.625347,0.284692,0.660783,0.006721,-0.005414,-0.750527,0.036020,-0.292360,-0.021812,-0.097440,0.111429,0.037356,-0.029894,-1.000747,0.070921,0.043092,0.826889,-0.028037,0.025475,-0.752880,0.091343,-0.053526,0.914080,-0.047620,-0.187315,-0.954598,0.026172,-0.121078,1.120399,-0.342227,0.097551,-1.106837,0.179313,-0.116572,2.108583,3.395013
0.540000,-0.508891,-1.625963,0.284606,0.660782,0.006647,-0.005404,-0.750529,0.039137,-0.308375,-0.042780,-0.056462,-0.048118,-0.002061,-0.029455,-1.004833,0.074577,0.042792,0.829333,-0.028514,0.025873,-0.755731,0.092391,-0.052581,0.921711,-0.053254,0.219293,-2.043225,1.827787,-0.149698,1.222072,-0.238412,0.198925,-1.425607,0.524291,0.472434,3.815204,-2.817384
0.542000,-0.508814,-1.626592,0.284508,0.660792,0.006512,-0.005442,-0.750521,0.038576,-0.314365,-0.049025,-0.059986,-0.126451,0.014487,-0.028862,-1.009753,0.078250,0.042467,0.831820,-0.028916,0.026258,-0.758866,0.093715,-0.051817,0.929884,-0.062146,0.296563,-2.459807,1.836754,-0.162498,1.243346,-0.200905,0.192332,-1.567440,0.661872,0.382205,4.086667,-4.445854
0.544000,-0.508751,-1.627221,0.284383,0.660807,0.006319,-0.005441,-0.750510,0.031443,-0.314302,-0.062302,-0.128939,-0.143746,0.019504,-0.027408,-1.016657,0.087478,0.042306,0.834406,-0.029531,0.026479,-0.762044,0.095139,-0.051500,0.938323,-0.074504,0.726909,-3.452075,4.613652,-0.080802,1.293087,-0.307340,0.110514,-1.589022,0.711915,0.158377,4.219424,-6.179122
0.546000,-0.508685,-1.627837,0.284284,0.660886,0.006228,-0.005461,-0.750441,0.033096,-0.308434,-0.049564,-0.044859,-0.080889,0.105257,-0.027207,-1.022813,0.091648,0.041870,0.836772,-0.030242,0.026719,-0.764967,0.096277,-0.052911,0.943351,-0.076274,0.100437,-3.077845,2.085160,-0.218001,1.183090,-0.355686,0.120444,-1.461539,0.568728,-0.705319,2.513812,-0.884956
0.548000,-0.508625,-1.628444,0.284158,0.660946,0.006090,-0.005415,-0.750389,0.029885,-0.303414,-0.063208,-0.125636,-0.072608,0.080315,-0.026488,-1.030418,0.101902,0.041646,0.839244,-0.031221,0.026843,-0.767753,0.097364,-0.054136,0.949337,-0.085280,0.359923,-3.802661,5.126871,-0.111705,1.236190,-0.489372,0.061568,-1.392676,0.543972,-0.612511,2.993137,-4.502872
