QPZ-918/AT_DOG_AMP/temp/gmr_data_csv/Vx0.8.csv
time_sec,root_pos_x,root_pos_y,root_pos_z,root_quat_w,root_quat_x,root_quat_y,root_quat_z,base_lin_vel_x,base_lin_vel_y,base_lin_vel_z,base_ang_vel_x,base_ang_vel_y,base_ang_vel_z,FR_hip_joint,FR_thigh_joint,FR_calf_joint,FL_hip_joint,FL_thigh_joint,FL_calf_joint,RR_hip_joint,RR_thigh_joint,RR_calf_joint,RL_hip_joint,RL_thigh_joint,RL_calf_joint,FR_hip_joint_vel,FR_thigh_joint_vel,FR_calf_joint_vel,FL_hip_joint_vel,FL_thigh_joint_vel,FL_calf_joint_vel,RR_hip_joint_vel,RR_thigh_joint_vel,RR_calf_joint_vel,RL_hip_joint_vel,RL_thigh_joint_vel,RL_calf_joint_vel
0.002000,-4.211535,-2.112018,0.308352,0.993824,-0.054284,-0.022272,0.094191,0.537821,0.145020,0.013481,0.897435,0.418735,0.097277,-0.053585,-0.659888,-0.052368,-0.008369,1.104741,0.129565,0.013300,-0.943849,-0.173437,-0.038103,0.555424,-0.016519,0.270380,-5.662057,0.227526,-0.855663,0.716040,0.461560,0.827330,-0.489418,-1.067034,0.852322,1.539232,-0.108513
0.004000,-4.210483,-2.111720,0.308348,0.993894,-0.053152,-0.021623,0.094241,0.526321,0.148995,-0.001937,1.191285,0.537203,0.053227,-0.053545,-0.671136,-0.042417,-0.010603,1.106095,0.130341,0.015603,-0.944486,-0.175617,-0.035770,0.558056,-0.016226,0.020124,-5.624260,4.975337,-1.116780,0.676925,0.387657,1.151138,-0.318481,-1.089854,1.166386,1.315989,0.146549
0.006000,-4.209433,-2.111479,0.308366,0.993933,-0.052631,-0.021082,0.094248,0.525027,0.120616,0.008801,0.571083,0.489444,0.021003,-0.053072,-0.678905,-0.042899,-0.011560,1.107623,0.131030,0.016648,-0.944869,-0.178209,-0.034774,0.561132,-0.016556,0.236471,-3.884048,-0.240799,-0.478851,0.763924,0.344579,0.522685,-0.191379,-1.296308,0.497775,1.537728,-0.165201
0.008000,-4.208370,-2.111316,0.308407,0.993927,-0.052937,-0.020722,0.094223,0.531480,0.081725,0.020517,-0.271271,0.387925,0.000582,-0.051624,-0.683153,-0.055777,-0.010797,1.109441,0.131623,0.015697,-0.945641,-0.179737,-0.035748,0.565140,-0.018128,0.723988,-2.124036,-6.438933,0.381491,0.909189,0.296316,-0.475579,-0.386056,-0.764000,-0.486846,2.004273,-0.785991
0.010000,-4.207301,-2.111164,0.308426,0.993924,-0.053218,-0.020364,0.094170,0.534328,0.075692,0.009616,-0.247081,0.385075,-0.027419,-0.050087,-0.687257,-0.064788,-0.010034,1.111283,0.132275,0.014660,-0.946788,-0.180282,-0.036636,0.569440,-0.020012,0.768148,-2.052224,-4.505550,0.381729,0.920861,0.326065,-0.518211,-0.573563,-0.272196,-0.443752,2.149606,-0.941634
0.012000,-4.206234,-2.110966,0.308398,0.993963,-0.052809,-0.019884,0.094097,0.533434,0.099034,-0.013655,0.452688,0.443431,-0.059095,-0.049477,-0.693351,-0.061168,-0.010623,1.112890,0.133208,0.015186,-0.948030,-0.180749,-0.035907,0.573738,-0.021713,0.305127,-3.047221,1.809707,-0.294608,0.803516,0.466574,0.262952,-0.621299,-0.233572,0.364273,2.148962,-0.850929
0.014000,-4.205161,-2.110742,0.308355,0.994020,-0.052064,-0.019380,0.094015,0.536358,0.112074,-0.021768,0.789494,0.435890,-0.074935,-0.049604,-0.699861,-0.055609,-0.011872,1.114324,0.134484,0.016499,-0.949361,-0.181325,-0.034424,0.578108,-0.023263,-0.063460,-3.254933,2.779770,-0.624582,0.717157,0.637996,0.656522,-0.665163,-0.288164,0.741327,2.185432,-0.774583
0.016000,-4.204072,-2.110540,0.308335,0.994059,-0.051630,-0.018965,0.093922,0.544936,0.101208,-0.010109,0.470183,0.376923,-0.082778,-0.049595,-0.704870,-0.059538,-0.012488,1.115788,0.135942,0.017079,-0.949851,-0.185841,-0.033626,0.582763,-0.024965,0.004265,-2.504215,-1.964827,-0.307710,0.731531,0.728974,0.289792,-0.245164,-2.257831,0.399078,2.327241,-0.851370
0.018000,-4.202959,-2.110356,0.308314,0.994087,-0.051352,-0.018650,0.093836,0.556217,0.091797,-0.010111,0.306062,0.292657,-0.076948,-0.049396,-0.709373,-0.069106,-0.012762,1.117310,0.137595,0.017195,-0.951016,-0.188912,-0.033264,0.587804,-0.026930,0.099574,-2.251709,-4.783958,-0.137200,0.761020,0.826384,0.058226,-0.582300,-1.535784,0.181123,2.520622,-0.982163
0.020000,-4.201826,-2.110188,0.308266,0.994118,-0.051023,-0.018341,0.093753,0.566662,0.084210,-0.024159,0.355453,0.280693,-0.075624,-0.048639,-0.715389,-0.073629,-0.013080,1.118921,0.139220,0.017075,-0.953139,-0.189425,-0.032890,0.592963,-0.028886,0.378729,-3.007889,-2.261137,-0.159088,0.805945,0.812551,-0.060309,-1.061821,-0.256117,0.187084,2.579222,-0.978325
0.022000,-4.200679,-2.110027,0.308188,0.994156,-0.050581,-0.017994,0.093657,0.573233,0.080277,-0.039281,0.472984,0.308987,-0.089391,-0.047413,-0.723162,-0.071253,-0.013575,1.120607,0.140734,0.017261,-0.955304,-0.189728,-0.032321,0.598074,-0.030678,0.612692,-3.886436,1.187873,-0.247455,0.842841,0.757032,0.093241,-1.082487,-0.151830,0.284467,2.555946,-0.895949
0.024000,-4.199519,-2.109868,0.308111,0.994199,-0.050058,-0.017591,0.093560,0.580164,0.079483,-0.038377,0.558079,0.357313,-0.089489,-0.046428,-0.731048,-0.069855,-0.014210,1.122249,0.142242,0.017716,-0.957145,-0.190497,-0.032462,0.602961,-0.015314,0.492875,-3.943071,0.698873,-0.317285,0.821096,0.754140,0.227481,-0.920103,-0.384264,-0.070750,2.443490,7.682239
0.026000,-4.198319,-2.109743,0.308014,0.994219,-0.050071,-0.017369,0.093377,0.599812,0.062584,-0.048603,0.004879,0.231578,-0.173120,-0.044545,-0.737782,-0.075425,-0.013715,1.124322,0.143686,0.017364,-0.959055,-0.191547,-0.032887,0.611589,-0.008218,0.941485,-3.366782,-2.784962,0.247097,1.036093,0.722137,-0.176039,-0.955169,-0.524827,-0.212367,4.313988,3.547680
0.028000,-4.197081,-2.109628,0.307873,0.994232,-0.050404,-0.017291,0.093073,0.619097,0.057359,-0.070404,-0.328215,0.124647,-0.293564,-0.042065,-0.744099,-0.082840,-0.012529,1.126817,0.145094,0.016743,-0.961112,-0.192662,-0.032464,0.625221,-0.013050,1.239910,-3.158830,-3.707397,0.593267,1.247978,0.703671,-0.310491,-1.028813,-0.557604,0.211334,6.815866,-2.416003
0.030000,-4.195850,-2.109474,0.307686,0.994271,-0.050366,-0.017114,0.092713,0.615635,0.077283,-0.093615,0.050634,0.190860,-0.352881,-0.040553,-0.751116,-0.084679,-0.012101,1.129330,0.146379,0.017149,-0.963005,-0.193778,-0.030283,0.640463,-0.021562,0.756040,-3.508527,-0.919830,0.213944,1.256338,0.642571,0.202871,-0.946062,-0.558026,1.090666,7.621144,-4.255627
0.032000,-4.194645,-2.109212,0.307503,0.994364,-0.049142,-0.016850,0.092417,0.602479,0.130958,-0.091091,1.240841,0.165367,-0.311091,-0.042045,-0.757880,-0.085903,-0.014089,1.131010,0.148919,0.020151,-0.965928,-0.193882,-0.026057,0.653220,-0.028085,-0.745860,-3.381843,-0.611956,-0.993749,0.840040,1.270238,1.501023,-1.461603,-0.052175,2.113015,6.378152,-3.261416
0.034000,-4.193467,-2.108936,0.307363,0.994467,-0.047620,-0.016495,0.092170,0.589148,0.137826,-0.070119,1.546593,0.226773,-0.263367,-0.044356,-0.763656,-0.088912,-0.016665,1.132232,0.151882,0.023630,-0.968583,-0.194318,-0.021626,0.663624,-0.032784,-1.155663,-2.888250,-1.504132,-1.288006,0.610692,1.481146,1.739533,-1.327470,-0.217846,2.215437,5.202023,-2.349573
0.036000,-4.192290,-2.108752,0.307261,0.994532,-0.046777,-0.016125,0.091966,0.588344,0.091878,-0.050936,0.871969,0.300205,-0.204496,-0.044760,-0.768423,-0.093755,-0.017750,1.133774,0.154218,0.025082,-0.971521,-0.194578,-0.019054,0.672311,-0.036500,-0.201972,-2.383425,-2.421664,-0.542652,0.771407,1.168352,0.725876,-1.469193,-0.130053,1.286034,4.343589,-1.858242
0.038000,-4.191107,-2.108690,0.307204,0.994549,-0.046905,-0.015687,0.091795,0.591349,0.031022,-0.028578,-0.088639,0.456602,-0.149200,-0.042235,-0.772837,-0.097094,-0.016663,1.135947,0.155391,0.023235,-0.973670,-0.201458,-0.018878,0.679363,-0.039273,1.262590,-2.206768,-1.669747,0.543479,1.086168,0.586326,-0.923605,-1.074652,-3.439873,0.088018,3.525989,-1.386339
0.040000,-4.189917,-2.108660,0.307096,0.994558,-0.046916,-0.015219,0.091772,0.595380,0.014962,-0.053920,0.032083,0.466983,-0.002194,-0.039652,-0.777790,-0.097927,-0.015629,1.139153,0.155471,0.018715,-0.981893,-0.190686,-0.018970,0.685305,-0.041397,1.291463,-2.476399,-0.416443,0.516841,1.603149,0.040171,-2.260009,-4.111419,5.385754,-0.045992,2.970926,-1.062029
0.042000,-4.188743,-2.108588,0.306969,0.994588,-0.046426,-0.014606,0.091790,0.586677,0.036003,-0.063520,0.545099,0.564569,0.036591,-0.038489,-0.782509,-0.098800,-0.015645,1.142830,0.155025,0.015666,-0.990103,-0.183057,-0.018177,0.689952,-0.042385,0.581374,-2.359929,-0.436477,-0.008017,1.838462,-0.223203,-1.524437,-4.105072,3.814433,0.396363,2.323566,-0.493996
0.044000,-4.187585,-2.108425,0.306764,0.994653,-0.045029,-0.013879,0.091899,0.578848,0.081799,-0.102611,1.460773,0.590532,0.116139,-0.040125,-0.787007,-0.101507,-0.019434,1.150842,0.143602,0.014485,-1.001331,-0.167729,-0.015660,0.693727,-0.042629,-0.818172,-2.248984,-1.353554,-1.894184,4.005783,-5.711635,-0.590346,-5.613766,7.664356,1.258686,1.887518,-0.122207
0.046000,-4.186429,-2.108257,0.306564,0.994725,-0.043589,-0.013052,0.091931,0.578167,0.084120,-0.100070,1.512725,0.689575,0.042143,-0.041810,-0.790998,-0.105567,-0.021743,1.157604,0.139530,0.015877,-1.008901,-0.167191,-0.012999,0.696826,-0.042272,-0.842213,-1.995227,-2.029997,-1.154914,3.381201,-2.035532,0.696188,-3.785005,0.268682,1.330316,1.549395,0.178617
0.048000,-4.185255,-2.108144,0.306279,0.994777,-0.042418,-0.012285,0.092027,0.586830,0.056067,-0.142519,1.238449,0.652516,0.109344,-0.042415,-0.795393,-0.109063,-0.023746,1.167725,0.124854,0.015095,-1.021389,-0.149651,-0.011176,0.700018,-0.042455,-0.302530,-2.197432,-1.747673,-1.001357,5.060312,-7.338282,-0.391441,-6.243798,8.770173,0.911825,1.595987,-0.091343
0.050000,-4.184057,-2.108116,0.305986,0.994810,-0.041833,-0.011546,0.092035,0.599410,0.014328,-0.146237,0.651155,0.680580,0.028881,-0.040703,-0.800042,-0.110895,-0.021716,1.175773,0.119928,0.014267,-1.032300,-0.137740,-0.010600,0.703294,-0.042958,0.855800,-2.324510,-0.915969,1.015209,4.024274,-2.462858,-0.413801,-5.455481,5.955678,0.287896,1.638013,-0.251530
0.052000,-4.182852,-2.108108,0.305599,0.994835,-0.041278,-0.010852,0.092095,0.602304,0.004133,-0.193487,0.618290,0.637671,0.079771,-0.038703,-0.804965,-0.112432,-0.020609,1.187826,0.100812,0.012379,-1.047408,-0.110758,-0.010248,0.706792,-0.044045,1.000120,-2.461555,-0.768625,0.553205,6.026493,-9.558342,-0.944213,-7.554250,13.490900,0.175740,1.749299,-0.543517
0.054000,-4.181643,-2.108079,0.305214,0.994877,-0.040569,-0.010108,0.092041,0.604270,0.014168,-0.192740,0.775236,0.677221,-0.034826,-0.036953,-0.809343,-0.115278,-0.018027,1.197867,0.090532,0.014057,-1.058298,-0.099278,-0.009402,0.710190,-0.044944,0.875152,-2.189144,-1.423261,1.291293,5.020646,-5.139772,0.839031,-5.445238,5.739907,0.423109,1.698627,-0.449625
0.056000,-4.180446,-2.107981,0.304737,0.994943,-0.039077,-0.009367,0.092051,0.598630,0.048963,-0.238335,1.554721,0.600488,0.019461,-0.037298,-0.813840,-0.118456,-0.018743,1.211134,0.068258,0.016887,-1.073250,-0.073862,-0.007035,0.713667,-0.045952,-0.172755,-2.248528,-1.589005,-0.358039,6.633390,-11.137205,1.415382,-7.475847,12.708164,1.183787,1.738800,-0.503926
0.058000,-4.179237,-2.107887,0.304261,0.995015,-0.037531,-0.008613,0.091988,0.604786,0.046934,-0.238153,1.610293,0.610972,-0.054705,-0.037464,-0.818155,-0.121322,-0.017575,1.221822,0.056309,0.021523,-1.086019,-0.057053,-0.004491,0.717163,-0.046894,-0.082834,-2.157357,-1.432622,0.583959,5.344140,-5.974470,2.317935,-6.384429,8.404162,1.272019,1.747762,-0.470842
0.060000,-4.178023,-2.107854,0.303717,0.995062,-0.036401,-0.007905,0.091998,0.606805,0.016836,-0.271904,1.191457,0.600174,0.022389,-0.036522,-0.822392,-0.124019,-0.016605,1.235801,0.031350,0.022946,-1.102736,-0.026055,-0.003007,0.720855,-0.048425,0.471159,-2.118515,-1.348841,0.484927,6.989112,-12.479125,0.711355,-8.358512,15.498908,0.741603,1.846279,-0.765541
0.062000,-4.176792,-2.107882,0.303191,0.995094,-0.035824,-0.007175,0.091938,0.615698,-0.014244,-0.263209,0.641240,0.676434,-0.040337,-0.033938,-0.826184,-0.126505,-0.012445,1.247521,0.015109,0.024226,-1.116433,-0.006409,-0.002618,0.724500,-0.050001,1.291574,-1.896023,-1.242823,2.080029,5.860203,-8.120648,0.640239,-6.848401,9.823365,0.194650,1.822274,-0.787913
0.064000,-4.175574,-2.107895,0.302609,0.995127,-0.035010,-0.006418,0.091948,0.608666,-0.006607,-0.290945,0.880895,0.677516,0.028019,-0.032149,-0.829857,-0.128757,-0.010433,1.261769,-0.011631,0.024416,-1.132933,0.023504,-0.001848,0.728028,-0.051588,0.894721,-1.836608,-1.126234,1.005853,7.123961,-13.369908,0.094708,-8.250306,14.956258,0.384975,1.764097,-0.793900
0.066000,-4.174357,-2.107864,0.302036,0.995180,-0.033743,-0.005594,0.091912,0.608613,0.015646,-0.286577,1.338644,0.705457,-0.019878,-0.031532,-0.833216,-0.131064,-0.008424,1.273642,-0.029275,0.026980,-1.147188,0.044953,-0.000053,0.731313,-0.052688,0.308701,-1.679526,-1.153420,1.004421,5.936294,-8.822281,1.282013,-7.127183,10.724513,0.897762,1.642273,-0.549889
0.068000,-4.173161,-2.107802,0.301419,0.995236,-0.032085,-0.004729,0.091940,0.597900,0.031239,-0.308593,1.731406,0.707588,0.042427,-0.032143,-0.836402,-0.133626,-0.008977,1.287420,-0.055947,0.028868,-1.163761,0.076242,0.002453,0.734386,-0.053619,-0.305609,-1.592997,-1.280663,-0.276465,6.889348,-13.335864,0.944191,-8.286633,15.644806,1.252919,1.536692,-0.465243
0.070000,-4.171961,-2.107762,0.300806,0.995289,-0.030589,-0.003782,0.091924,0.600148,0.019949,-0.306175,1.577231,0.806248,0.002792,-0.032812,-0.840252,-0.133799,-0.007876,1.299189,-0.076114,0.031052,-1.177888,0.100176,0.004668,0.737180,-0.054277,-0.334547,-1.924914,-0.086697,0.550890,5.884326,-10.083703,1.092111,-7.063678,11.966725,1.107339,1.397168,-0.329370
0.072000,-4.170772,-2.107786,0.300171,0.995319,-0.029650,-0.002802,0.091941,0.594475,-0.012218,-0.317807,1.025748,0.888827,0.040674,-0.032748,-0.844583,-0.132187,-0.006228,1.312239,-0.104221,0.030363,-1.192556,0.129983,0.005642,0.739819,-0.055100,0.031905,-2.165401,0.805874,0.823831,6.524850,-14.053250,-0.344888,-7.334012,14.903643,0.487275,1.319287,-0.411396
0.074000,-4.169572,-2.107848,0.299561,0.995340,-0.029082,-0.001832,0.091915,0.600163,-0.030764,-0.304761,0.655638,0.913797,-0.001099,-0.032164,-0.849170,-0.129482,-0.002650,1.323277,-0.125840,0.029500,-1.204992,0.154158,0.005891,0.742516,-0.055966,0.292205,-2.293485,1.352656,1.788912,5.519286,-10.809634,-0.431371,-6.217578,12.087217,0.124310,1.348510,-0.432923
0.076000,-4.168387,-2.107893,0.298961,0.995362,-0.028396,-0.000918,0.091909,0.592588,-0.022694,-0.299912,0.767275,0.846476,0.017622,-0.032119,-0.854116,-0.125932,-0.000685,1.334750,-0.152253,0.028505,-1.217737,0.183926,0.006359,0.745315,-0.056866,0.022090,-2.473086,1.775009,0.982626,5.736204,-13.206302,-0.497512,-6.372659,14.884344,0.234005,1.399811,-0.450034
0.078000,-4.167195,-2.107903,0.298410,0.995391,-0.027500,-0.000109,0.091873,0.595625,-0.004842,-0.275575,0.967347,0.724503,-0.016028,-0.032700,-0.859218,-0.122151,0.000462,1.344762,-0.174155,0.029395,-1.228818,0.209900,0.007329,0.748423,-0.057760,-0.290261,-2.550805,1.890316,0.573600,5.006017,-10.951019,0.445202,-5.540710,12.986987,0.485115,1.553768,-0.446830
0.080000,-4.166015,-2.107907,0.297909,0.995415,-0.026716,0.000576,0.091845,0.590072,-0.002211,-0.250554,0.843035,0.610516,-0.011116,-0.033250,-0.864192,-0.118608,0.000542,1.354651,-0.200062,0.030428,-1.238987,0.237720,0.008081,0.751784,-0.058788,-0.274972,-2.487403,1.771895,0.039867,4.944827,-12.953690,0.516302,-5.084411,13.909903,0.376024,1.680244,-0.514079
0.082000,-4.164823,-2.107929,0.297476,0.995430,-0.026270,0.001109,0.091802,0.595916,-0.011021,-0.216492,0.493360,0.490248,-0.030633,-0.033212,-0.868865,-0.115701,0.001326,1.363039,-0.222873,0.031496,-1.247627,0.262400,0.008170,0.755533,-0.060045,0.018736,-2.336158,1.453062,0.392001,4.193722,-11.405586,0.534182,-4.319982,12.340109,0.044230,1.874718,-0.628493
0.084000,-4.163642,-2.107982,0.297108,0.995434,-0.026263,0.001535,0.091759,0.590779,-0.026584,-0.183911,0.047116,0.425196,-0.031903,-0.032386,-0.873144,-0.113376,0.002885,1.370115,-0.247438,0.031760,-1.254709,0.287651,0.007375,0.759378,-0.061377,0.413058,-2.139420,1.162580,0.779639,3.537914,-12.282469,0.132108,-3.540857,12.625207,-0.397294,1.922320,-0.665920
0.086000,-4.162456,-2.108029,0.296808,0.995435,-0.026330,0.001830,0.091717,0.592830,-0.023448,-0.150291,-0.039653,0.300168,-0.033425,-0.031491,-0.877197,-0.111665,0.004367,1.375669,-0.269698,0.032149,-1.261017,0.312318,0.006446,0.763450,-0.062717,0.447586,-2.026495,0.855707,0.740889,2.777367,-11.129885,0.194321,-3.154227,12.333820,-0.464360,2.035960,-0.669941
0.088000,-4.161289,-2.108058,0.296581,0.995438,-0.026368,0.002063,0.091672,0.583789,-0.014293,-0.113065,-0.016839,0.236582,-0.038965,-0.030752,-0.880981,-0.110392,0.005602,1.379233,-0.292029,0.033372,-1.265208,0.335901,0.005641,0.767401,-0.063733,0.369657,-1.892085,0.636360,0.617647,1.781625,-11.165526,0.611629,-2.095518,11.791518,-0.402963,1.975801,-0.508288
0.090000,-4.160123,-2.108055,0.296423,0.995443,-0.026254,0.002196,0.091644,0.582769,0.001635,-0.079049,0.125934,0.123261,-0.025101,-0.030420,-0.884595,-0.109677,0.005699,1.381723,-0.313699,0.035037,-1.268810,0.359131,0.005170,0.771416,-0.064533,0.165769,-1.807176,0.357502,0.048216,1.245162,-10.835132,0.832171,-1.800696,11.614651,-0.235228,2.007217,-0.400102
0.092000,-4.158975,-2.108048,0.296350,0.995446,-0.026271,0.002314,0.091607,0.573883,0.003393,-0.036753,-0.005921,0.119319,-0.034076,-0.029894,-0.887797,-0.109483,0.006533,1.381650,-0.334027,0.037142,-1.269461,0.378944,0.004509,0.775118,-0.064864,0.263194,-1.600822,0.096963,0.417084,-0.036446,-10.163699,1.052481,-0.325589,9.906628,-0.330379,1.851103,-0.165244
0.094000,-4.157828,-2.108035,0.296344,0.995443,-0.026382,0.002351,0.091601,0.573614,0.006227,-0.002716,-0.106916,0.047468,-0.004707,-0.029259,-0.890695,-0.109984,0.006904,1.380764,-0.354486,0.038141,-1.269909,0.399870,0.003644,0.778795,-0.064998,0.317498,-1.449108,-0.250393,0.185360,-0.442852,-10.229492,0.499490,-0.223812,10.463157,-0.432515,1.838628,-0.067308
0.096000,-4.156697,-2.108032,0.296428,0.995436,-0.026753,0.002401,0.091578,0.565361,0.001544,0.041697,-0.364892,0.084154,-0.022146,-0.028138,-0.893087,-0.111047,0.008849,1.376889,-0.372044,0.039203,-1.266809,0.416415,0.002340,0.782068,-0.064615,0.560256,-1.196236,-0.531358,0.972522,-1.937794,-8.778943,0.531362,1.549700,8.272545,-0.651940,1.636674,0.191879
0.098000,-4.155571,-2.107998,0.296565,0.995429,-0.026960,0.002393,0.091586,0.563213,0.017352,0.068502,-0.206673,0.011379,0.007675,-0.027441,-0.895351,-0.112556,0.009243,1.372733,-0.390705,0.039653,-1.263725,0.435353,0.001380,0.785291,-0.063973,0.348651,-1.131653,-0.754474,0.197036,-2.077863,-9.330411,0.224918,1.541920,9.468715,-0.480233,1.611543,0.320761
0.100000,-4.154465,-2.107942,0.296774,0.995428,-0.027111,0.002438,0.091552,0.553036,0.027917,0.104730,-0.146470,0.058864,-0.032219,-0.026884,-0.897332,-0.114228,0.010610,1.365356,-0.405157,0.041569,-1.256479,0.448662,0.000686,0.788070,-0.062715,0.278545,-0.990739,-0.836215,0.683677,-3.688510,-7.226002,0.957734,3.623062,6.654497,-0.346835,1.389436,0.628858
0.102000,-4.153362,-2.107856,0.297015,0.995430,-0.027089,0.002440,0.091543,0.551292,0.043038,0.120229,0.022443,0.000163,-0.008828,-0.026743,-0.899299,-0.116127,0.010329,1.358028,-0.421604,0.042746,-1.249366,0.464900,0.000364,0.790862,-0.061333,0.070320,-0.983454,-0.949568,-0.140632,-3.663950,-8.223637,0.588564,3.556742,8.118997,-0.161302,1.395731,0.691358
0.104000,-4.152276,-2.107781,0.297313,0.995430,-0.027303,0.002506,0.091473,0.543294,0.037298,0.149209,-0.206986,0.087342,-0.068614,-0.026087,-0.900927,-0.118135,0.012436,1.347072,-0.432850,0.044705,-1.237612,0.473970,-0.000266,0.793301,-0.059579,0.328267,-0.813830,-1.003821,1.053358,-5.477825,-5.623074,0.979553,5.876895,4.535218,-0.314794,1.219854,0.877119
0.106000,-4.151188,-2.107693,0.297622,0.995430,-0.027479,0.002525,0.091424,0.543702,0.043972,0.154652,-0.173310,0.036569,-0.048712,-0.025538,-0.902572,-0.120300,0.013258,1.336342,-0.446925,0.045156,-1.226384,0.486950,-0.000754,0.796076,-0.058124,0.274496,-0.822545,-1.082435,0.411187,-5.365465,-7.037381,0.225677,5.613793,6.489798,-0.244210,1.387196,0.727497
0.108000,-4.150117,-2.107603,0.297978,0.995434,-0.027732,0.002614,0.091294,0.535819,0.044883,0.177571,-0.242988,0.115820,-0.128022,-0.024770,-0.904001,-0.122385,0.016215,1.321694,-0.454626,0.046939,-1.210535,0.492237,-0.000989,0.799150,-0.056932,0.383945,-0.714760,-1.042810,1.478298,-7.323815,-3.850737,0.891171,7.924622,2.643517,-0.117384,1.537261,0.595755
0.110000,-4.149047,-2.107480,0.298330,0.995444,-0.027716,0.002669,0.091188,0.534837,0.061877,0.176241,0.020580,0.055520,-0.104779,-0.024584,-0.905606,-0.124420,0.016949,1.307456,-0.465855,0.047671,-1.195589,0.502241,-0.000535,0.802788,-0.056224,0.092905,-0.802059,-1.017524,0.367141,-7.119027,-5.614664,0.366397,7.473183,5.002247,0.226866,1.818822,0.354148
0.112000,-4.147998,-2.107350,0.298722,0.995461,-0.027688,0.002812,0.091012,0.524295,0.064892,0.195970,0.041806,0.145285,-0.172972,-0.024369,-0.907052,-0.126256,0.019429,1.289398,-0.470576,0.049723,-1.176396,0.504354,0.000239,0.806386,-0.055435,0.107806,-0.723005,-0.918015,1.240167,-9.028906,-2.360091,1.025944,9.596516,1.056352,0.387159,1.798845,0.394422
0.114000,-4.146954,-2.107205,0.299106,0.995477,-0.027535,0.002939,0.090879,0.522288,0.072323,0.191768,0.164713,0.115653,-0.129585,-0.024450,-0.908620,-0.128045,0.020019,1.271878,-0.479399,0.050038,-1.158340,0.511270,0.001193,0.809983,-0.054634,-0.040541,-0.784424,-0.894443,0.295052,-8.760052,-4.411491,0.157166,9.027903,3.457886,0.477014,1.798827,0.400615
0.116000,-4.145930,-2.107079,0.299524,0.995493,-0.027564,0.003151,0.090688,0.512021,0.062941,0.209393,-0.007800,0.219200,-0.186316,-0.024094,-0.909943,-0.129735,0.022854,1.250767,-0.481327,0.050943,-1.136415,0.509787,0.001876,0.813117,-0.053383,0.177626,-0.661246,-0.845029,1.417405,-10.555441,-0.964357,0.452541,10.962290,-0.741476,0.341643,1.566578,0.625422
0.118000,-4.144908,-2.106941,0.299925,0.995508,-0.027466,0.003336,0.090546,0.510903,0.069084,0.200447,0.115197,0.178510,-0.137534,-0.024036,-0.911412,-0.131387,0.023744,1.230399,-0.487281,0.050302,-1.115821,0.513299,0.002650,0.816124,-0.051977,0.029203,-0.734574,-0.825574,0.444809,-10.184161,-2.976635,-0.320489,10.297385,1.756264,0.386912,1.503864,0.702711
0.120000,-4.143905,-2.106803,0.300348,0.995529,-0.027341,0.003574,0.090343,0.501264,0.069058,0.211381,0.146418,0.231897,-0.196690,-0.023962,-0.912766,-0.132891,0.026062,1.206908,-0.485902,0.051014,-1.091989,0.509096,0.003596,0.818872,-0.050230,0.037139,-0.676998,-0.752379,1.159160,-11.745400,0.689379,0.356266,11.915912,-2.101709,0.473044,1.374090,0.873922
0.122000,-4.142901,-2.106649,0.300738,0.995550,-0.027057,0.003758,0.090183,0.501987,0.077037,0.195015,0.300545,0.161931,-0.154839,-0.024245,-0.914324,-0.134357,0.026333,1.184428,-0.488914,0.050741,-1.069593,0.510123,0.004736,0.821812,-0.048610,-0.141707,-0.779156,-0.732943,0.135228,-11.240073,-1.505970,-0.136619,11.197937,0.513673,0.569972,1.469886,0.809715
0.124000,-4.141909,-2.106509,0.301131,0.995574,-0.026878,0.003951,0.089969,0.496147,0.070196,0.196441,0.197812,0.181202,-0.209177,-0.024239,-0.915772,-0.135794,0.028054,1.159689,-0.486139,0.051391,-1.044827,0.504665,0.005762,0.824821,-0.047034,0.003044,-0.723602,-0.718567,0.860851,-12.369274,1.387613,0.324949,12.382918,-2.728890,0.513119,1.504554,0.787940
0.126000,-4.140903,-2.106372,0.301482,0.995594,-0.026709,0.004081,0.089796,0.502909,0.068406,0.175482,0.180770,0.119032,-0.170632,-0.024222,-0.917392,-0.137251,0.028512,1.136092,-0.487748,0.050915,-1.021538,0.503802,0.006165,0.827940,-0.038550,0.008636,-0.810166,-0.728389,0.228625,-11.798555,-0.804518,-0.237847,11.644311,-0.431829,0.201456,1.559174,4.242110
0.128000,-4.139891,-2.106256,0.301804,0.995614,-0.026780,0.004114,0.089551,0.506202,0.057851,0.160932,-0.066603,0.045944,-0.244672,-0.023612,-0.918945,-0.138908,0.030497,1.111230,-0.484505,0.051126,-0.997039,0.498279,0.006670,0.832873,-0.033510,0.304891,-0.776319,-0.828268,0.992774,-12.431063,1.621492,0.105418,12.249817,-2.761356,0.252109,2.466792,2.519914
0.130000,-4.138859,-2.106142,0.302054,0.995631,-0.026948,0.003989,0.089308,0.516053,0.057182,0.125098,-0.176749,-0.103652,-0.248088,-0.022792,-0.920695,-0.140746,0.031708,1.087719,-0.484596,0.050898,-0.974140,0.496574,0.007352,0.839941,-0.033519,0.409786,-0.875372,-0.919159,0.605416,-11.755662,-0.045486,-0.113961,11.449600,-0.852707,0.341095,3.534077,-0.004303
0.132000,-4.137831,-2.106016,0.302262,0.995655,-0.026996,0.003815,0.089042,0.513922,0.063097,0.104284,-0.061594,-0.161319,-0.271528,-0.022201,-0.922606,-0.142446,0.033154,1.063678,-0.481799,0.051845,-0.951082,0.492796,0.008393,0.847318,-0.034533,0.295480,-0.955269,-0.849854,0.722855,-12.020213,1.398134,0.473450,11.528538,-1.888959,0.520560,3.688440,-0.507324
0.134000,-4.136807,-2.105876,0.302419,0.995678,-0.026900,0.003637,0.088821,0.511825,0.069769,0.078441,0.081181,-0.179785,-0.226057,-0.021972,-0.924762,-0.143874,0.033696,1.040620,-0.481790,0.052832,-0.929247,0.491288,0.009460,0.853963,-0.035439,0.114943,-1.077977,-0.714402,0.271177,-11.529117,0.004794,0.493490,10.917588,-0.753896,0.533726,3.322579,-0.452662
0.136000,-4.135809,-2.105744,0.302577,0.995701,-0.026787,0.003551,0.088596,0.499000,0.065924,0.078828,0.106380,-0.090448,-0.228156,-0.021786,-0.926853,-0.145028,0.035431,1.016102,-0.475484,0.054481,-0.906227,0.483473,0.010400,0.859412,-0.035622,0.092595,-1.045737,-0.576842,0.867370,-12.259209,3.152654,0.824478,11.509946,-3.907311,0.469960,2.724260,-0.091599
0.138000,-4.134827,-2.105622,0.302711,0.995718,-0.026696,0.003546,0.088431,0.491030,0.061189,0.066991,0.091030,-0.008481,-0.166127,-0.021635,-0.928994,-0.145894,0.036964,0.992039,-0.471225,0.055236,-0.883862,0.477283,0.011040,0.863827,-0.035225,0.075587,-1.070187,-0.432897,0.766639,-12.031123,2.129587,0.377709,11.182796,-3.094981,0.320038,2.207585,0.198374
0.140000,-4.133873,-2.105515,0.302864,0.995733,-0.026654,0.003646,0.088270,0.476977,0.053139,0.076399,0.052277,0.099865,-0.158667,-0.021398,-0.930951,-0.146613,0.039711,0.966462,-0.459876,0.056085,-0.860314,0.465052,0.011445,0.867097,-0.033979,0.118428,-0.978674,-0.359589,1.373390,-12.788756,5.674795,0.424500,11.773952,-6.115939,0.202288,1.634940,0.623097
0.142000,-4.132932,-2.105405,0.302991,0.995743,-0.026537,0.003802,0.088186,0.470457,0.055244,0.063417,0.130530,0.148015,-0.080212,-0.021418,-0.933000,-0.147122,0.041337,0.941778,-0.453175,0.055953,-0.837851,0.457563,0.011776,0.869639,-0.032298,-0.009798,-1.024617,-0.254677,0.812974,-12.342110,3.350464,-0.066138,11.231689,-3.744383,0.165458,1.270893,0.840674
0.144000,-4.132009,-2.105289,0.303134,0.995755,-0.026333,0.003999,0.088101,0.461478,0.058009,0.071885,0.221293,0.180024,-0.079291,-0.021631,-0.934922,-0.147663,0.043254,0.916119,-0.439663,0.056432,-0.814604,0.444436,0.012228,0.871567,-0.030119,-0.106437,-0.960693,-0.270404,0.958425,-12.829511,6.756112,0.239628,11.623218,-6.563336,0.226014,0.964206,1.089517
0.146000,-4.131086,-2.105165,0.303249,0.995763,-0.026107,0.004181,0.088073,0.461580,0.061786,0.057288,0.241413,0.162290,-0.022721,-0.021971,-0.936908,-0.148244,0.043986,0.891642,-0.430722,0.056279,-0.792442,0.434984,0.012593,0.873363,-0.028002,-0.169912,-0.993261,-0.290409,0.366379,-12.238289,4.470275,-0.076474,11.081222,-4.725816,0.182658,0.897783,1.058177
0.148000,-4.130164,-2.105048,0.303379,0.995770,-0.025984,0.004320,0.088020,0.461122,0.058469,0.065082,0.135347,0.128348,-0.049245,-0.022072,-0.938672,-0.149202,0.045444,0.866559,-0.413705,0.056675,-0.769629,0.417827,0.012771,0.875168,-0.025957,-0.050605,-0.882004,-0.479022,0.728757,-12.541331,8.508389,0.197853,11.406316,-8.578510,0.088730,0.902712,1.022574
0.150000,-4.129228,-2.104933,0.303472,0.995771,-0.025967,0.004384,0.088011,0.468000,0.057649,0.046333,0.022472,0.062399,-0.006991,-0.022010,-0.940482,-0.150390,0.046090,0.842868,-0.401286,0.056288,-0.748155,0.404682,0.012646,0.877314,-0.024418,0.031030,-0.904750,-0.593849,0.322827,-11.845748,6.209535,-0.193474,10.736827,-6.572821,-0.062297,1.072727,0.769615
0.152000,-4.128283,-2.104818,0.303568,0.995773,-0.026008,0.004367,0.087979,0.472606,0.057569,0.048061,-0.041942,-0.012083,-0.033229,-0.021796,-0.942165,-0.151965,0.047197,0.818991,-0.381566,0.056458,-0.726643,0.385632,0.012444,0.879769,-0.023191,0.106819,-0.841654,-0.787367,0.553664,-11.938652,9.860091,0.085014,10.756353,-9.525054,-0.100970,1.227744,0.613572
0.154000,-4.127322,-2.104694,0.303617,0.995771,-0.026051,0.004286,0.087989,0.480428,0.062053,0.024689,-0.050584,-0.077573,0.008094,-0.021636,-0.944026,-0.153577,0.047303,0.796596,-0.367304,0.056119,-0.706656,0.371692,0.012174,0.882605,-0.022462,0.080160,-0.930376,-0.806380,0.053232,-11.197186,7.131119,-0.169634,9.993331,-6.969814,-0.134897,1.418058,0.364302
0.156000,-4.126354,-2.104559,0.303665,0.995774,-0.026037,0.004158,0.087974,0.484081,0.067377,0.023707,0.002626,-0.127912,-0.018757,-0.021566,-0.945885,-0.155317,0.047645,0.774155,-0.346360,0.056608,-0.686689,0.351854,0.012078,0.885647,-0.021910,0.034846,-0.929748,-0.869867,0.170763,-11.220735,10.471703,0.244766,9.983466,-9.919078,-0.047953,1.520713,0.276176
0.158000,-4.125374,-2.104420,0.303669,0.995773,-0.026037,0.004015,0.087992,0.489638,0.069734,0.002141,-0.012289,-0.143001,0.014253,-0.021519,-0.947925,-0.156918,0.047393,0.752979,-0.330212,0.056650,-0.667892,0.335664,0.011910,0.888861,-0.021653,0.023467,-1.019848,-0.800515,-0.125757,-10.587936,8.073910,0.020885,9.398683,-8.095109,-0.084161,1.607283,0.128252
0.160000,-4.124389,-2.104282,0.303675,0.995773,-0.026060,0.003862,0.087984,0.492757,0.069035,0.003119,-0.036016,-0.150358,-0.011568,-0.021391,-0.949929,-0.158567,0.047788,0.731751,-0.307218,0.057150,-0.649050,0.313194,0.011737,0.892110,-0.021418,0.063932,-1.002191,-0.824683,0.197135,-10.613994,11.497192,0.249924,9.420713,-11.234723,-0.086300,1.624307,0.117648
0.162000,-4.123393,-2.104145,0.303642,0.995770,-0.026113,0.003728,0.088015,0.497935,0.068305,-0.016831,-0.065108,-0.129668,0.027461,-0.021250,-0.952112,-0.159986,0.047833,0.711735,-0.288883,0.056952,-0.631430,0.295002,0.011435,0.895361,-0.021308,0.070777,-1.091196,-0.709124,0.022785,-10.008046,9.167620,-0.099002,8.810239,-9.095970,-0.150967,1.625775,0.054803
0.164000,-4.122389,-2.104004,0.303606,0.995768,-0.026118,0.003609,0.088038,0.501884,0.070266,-0.017733,-0.015725,-0.118650,0.019966,-0.021194,-0.954328,-0.161338,0.048190,0.691985,-0.265488,0.057036,-0.614176,0.272973,0.011240,0.898533,-0.021091,0.027681,-1.108018,-0.676062,0.178236,-9.874864,11.697608,0.041755,8.626680,-11.014554,-0.097549,1.585989,0.108594
0.166000,-4.121376,-2.103860,0.303536,0.995764,-0.026092,0.003534,0.088100,0.506635,0.072385,-0.035106,0.018544,-0.078241,0.059827,-0.021257,-0.956733,-0.162392,0.048096,0.673500,-0.246747,0.056596,-0.598108,0.254999,0.011044,0.901587,-0.020848,-0.031442,-1.202536,-0.527338,-0.046922,-9.242286,9.370190,-0.220002,8.033975,-8.987078,-0.098180,1.527035,0.121530
0.168000,-4.120354,-2.103707,0.303469,0.995762,-0.025995,0.003486,0.088151,0.510888,0.076162,-0.033675,0.092312,-0.057469,0.050646,-0.021459,-0.959158,-0.163379,0.048212,0.655438,-0.223326,0.056551,-0.582362,0.232765,0.011011,0.904514,-0.020427,-0.100886,-1.212734,-0.493231,0.058046,-9.031327,11.710566,-0.022487,7.873430,-11.117063,-0.016303,1.463114,0.210594
0.170000,-4.119322,-2.103553,0.303377,0.995757,-0.025895,0.003483,0.088231,0.515918,0.077095,-0.045963,0.098900,-0.014040,0.079396,-0.021709,-0.961703,-0.164150,0.048094,0.638554,-0.203344,0.056105,-0.567580,0.213116,0.010940,0.907315,-0.019948,-0.125051,-1.272619,-0.385452,-0.058713,-8.441933,9.990844,-0.222895,7.390589,-9.824651,-0.035830,1.400693,0.239400
0.172000,-4.118277,-2.103395,0.303287,0.995754,-0.025773,0.003492,0.088305,0.522954,0.078896,-0.044970,0.122635,-0.004107,0.075469,-0.022000,-0.964245,-0.164948,0.048191,0.622339,-0.179863,0.055835,-0.553385,0.190671,0.010918,0.910077,-0.019378,-0.145156,-1.270825,-0.398945,0.048253,-8.107563,11.740965,-0.135126,7.097937,-11.222474,-0.010707,1.380942,0.285272
0.174000,-4.117217,-2.103238,0.303175,0.995747,-0.025673,0.003529,0.088407,0.529705,0.078794,-0.055614,0.102024,0.026276,0.102806,-0.022279,-0.966872,-0.165630,0.048133,0.607335,-0.159736,0.055133,-0.540263,0.171344,0.010804,0.912787,-0.018803,-0.139738,-1.313271,-0.341123,-0.028923,-7.501902,10.063326,-0.350832,6.560963,-9.663342,-0.057311,1.354793,0.287061
0.176000,-4.116139,-2.103076,0.303063,0.995741,-0.025562,0.003561,0.088507,0.539163,0.081088,-0.055995,0.112734,0.019206,0.101731,-0.022579,-0.969496,-0.166409,0.048185,0.593225,-0.137373,0.054571,-0.527962,0.150522,0.010713,0.915563,-0.018231,-0.149911,-1.312361,-0.389261,0.025938,-7.055143,11.181428,-0.280840,6.150411,-10.410866,-0.045521,1.387973,0.286006
0.178000,-4.115048,-2.102911,0.302938,0.995733,-0.025468,0.003614,0.088622,0.545238,0.082086,-0.062981,0.097356,0.041847,0.116563,-0.022870,-0.972163,-0.167134,0.048161,0.580165,-0.117361,0.053847,-0.516482,0.131405,0.010568,0.918311,-0.017654,-0.145674,-1.333512,-0.362597,-0.011800,-6.529618,10.006086,-0.362026,5.740044,-9.558806,-0.072362,1.374402,0.288916
0.180000,-4.113938,-2.102738,0.302809,0.995726,-0.025336,0.003660,0.088737,0.554978,0.086741,-0.064412,0.135608,0.031176,0.116809,-0.023246,-0.974850,-0.167941,0.048083,0.568125,-0.096350,0.053369,-0.505898,0.111530,0.010508,0.921143,-0.017086,-0.188124,-1.343372,-0.403757,-0.039321,-6.020148,10.505387,-0.239348,5.291748,-9.937275,-0.029835,1.415932,0.283657
0.182000,-4.112819,-2.102561,0.302671,0.995718,-0.025205,0.003728,0.088860,0.559752,0.088474,-0.068767,0.135599,0.052191,0.125233,-0.023639,-0.977559,-0.168711,0.047986,0.556929,-0.076889,0.052886,-0.495976,0.092780,0.010439,0.923931,-0.016481,-0.196390,-1.354287,-0.384947,-0.048284,-5.598269,9.730475,-0.241030,4.960970,-9.374961,-0.034491,1.394016,0.302468
0.184000,-4.111677,-2.102376,0.302526,0.995710,-0.025050,0.003785,0.088991,0.570849,0.092421,-0.072670,0.158194,0.039613,0.133451,-0.024091,-0.980310,-0.169557,0.047782,0.546923,-0.057974,0.052489,-0.487237,0.075140,0.010407,0.926830,-0.015926,-0.225826,-1.375524,-0.423000,-0.102297,-5.002772,9.457316,-0.198781,4.369448,-8.820090,-0.016097,1.449630,0.277892
0.186000,-4.110528,-2.102193,0.302378,0.995701,-0.024935,0.003863,0.089124,0.574385,0.091783,-0.074047,0.121603,0.065048,0.135353,-0.024472,-0.983037,-0.170398,0.047773,0.537531,-0.039667,0.052076,-0.478968,0.057851,0.010299,0.929661,-0.015310,-0.190718,-1.363637,-0.420203,-0.004470,-4.696146,9.153521,-0.206203,4.134555,-8.644387,-0.054227,1.415087,0.307735
0.188000,-4.109355,-2.102004,0.302218,0.995690,-0.024828,0.003935,0.089269,0.586553,0.094335,-0.079735,0.111311,0.057838,0.148126,-0.024849,-0.985815,-0.171301,0.047660,0.529529,-0.023370,0.051596,-0.472057,0.042710,0.010151,0.932606,-0.014764,-0.188219,-1.389175,-0.451739,-0.056366,-4.000817,8.148721,-0.240348,3.455708,-7.570812,-0.074028,1.472803,0.272957
0.190000,-4.108179,-2.101816,0.302063,0.995679,-0.024749,0.004034,0.089408,0.588239,0.094084,-0.077786,0.087059,0.088550,0.142006,-0.025172,-0.988545,-0.172196,0.047824,0.521903,-0.006493,0.051252,-0.465361,0.026632,0.009967,0.935430,-0.014096,-0.161587,-1.364557,-0.447256,0.081810,-3.812920,8.438498,-0.171689,3.347885,-8.038972,-0.091654,1.412120,0.334234
0.192000,-4.106975,-2.101616,0.301890,0.995668,-0.024628,0.004129,0.089568,0.601988,0.099701,-0.086527,0.128359,0.079518,0.163243,-0.025607,-0.991389,-0.173094,0.047634,0.515959,0.006838,0.050862,-0.460387,0.014425,0.009838,0.938375,-0.013491,-0.217729,-1.422273,-0.449315,-0.094764,-2.972127,6.665440,-0.195066,2.486972,-6.103541,-0.064750,1.472042,0.302386
0.194000,-4.105770,-2.101416,0.301725,0.995657,-0.024510,0.004255,0.089716,0.602594,0.100418,-0.082148,0.127135,0.111251,0.151420,-0.026031,-0.994174,-0.173981,0.047745,0.510223,0.021807,0.050744,-0.455487,0.000450,0.009732,0.941165,-0.012717,-0.211642,-1.392351,-0.443258,0.055327,-2.868039,7.484537,-0.059376,2.450165,-6.987252,-0.053117,1.395382,0.387131
0.196000,-4.104533,-2.101206,0.301538,0.995644,-0.024383,0.004375,0.089890,0.618423,0.104907,-0.093507,0.136964,0.104061,0.177887,-0.026506,-0.997091,-0.174866,0.047479,0.506495,0.031638,0.050406,-0.452590,-0.008396,0.009604,0.944106,-0.012048,-0.237675,-1.458565,-0.442585,-0.132596,-1.864140,4.915607,-0.168703,1.448474,-4.422847,-0.063643,1.470228,0.334416
0.198000,-4.103297,-2.100999,0.301366,0.995631,-0.024297,0.004526,0.090042,0.617919,0.103428,-0.085993,0.098211,0.139410,0.157118,-0.026880,-0.999898,-0.175777,0.047719,0.502766,0.044368,0.050343,-0.449507,-0.020353,0.009438,0.946876,-0.011194,-0.187164,-1.403516,-0.455628,0.119656,-1.864376,6.365036,-0.031380,1.541508,-5.978564,-0.083087,1.385001,0.426845
0.200000,-4.102026,-2.100784,0.301167,0.995616,-0.024218,0.004670,0.090226,0.635496,0.107378,-0.099789,0.090183,0.131414,0.188582,-0.027275,-1.002856,-0.176684,0.047543,0.501317,0.050677,0.049928,-0.448707,-0.025916,0.009205,0.949828,-0.010485,-0.197220,-1.479155,-0.453273,-0.087859,-0.724664,3.154169,-0.207687,0.399926,-2.781793,-0.116666,1.475881,0.354505
0.202000,-4.100759,-2.100571,0.300987,0.995602,-0.024160,0.004846,0.090383,0.633583,0.106752,-0.090071,0.072444,0.166688,0.162103,-0.027607,-1.005691,-0.177617,0.047900,0.499658,0.061032,0.049910,-0.447552,-0.035411,0.008988,0.952583,-0.009555,-0.165934,-1.417282,-0.466876,0.178341,-0.829287,5.177668,-0.008868,0.577671,-4.747306,-0.108326,1.377736,0.465191
0.204000,-4.099455,-2.100345,0.300774,0.995586,-0.024072,0.005019,0.090577,0.651838,0.113027,-0.106486,0.101497,0.158878,0.199094,-0.028044,-1.008722,-0.178498,0.047656,0.500515,0.063731,0.049554,-0.448931,-0.037254,0.008774,0.955520,-0.008767,-0.218695,-1.515746,-0.440349,-0.122079,0.428544,1.349451,-0.178159,-0.689831,-0.921378,-0.107277,1.468513,0.394107
0.206000,-4.098158,-2.100115,0.300584,0.995572,-0.023992,0.005229,0.090735,0.648566,0.114800,-0.094615,0.098013,0.198156,0.164001,-0.028452,-1.011609,-0.179406,0.047443,0.502197,0.065074,0.049729,-0.449702,-0.044120,0.008634,0.958232,-0.007720,-0.203772,-1.443357,-0.453936,-0.106165,0.840765,0.671459,0.087752,-0.385168,-3.432991,-0.069866,1.356080,0.523121
0.208000,-4.096831,-2.099872,0.300378,0.995559,-0.023781,0.005400,0.090929,0.663292,0.121347,-0.103286,0.224111,0.147127,0.199206,-0.029135,-1.014654,-0.180395,0.046899,0.504938,0.065064,0.049768,-0.453123,-0.042761,0.008674,0.961165,-0.006787,-0.341676,-1.522565,-0.494596,-0.272267,1.370589,-0.004690,0.019240,-1.710591,0.679385,0.020076,1.466217,0.466630
0.210000,-4.095517,-2.099635,0.300211,0.995548,-0.023605,0.005581,0.091078,0.657175,0.118823,-0.083315,0.190362,0.160211,0.154258,-0.029697,-1.017451,-0.181582,0.046501,0.508065,0.064479,0.050291,-0.455734,-0.047192,0.008728,0.963916,-0.005613,-0.280883,-1.398374,-0.593241,-0.198717,1.563397,-0.292802,0.261735,-1.305758,-2.215496,0.027121,1.375737,0.587187
0.212000,-4.094175,-2.099400,0.300035,0.995536,-0.023405,0.005700,0.091258,0.670895,0.117399,-0.088150,0.209203,0.096354,0.184872,-0.030287,-1.020314,-0.182986,0.046020,0.511859,0.063142,0.050322,-0.460968,-0.043116,0.008730,0.966948,-0.004625,-0.295148,-1.431688,-0.701950,-0.240870,1.897010,-0.668185,0.015398,-2.616806,2.037868,0.001049,1.515768,0.493991
0.214000,-4.092847,-2.099184,0.299900,0.995525,-0.023344,0.005825,0.091388,0.664307,0.108034,-0.067267,0.070960,0.115604,0.133117,-0.030522,-1.022877,-0.184619,0.045933,0.515854,0.061481,0.050538,-0.465237,-0.045027,0.008533,0.969813,-0.003443,-0.117345,-1.281526,-0.816483,-0.043517,1.997533,-0.830669,0.107749,-2.134660,-0.955586,-0.098489,1.432669,0.590806
0.216000,-4.091495,-2.098976,0.299750,0.995511,-0.023292,0.005916,0.091542,0.675949,0.104026,-0.075184,0.058386,0.082804,0.156821,-0.030713,-1.025555,-0.186284,0.045976,0.520570,0.058932,0.050170,-0.471850,-0.038822,0.008230,0.972869,-0.002408,-0.095826,-1.339080,-0.832985,0.021914,2.358123,-1.274593,-0.183809,-3.306286,3.102797,-0.151526,1.527894,0.517563
0.218000,-4.090160,-2.098776,0.299631,0.995501,-0.023288,0.006050,0.091641,0.667278,0.099627,-0.059588,0.015849,0.130505,0.103365,-0.030756,-1.028061,-0.187908,0.046190,0.525330,0.056192,0.050234,-0.477361,-0.038510,0.007938,0.975638,-0.001082,-0.021239,-1.252938,-0.811885,0.107003,2.380227,-1.370028,0.031770,-2.755774,0.156036,-0.145943,1.384720,0.663117
0.220000,-4.088810,-2.098573,0.299489,0.995492,-0.023195,0.006194,0.091755,0.675099,0.101710,-0.071031,0.105276,0.132277,0.117612,-0.030975,-1.030765,-0.189326,0.046313,0.531044,0.052208,0.050084,-0.484728,-0.031329,0.007786,0.978462,0.000199,-0.109491,-1.351672,-0.708786,0.061218,2.856670,-1.991648,-0.074793,-3.683507,3.590222,-0.076224,1.411853,0.640570
0.222000,-4.087479,-2.098371,0.299367,0.995487,-0.023093,0.006402,0.091817,0.665355,0.100976,-0.060869,0.119798,0.196509,0.067982,-0.031178,-1.033374,-0.190554,0.046459,0.536630,0.048201,0.050474,-0.490982,-0.029422,0.007765,0.980962,0.001771,-0.101819,-1.304485,-0.614063,0.073306,2.793019,-2.003821,0.194905,-3.126832,0.953629,-0.010646,1.250282,0.785782
0.224000,-4.086138,-2.098169,0.299223,0.995483,-0.022957,0.006634,0.091884,0.670803,0.101168,-0.071882,0.155775,0.216284,0.073492,-0.031449,-1.036134,-0.191566,0.046580,0.543257,0.042799,0.050582,-0.498603,-0.022037,0.007796,0.983469,0.003313,-0.135083,-1.380124,-0.505989,0.060245,3.313461,-2.700994,0.053997,-3.810418,3.692327,0.015630,1.253414,0.770993
0.226000,-4.084814,-2.097975,0.299095,0.995480,-0.022894,0.006920,0.091908,0.662064,0.096667,-0.064299,0.089258,0.278790,0.030578,-0.031544,-1.038772,-0.192450,0.046950,0.549724,0.037415,0.050900,-0.505232,-0.018885,0.007778,0.985713,0.005054,-0.047744,-1.319068,-0.441980,0.184873,3.233415,-2.691743,0.159141,-3.314418,1.576096,-0.008930,1.121699,0.870495
0.228000,-4.083491,-2.097790,0.298958,0.995477,-0.022874,0.007230,0.091927,0.661122,0.092842,-0.068143,0.047561,0.306640,0.026878,-0.031542,-1.041421,-0.193230,0.047549,0.556406,0.031667,0.050900,-0.512390,-0.013168,0.007674,0.987890,0.006804,0.000985,-1.324580,-0.389863,0.299918,3.341415,-2.874220,-0.000185,-3.579072,2.858456,-0.051933,1.088802,0.874967
0.230000,-4.082188,-2.097605,0.298839,0.995476,-0.022846,0.007573,0.091914,0.651573,0.092365,-0.059521,0.060275,0.338954,-0.005269,-0.031542,-1.043957,-0.193964,0.048096,0.562708,0.026340,0.051172,-0.518796,-0.010114,0.007666,0.989865,0.008727,-0.000130,-1.267880,-0.367375,0.273173,3.150746,-2.663493,0.136283,-3.203051,1.527355,-0.003913,0.987476,0.961719
0.232000,-4.080857,-2.097435,0.298764,0.995470,-0.023180,0.007809,0.091872,0.665420,0.085118,-0.037641,-0.311329,0.266430,-0.037733,-0.030771,-1.046081,-0.195512,0.049308,0.569017,0.021501,0.051382,-0.524482,-0.026279,0.006997,0.992303,0.010304,0.385828,-1.061875,-0.773784,0.606277,3.154619,-2.419449,0.104970,-2.842890,-8.082570,-0.334550,1.218886,0.788584
0.234000,-4.079505,-2.097259,0.298729,0.995463,-0.023692,0.007966,0.091804,0.676290,0.087652,-0.017432,-0.494256,0.204866,-0.067218,-0.029635,-1.047900,-0.197686,0.050804,0.575276,0.017205,0.051996,-0.529181,-0.061836,0.006063,0.995058,0.011709,0.567894,-0.909596,-1.086866,0.747639,3.129383,-2.147976,0.307114,-2.349565,-17.778857,-0.467248,1.377523,0.702177
0.236000,-4.078095,-2.096986,0.298639,0.995469,-0.023061,0.007898,0.091904,0.704957,0.136568,-0.045338,0.620462,-0.127874,0.102006,-0.030888,-1.050587,-0.199988,0.049619,0.581442,0.014438,0.052804,-0.541410,-0.071967,0.007036,0.998753,0.012676,-0.626802,-1.343439,-1.151105,-0.592314,3.083042,-1.383342,0.403932,-6.114387,-5.065319,0.486483,1.847221,0.483625
0.238000,-4.076638,-2.096659,0.298495,0.995481,-0.021609,0.007629,0.092150,0.728574,0.163865,-0.071721,1.419160,-0.407326,0.249255,-0.033735,-1.054160,-0.201948,0.046551,0.587469,0.012969,0.052828,-0.560640,-0.054968,0.009266,1.003269,0.013188,-1.423201,-1.786620,-0.979852,-1.533822,3.013607,-0.734920,0.011762,-9.615347,8.499711,1.114887,2.258451,0.256025
0.240000,-4.075185,-2.096407,0.298387,0.995483,-0.020821,0.007345,0.092336,0.726531,0.125753,-0.054035,0.757135,-0.358764,0.184561,-0.034882,-1.057715,-0.203116,0.044995,0.593502,0.011361,0.051189,-0.577574,-0.047381,0.010203,1.007769,0.013593,-0.573376,-1.777651,-0.584140,-0.778071,3.016454,-0.803869,-0.819653,-8.466830,3.793266,0.468618,2.250010,0.202689
0.242000,-4.073771,-2.096261,0.298355,0.995476,-0.021110,0.007176,0.092358,0.706950,0.072793,-0.016024,-0.303529,-0.142466,0.017333,-0.033612,-1.060514,-0.204125,0.045933,0.599497,0.009102,0.048473,-0.587462,-0.065583,0.009273,1.011655,0.014302,0.634841,-1.399103,-0.504438,0.468747,2.997617,-1.129487,-1.357594,-4.944035,-9.100977,-0.465113,1.942808,0.354013
0.244000,-4.072390,-2.096134,0.298349,0.995474,-0.021446,0.007077,0.092308,0.690177,0.063861,-0.003026,-0.343370,-0.066578,-0.054416,-0.032255,-1.062982,-0.205278,0.047109,0.605251,0.007027,0.045825,-0.594487,-0.087066,0.008365,1.015099,0.015389,0.678699,-1.234349,-0.576394,0.588195,2.877048,-1.037618,-1.323931,-3.512657,-10.741243,-0.453923,1.722063,0.543621
0.246000,-4.071029,-2.095934,0.298313,0.995491,-0.020768,0.006971,0.092296,0.680920,0.099804,-0.018196,0.666023,-0.167802,-0.010838,-0.033044,-1.065930,-0.206168,0.046180,0.610588,0.006050,0.044153,-0.604117,-0.087309,0.009378,1.018431,0.016811,-0.394712,-1.474133,-0.444997,-0.464347,2.668057,-0.488180,-0.836020,-4.814756,-0.121613,0.506634,1.666013,0.711010
0.248000,-4.069693,-2.095679,0.298264,0.995522,-0.019313,0.006893,0.092282,0.668008,0.127708,-0.024363,1.441540,-0.211937,-0.008807,-0.035466,-1.069165,-0.206792,0.043693,0.615542,0.005938,0.043671,-0.614590,-0.075376,0.011935,1.021509,0.018641,-1.211009,-1.617130,-0.312380,-1.243533,2.477047,-0.055967,-0.241287,-5.236616,5.966546,1.278449,1.539088,0.915007
0.250000,-4.068390,-2.095469,0.298260,0.995553,-0.018277,0.006886,0.092153,0.651201,0.104968,-0.002113,1.031885,-0.100368,-0.123964,-0.036977,-1.071793,-0.207737,0.042279,0.620387,0.005710,0.043350,-0.620543,-0.076079,0.013861,1.024183,0.020739,-0.755470,-1.314292,-0.472581,-0.707359,2.422658,-0.113980,-0.160494,-2.976213,-0.351518,0.962980,1.336801,1.049136
0.252000,-4.067105,-2.095354,0.298305,0.995578,-0.018174,0.006881,0.091908,0.642799,0.057304,0.022677,0.104867,-0.009326,-0.245592,-0.036463,-1.073528,-0.209460,0.043017,0.625351,0.005029,0.042025,-0.621944,-0.091566,0.014090,1.026808,0.022676,0.256991,-0.867405,-0.861512,0.369179,2.482136,-0.340638,-0.662411,-0.700903,-7.743665,0.114623,1.312623,0.968654
0.254000,-4.065812,-2.095268,0.298348,0.995601,-0.018196,0.006781,0.091655,0.646311,0.042904,0.021324,-0.029572,-0.093867,-0.256210,-0.035618,-1.075071,-0.211682,0.044090,0.630352,0.004623,0.040037,-0.624090,-0.101543,0.013970,1.029855,0.024177,0.422242,-0.771458,-1.110563,0.536302,2.500392,-0.203111,-0.993878,-1.072814,-4.988378,-0.060021,1.523346,0.750089
0.256000,-4.064505,-2.095146,0.298358,0.995632,-0.017637,0.006570,0.091450,0.653285,0.061086,0.005442,0.539730,-0.257186,-0.206548,-0.035826,-1.077259,-0.213253,0.043938,0.635239,0.005029,0.038426,-0.629790,-0.096592,0.014857,1.033351,0.025465,-0.103589,-1.093948,-0.785532,-0.075876,2.443416,0.203218,-0.805708,-2.849740,2.475609,0.443655,1.748189,0.644108
0.258000,-4.063197,-2.095003,0.298365,0.995668,-0.016766,0.006320,0.091239,0.654326,0.071589,0.003135,0.845791,-0.325609,-0.212583,-0.036490,-1.079914,-0.213953,0.043180,0.640017,0.005944,0.037725,-0.636173,-0.090636,0.016364,1.036977,0.026775,-0.332113,-1.327524,-0.350191,-0.378982,2.389275,0.457353,-0.350441,-3.191801,2.977836,0.753326,1.812829,0.655008
0.260000,-4.061894,-2.094875,0.298390,0.995705,-0.016023,0.006070,0.090988,0.651484,0.063821,0.012795,0.719871,-0.312449,-0.252105,-0.036855,-1.082334,-0.214815,0.042754,0.644785,0.006910,0.037285,-0.642117,-0.085682,0.017682,1.040524,0.028177,-0.182662,-1.209944,-0.430783,-0.213087,2.383834,0.482886,-0.220153,-2.972075,2.476808,0.658881,1.773649,0.701231
0.262000,-4.060607,-2.094797,0.298454,0.995739,-0.015771,0.005847,0.090671,0.643481,0.038972,0.032007,0.232503,-0.240317,-0.320826,-0.035692,-1.083307,-0.213014,0.043446,0.649619,0.007570,0.036311,-0.647048,-0.082400,0.018130,1.043855,0.029686,0.581617,-0.486502,0.900400,0.346158,2.416941,0.330157,-0.486686,-2.465124,1.641068,0.224351,1.665288,0.754261
0.264000,-4.059334,-2.094752,0.298563,0.995771,-0.015950,0.005659,0.090303,0.636584,0.022772,0.054544,-0.191952,-0.165520,-0.374017,-0.033810,-1.081950,-0.212965,0.044976,0.654745,0.007656,0.034872,-0.651008,-0.080705,0.017843,1.046898,0.031396,0.940971,0.678476,0.024207,0.764793,2.562976,0.043057,-0.719799,-1.980126,0.847585,-0.143482,1.521722,0.855112
0.266000,-4.058067,-2.094691,0.298707,0.995804,-0.016114,0.005542,0.089911,0.633038,0.030210,0.071663,-0.171236,-0.094757,-0.395334,-0.032150,-1.080739,-0.213836,0.046298,0.660228,0.007210,0.033798,-0.654383,-0.079996,0.017691,1.049485,0.033586,0.830131,0.605517,-0.435159,0.660949,2.741418,-0.223091,-0.536790,-1.687558,0.354446,-0.076415,1.293232,1.095001
0.268000,-4.056812,-2.094579,0.298875,0.995844,-0.015888,0.005522,0.089511,0.627685,0.056373,0.083930,0.226321,-0.034638,-0.401839,-0.031481,-1.079930,-0.215069,0.046615,0.665878,0.006585,0.033811,-0.657476,-0.079759,0.018431,1.051507,0.036420,0.334199,0.404454,-0.616520,0.158969,2.825158,-0.312285,0.006248,-1.546729,0.118529,0.370397,1.011062,1.416759
0.270000,-4.055563,-2.094423,0.299059,0.995889,-0.015334,0.005564,0.089104,0.624495,0.077999,0.091993,0.557971,-0.001763,-0.405091,-0.031627,-1.079529,-0.216492,0.046153,0.671490,0.006116,0.034713,-0.660445,-0.079791,0.019872,1.053192,0.039513,-0.072565,0.200265,-0.711453,-0.231401,2.805746,-0.234661,0.451221,-1.484216,-0.015873,0.720167,0.842797,1.546569
0.272000,-4.054309,-2.094264,0.299248,0.995933,-0.014818,0.005591,0.088694,0.626878,0.079316,0.094649,0.519457,-0.012694,-0.408730,-0.031577,-1.079772,-0.217340,0.045771,0.677033,0.005881,0.035680,-0.663384,-0.080060,0.020891,1.055190,0.041282,0.024761,-0.121124,-0.424039,-0.190774,2.771894,-0.117507,0.483486,-1.469477,-0.134592,0.509375,0.998808,0.884734
0.274000,-4.053046,-2.094124,0.299441,0.995974,-0.014526,0.005572,0.088284,0.631869,0.069868,0.096753,0.292159,-0.039343,-0.410576,-0.030851,-1.080644,-0.217418,0.045918,0.682437,0.005957,0.036271,-0.666322,-0.080554,0.021024,1.057678,0.041422,0.363199,-0.436363,-0.039352,0.073465,2.701958,0.038138,0.295340,-1.469278,-0.247243,0.066703,1.244147,0.069936
0.276000,-4.051759,-2.093988,0.299663,0.996017,-0.014258,0.005489,0.087850,0.643544,0.068060,0.110632,0.262262,-0.099958,-0.435625,-0.029969,-1.081727,-0.217664,0.046348,0.687480,0.021578,0.036885,-0.669407,-0.081136,0.020936,1.060436,0.040988,0.440911,-0.541505,-0.122556,0.215134,2.521367,7.810333,0.307290,-1.542282,-0.290820,-0.043987,1.378985,-0.216907
0.278000,-4.050461,-2.093879,0.299861,0.996049,-0.014449,0.005462,0.087452,0.648861,0.054843,0.099311,-0.190217,-0.004613,-0.401100,-0.028340,-1.082654,-0.218443,0.046802,0.695366,0.030060,0.036599,-0.672105,-0.082302,0.018830,1.061069,0.042026,0.814328,-0.463479,-0.389808,0.227058,3.943189,4.240870,-0.143353,-1.349263,-0.582827,-1.052982,0.316136,0.518960
0.280000,-4.049160,-2.093750,0.300028,0.996076,-0.014758,0.005552,0.087089,0.650585,0.064150,0.083282,-0.297275,0.122241,-0.363950,-0.026815,-1.083583,-0.219381,0.045619,0.706827,0.026199,0.036152,-0.674481,-0.083830,0.016071,1.059828,0.044523,0.762536,-0.464235,-0.468950,-0.591775,5.730410,-1.930451,-0.223308,-1.187659,-0.764347,-1.379405,-0.620394,1.248460
0.282000,-4.047873,-2.093572,0.300172,0.996106,-0.014749,0.005745,0.086731,0.643569,0.089099,0.072043,0.028420,0.196004,-0.356258,-0.026619,-1.083974,-0.218784,0.043284,0.719161,0.019494,0.036462,-0.676800,-0.085269,0.014621,1.058006,0.045521,0.097811,-0.195702,0.298723,-1.167633,6.167005,-3.352610,0.155182,-1.159889,-0.719240,-0.724848,-0.911000,0.499097
0.284000,-4.046533,-2.093344,0.300362,0.996133,-0.014661,0.005715,0.086440,0.669791,0.114009,0.095116,0.086461,-0.032902,-0.292926,-0.029143,-1.079713,-0.243942,0.041203,0.729745,0.015096,0.036932,-0.680066,-0.086165,0.013623,1.057914,0.051421,-1.261549,2.130791,-12.578953,-1.040208,5.291743,-2.198907,0.234579,-1.632685,-0.447991,-0.499123,-0.045936,2.949936
0.286000,-4.045176,-2.093090,0.300542,0.996172,-0.014129,0.005631,0.086087,0.678559,0.126970,0.090115,0.525512,-0.124495,-0.353060,-0.030527,-1.080073,-0.257057,0.038892,0.738763,0.012586,0.038370,-0.683863,-0.086391,0.015089,1.060623,0.056136,-0.692256,-0.180303,-6.557508,-1.155828,4.509051,-1.255106,0.719322,-1.898388,-0.113166,0.732733,1.354389,2.357237
0.288000,-4.043793,-2.092871,0.300682,0.996219,-0.013548,0.005460,0.085642,0.691329,0.109486,0.069992,0.567078,-0.214614,-0.446161,-0.027695,-1.090143,-0.246773,0.037197,0.746717,0.011369,0.039931,-0.688088,-0.086049,0.018316,1.067500,0.053109,1.416220,-5.034654,5.141891,-0.847463,3.976919,-0.608473,0.780521,-2.112636,0.171035,1.613521,3.438556,-1.513275
0.290000,-4.042392,-2.092710,0.300854,0.996261,-0.013429,0.005113,0.085195,0.700646,0.080426,0.085954,0.092533,-0.350184,-0.453443,-0.023443,-1.100454,-0.236781,0.036856,0.753736,0.011360,0.040476,-0.692497,-0.085827,0.020096,1.075479,0.051618,2.125598,-5.155713,4.995642,-0.170383,3.509820,-0.004140,0.272292,-2.204619,0.110953,0.890335,3.989585,-0.745555
0.292000,-4.040976,-2.092591,0.301062,0.996294,-0.013821,0.004537,0.084770,0.707947,0.059611,0.104006,-0.437563,-0.535481,-0.435486,-0.019618,-1.108003,-0.236962,0.037797,0.760031,0.012478,0.039925,-0.697238,-0.085646,0.020380,1.085261,0.046830,1.912619,-3.774474,-0.090374,0.470450,3.147405,0.558757,-0.275591,-2.370428,0.090390,0.141723,4.890841,-2.393742
0.294000,-4.039578,-2.092447,0.301325,0.996324,-0.014046,0.003951,0.084412,0.699035,0.072137,0.131531,-0.271656,-0.559246,-0.368109,-0.019194,-1.111489,-0.249165,0.038456,0.765340,0.014650,0.039655,-0.701941,-0.085639,0.019543,1.092933,0.048963,0.211843,-1.743094,-6.101205,0.329488,2.654262,1.085847,-0.135011,-2.351516,0.003510,-0.418222,3.836067,1.066440
0.296000,-4.038240,-2.092259,0.301535,0.996369,-0.013561,0.003551,0.083981,0.669161,0.093737,0.104865,0.452209,-0.433850,-0.437334,-0.019009,-1.120836,-0.234447,0.037959,0.769908,0.017161,0.040969,-0.706361,-0.085318,0.021560,1.102183,0.040583,0.092546,-4.673596,7.358666,-0.248471,2.284127,1.255728,0.657021,-2.210083,0.160864,1.008279,4.624906,-4.189926
0.298000,-4.036929,-2.092070,0.301759,0.996409,-0.013060,0.003219,0.083589,0.655248,0.094826,0.111865,0.472668,-0.367705,-0.396180,-0.020564,-1.128922,-0.220835,0.037454,0.773962,0.019820,0.042276,-0.710423,-0.085343,0.022462,1.109708,0.034307,-0.777075,-4.042907,6.806120,-0.252228,2.027037,1.329232,0.653869,-2.030951,-0.012875,0.450988,3.762732,-3.138214
0.300000,-4.035624,-2.091940,0.301955,0.996442,-0.013218,0.002798,0.083190,0.652629,0.064910,0.098183,-0.190642,-0.401511,-0.407227,-0.020906,-1.137657,-0.203421,0.038375,0.778112,0.022090,0.042251,-0.714313,-0.085664,0.022122,1.119500,0.016992,-0.171282,-4.367248,8.706988,0.460196,2.075025,1.135157,-0.012626,-1.945120,-0.160453,-0.169741,4.895989,-8.657517
0.302000,-4.034304,-2.091838,0.302194,0.996459,-0.013885,0.002343,0.082892,0.659810,0.050843,0.119557,-0.701893,-0.394015,-0.306076,-0.023127,-1.141673,-0.204227,0.040168,0.782148,0.024207,0.041058,-0.717944,-0.086649,0.018175,1.126235,0.009880,-1.110219,-2.008401,-0.403184,0.896739,2.017800,1.058797,-0.596629,-1.815151,-0.492414,-1.973703,3.367205,-3.555804
0.304000,-4.033006,-2.091727,0.302368,0.996484,-0.014330,0.002008,0.082522,0.649274,0.055737,0.086881,-0.470068,-0.291773,-0.375804,-0.023538,-1.151845,-0.183068,0.041651,0.786175,0.025913,0.040454,-0.721327,-0.087512,0.016203,1.135249,-0.006694,-0.205714,-5.085780,10.579660,0.741166,2.013555,0.852854,-0.301738,-1.691810,-0.431368,-0.986036,4.507434,-8.287181
0.306000,-4.031704,-2.091567,0.302547,0.996511,-0.014450,0.001775,0.082184,0.650595,0.079963,0.089452,-0.137667,-0.217467,-0.343076,-0.025701,-1.161665,-0.166195,0.042342,0.790015,0.027614,0.040546,-0.724597,-0.088452,0.014547,1.142949,-0.017269,-1.081551,-4.910219,8.436340,0.345988,1.920370,0.850398,0.045848,-1.634747,-0.469844,-0.828028,3.849792,-5.287477
0.308000,-4.030402,-2.091378,0.302671,0.996545,-0.014389,0.001552,0.081784,0.651400,0.094256,0.061851,0.044390,-0.221459,-0.404650,-0.026754,-1.175463,-0.138514,0.042648,0.794163,0.028969,0.041170,-0.728050,-0.088989,0.015619,1.154548,-0.040156,-0.526565,-6.898646,13.840602,0.152897,2.073849,0.677642,0.311968,-1.726855,-0.268919,0.536240,5.799518,-11.443523
0.310000,-4.029063,-2.091177,0.302825,0.996570,-0.014528,0.001280,0.081461,0.669429,0.100820,0.077238,-0.160645,-0.254906,-0.328070,-0.029561,-1.185718,-0.129194,0.043082,0.798571,0.030114,0.041325,-0.731631,-0.089737,0.015009,1.164741,-0.054236,-1.403596,-5.127512,4.660143,0.216766,2.203717,0.572485,0.077656,-1.790449,-0.373996,-0.305414,5.096421,-7.039925
0.312000,-4.027721,-2.091000,0.302931,0.996596,-0.014887,0.001005,0.081082,0.671114,0.088323,0.052827,-0.378721,-0.239335,-0.384324,-0.029385,-1.200556,-0.105656,0.043996,0.803402,0.030643,0.041118,-0.735139,-0.090456,0.015216,1.177577,-0.076358,0.088440,-7.419002,11.769193,0.457253,2.415738,0.264293,-0.103671,-1.753584,-0.359432,0.103809,6.417936,-11.061326
0.314000,-4.026367,-2.090821,0.303049,0.996617,-0.015331,0.000768,0.080745,0.676888,0.089702,0.059147,-0.461427,-0.195618,-0.340812,-0.029623,-1.214641,-0.087108,0.044967,0.808204,0.031038,0.040693,-0.738488,-0.091455,0.014021,1.188625,-0.090540,-0.119489,-7.042750,9.274008,0.485383,2.401021,0.197580,-0.212550,-1.674733,-0.499099,-0.597760,5.524090,-7.090613
0.316000,-4.025035,-2.090631,0.303124,0.996643,-0.015662,0.000576,0.080358,0.665906,0.094822,0.037611,-0.344135,-0.158161,-0.391009,-0.028440,-1.232218,-0.055233,0.045781,0.812912,0.031374,0.040614,-0.741752,-0.092290,0.014686,1.202000,-0.114710,0.591808,-8.788217,15.937475,0.407179,2.353886,0.168176,-0.039576,-1.632027,-0.417624,0.332578,6.687434,-12.085131
0.318000,-4.023700,-2.090407,0.303226,0.996664,-0.015909,0.000406,0.080042,0.667484,0.112170,0.050908,-0.259758,-0.144541,-0.319543,-0.030145,-1.246025,-0.036949,0.046242,0.817344,0.031984,0.040669,-0.745012,-0.093261,0.014384,1.213549,-0.133159,-0.852406,-6.903833,9.141800,0.230231,2.215884,0.305054,0.027462,-1.630135,-0.485622,-0.151101,5.774866,-9.224350
0.320000,-4.022393,-2.090173,0.303305,0.996689,-0.016080,0.000283,0.079707,0.653531,0.116647,0.039651,-0.179299,-0.103539,-0.338165,-0.031486,-1.261191,-0.010473,0.046580,0.821586,0.032632,0.040943,-0.748117,-0.094211,0.015023,1.225989,-0.158661,-0.670444,-7.582868,13.237825,0.169023,2.121255,0.323879,0.137418,-1.552293,-0.474781,0.319833,6.219635,-12.750930
0.322000,-4.021090,-2.089939,0.303406,0.996707,-0.016338,0.000198,0.079424,0.651592,0.117005,0.050366,-0.263822,-0.059812,-0.284790,-0.034037,-1.274171,0.010496,0.047009,0.825611,0.033357,0.040975,-0.751005,-0.095482,0.013842,1.235983,-0.177598,-1.275616,-6.489753,10.484909,0.214560,2.012548,0.362391,0.015814,-1.444216,-0.635483,-0.590743,4.997213,-9.468555
0.324000,-4.019814,-2.089729,0.303490,0.996724,-0.016770,0.000135,0.079114,0.638114,0.105036,0.042169,-0.435029,-0.023344,-0.311217,-0.034753,-1.288901,0.042372,0.047857,0.829568,0.033944,0.040685,-0.753614,-0.096930,0.012699,1.246413,-0.202516,-0.358297,-7.365288,15.937668,0.423937,1.978412,0.293694,-0.145148,-1.304242,-0.724014,-0.571170,5.214957,-12.459318
0.326000,-4.018533,-2.089515,0.303598,0.996736,-0.017308,0.000060,0.078850,0.640077,0.107274,0.053841,-0.542592,-0.028075,-0.266300,-0.036598,-1.301050,0.066940,0.048821,0.833383,0.034698,0.040133,-0.756185,-0.098563,0.010351,1.255394,-0.223545,-0.922469,-6.074320,12.284242,0.481822,1.907494,0.376750,-0.275963,-1.285744,-0.816941,-1.174196,4.490224,-10.514374
0.328000,-4.017273,-2.089284,0.303705,0.996750,-0.017729,0.000007,0.078578,0.630174,0.115406,0.053574,-0.422754,-0.014818,-0.272502,-0.038347,-1.313197,0.095297,0.049526,0.837017,0.035619,0.039862,-0.758704,-0.100157,0.008987,1.264571,-0.248870,-0.874150,-6.073569,14.178326,0.352653,1.816914,0.460793,-0.135497,-1.259105,-0.796735,-0.681991,4.588486,-12.662529
0.330000,-4.016008,-2.089027,0.303834,0.996764,-0.018014,-0.000037,0.078341,0.632668,0.128571,0.064255,-0.287776,-0.017382,-0.237860,-0.041212,-1.323520,0.118165,0.049852,0.840494,0.036774,0.039844,-0.761294,-0.101745,0.007530,1.272557,-0.270190,-1.432550,-5.161666,11.433878,0.163192,1.738518,0.577360,-0.008802,-1.295085,-0.793795,-0.728462,3.993372,-10.660172
0.332000,-4.014760,-2.088767,0.303967,0.996779,-0.018253,-0.000052,0.078099,0.624061,0.130031,0.066435,-0.238743,0.008435,-0.243401,-0.042982,-1.334392,0.146631,0.050090,0.843853,0.037958,0.039933,-0.763746,-0.103404,0.006604,1.280023,-0.293380,-0.885143,-5.435995,14.233191,0.118743,1.679720,0.591854,0.044123,-1.225953,-0.829929,-0.463209,3.732904,-11.594819
0.334000,-4.013503,-2.088508,0.304117,0.996789,-0.018590,-0.000095,0.077881,0.628455,0.129443,0.075060,-0.339769,-0.012216,-0.218932,-0.044266,-1.344306,0.172358,0.050465,0.847207,0.039194,0.039783,-0.766237,-0.105148,0.005216,1.286669,-0.314183,-0.642029,-4.956659,12.863294,0.187466,1.676733,0.617859,-0.074702,-1.245508,-0.871936,-0.693766,3.322720,-10.401453
0.336000,-4.012258,-2.088252,0.304280,0.996797,-0.019003,-0.000126,0.077680,0.622155,0.127715,0.081547,-0.413607,0.004238,-0.201042,-0.044949,-1.353331,0.199193,0.050950,0.850506,0.040361,0.039455,-0.768595,-0.107037,0.003677,1.292130,-0.336093,-0.341483,-4.512729,13.417469,0.242747,1.649730,0.583905,-0.164116,-1.179277,-0.944455,-0.769574,2.730884,-10.955113
0.338000,-4.011010,-2.087982,0.304458,0.996803,-0.019378,-0.000167,0.077509,0.624009,0.135243,0.088825,-0.376536,-0.008086,-0.171378,-0.045953,-1.360881,0.222449,0.051268,0.853768,0.041595,0.039179,-0.771038,-0.108898,0.002258,1.296717,-0.356853,-0.502090,-3.774709,11.628004,0.158952,1.630666,0.616742,-0.138017,-1.221609,-0.930462,-0.709604,2.293439,-10.379811
0.340000,-4.009785,-2.087689,0.304652,0.996811,-0.019559,-0.000126,0.077369,0.612586,0.146233,0.097175,-0.177377,0.057390,-0.140026,-0.047731,-1.366753,0.246251,0.051122,0.856831,0.042812,0.039269,-0.773261,-0.110899,0.000945,1.298842,-0.376420,-0.888995,-2.936028,11.901203,-0.072817,1.531526,0.608718,0.044942,-1.111097,-1.000554,-0.656637,1.062656,-9.783793
0.342000,-4.008563,-2.087388,0.304855,0.996817,-0.019710,-0.000084,0.077247,0.611336,0.150507,0.101789,-0.147328,0.056599,-0.121346,-0.049193,-1.371760,0.270030,0.050867,0.859851,0.044057,0.039400,-0.775499,-0.112899,-0.000125,1.300039,-0.395674,-0.730941,-2.503543,11.889576,-0.127666,1.510011,0.622238,0.065663,-1.119245,-1.000071,-0.534593,0.598404,-9.626965
0.344000,-4.007357,-2.087092,0.305082,0.996819,-0.019940,0.000004,0.077164,0.602956,0.148048,0.113023,-0.222410,0.106243,-0.080227,-0.050902,-1.374368,0.292964,0.050714,0.862761,0.045177,0.039303,-0.777451,-0.115225,-0.002211,1.298294,-0.412885,-0.854377,-1.304044,11.466854,-0.076676,1.455388,0.560038,-0.048363,-0.975851,-1.162877,-1.043334,-0.872590,-8.605523
0.346000,-4.006146,-2.086802,0.305316,0.996817,-0.020302,0.000044,0.077098,0.605123,0.145056,0.117345,-0.357780,0.069636,-0.065036,-0.051665,-1.376006,0.315387,0.050795,0.865707,0.046327,0.038913,-0.779489,-0.117554,-0.004127,1.296190,-0.431236,-0.381703,-0.819137,11.211542,0.040383,1.472780,0.575149,-0.195149,-1.018877,-1.164448,-0.957724,-1.052168,-9.175291
0.348000,-4.004950,-2.086502,0.305579,0.996811,-0.020611,0.000142,0.077085,0.598219,0.150278,0.131564,-0.300767,0.121202,-0.010735,-0.053600,-1.374406,0.334448,0.050680,0.868469,0.047478,0.038480,-0.781488,-0.119916,-0.006807,1.290751,-0.445825,-0.967224,0.799863,9.530418,-0.057482,1.380840,0.575480,-0.216725,-0.999690,-1.180862,-1.340151,-2.719414,-7.294383
0.350000,-4.003751,-2.086191,0.305849,0.996807,-0.020870,0.000209,0.077077,0.599390,0.155343,0.134603,-0.252901,0.087758,-0.005842,-0.054586,-1.372340,0.354642,0.050432,0.871209,0.048778,0.038093,-0.783787,-0.121970,-0.008315,1.285316,-0.461902,-0.493227,1.033256,10.096987,-0.123938,1.370165,0.649917,-0.193128,-1.149738,-1.026922,-0.753761,-2.717367,-8.038620
0.352000,-4.002567,-2.085867,0.306151,0.996799,-0.021037,0.000352,0.077127,0.591845,0.161782,0.151104,-0.155673,0.153559,0.052441,-0.056831,-1.366859,0.371313,0.049908,0.873719,0.050104,0.037668,-0.786160,-0.123906,-0.010598,1.276133,-0.472709,-1.122345,2.740195,8.335439,-0.261989,1.254987,0.663088,-0.212759,-1.186542,-0.968096,-1.141787,-4.591825,-5.403678
0.354000,-4.001381,-2.085548,0.306458,0.996790,-0.021293,0.000444,0.077170,0.593355,0.159569,0.153788,-0.247791,0.111113,0.046234,-0.057220,-1.361290,0.390194,0.049543,0.876321,0.051468,0.037020,-0.788757,-0.125658,-0.011786,1.267275,-0.486205,-0.194533,2.784857,9.440670,-0.182134,1.301192,0.681821,-0.323679,-1.298228,-0.876333,-0.593789,-4.428569,-6.747872
0.356000,-4.000210,-2.085229,0.306805,0.996775,-0.021615,0.000604,0.077274,0.585254,0.159543,0.173409,-0.309780,0.182450,0.107618,-0.058855,-1.351639,0.403425,0.049215,0.878755,0.052736,0.036078,-0.791082,-0.127757,-0.014346,1.254359,-0.493894,-0.817630,4.825462,6.615707,-0.164120,1.217060,0.634115,-0.471073,-1.162457,-1.049196,-1.280256,-6.458181,-3.844488
0.358000,-3.999041,-2.084912,0.307155,0.996760,-0.022012,0.000725,0.077362,0.584383,0.158467,0.175113,-0.386224,0.148492,0.091199,-0.058676,-1.341897,0.419004,0.049006,0.881329,0.053977,0.035057,-0.793340,-0.129994,-0.015584,1.241856,-0.505057,0.089366,4.870942,7.789214,-0.104537,1.286517,0.620441,-0.510855,-1.129203,-1.118458,-0.618781,-6.251450,-5.581557
0.360000,-3.997896,-2.084578,0.307543,0.996742,-0.022296,0.000941,0.077511,0.572680,0.166965,0.193808,-0.267445,0.234779,0.154792,-0.060469,-1.327938,0.428616,0.048453,0.883649,0.055201,0.034132,-0.795296,-0.132546,-0.017829,1.225062,-0.509302,-0.896236,6.979652,4.805909,-0.276465,1.160331,0.612222,-0.462127,-0.977952,-1.276025,-1.122610,-8.397277,-2.122169
0.362000,-3.996754,-2.084242,0.307926,0.996725,-0.022584,0.001115,0.077639,0.570989,0.167978,0.191319,-0.273322,0.192173,0.132413,-0.060321,-1.314339,0.442022,0.047890,0.886083,0.056467,0.033246,-0.797368,-0.134985,-0.018544,1.208879,-0.517405,0.073865,6.799198,6.703168,-0.281473,1.216730,0.632764,-0.443310,-1.036106,-1.219859,-0.357649,-8.091132,-4.051592
0.364000,-3.995632,-2.083900,0.308341,0.996703,-0.022856,0.001347,0.077835,0.561004,0.171399,0.207549,-0.253992,0.248045,0.201851,-0.061850,-1.296612,0.448756,0.047191,0.888293,0.057741,0.032166,-0.799417,-0.137462,-0.020696,1.188695,-0.518277,-0.764553,8.863800,3.367133,-0.349517,1.105254,0.637258,-0.539634,-1.024435,-1.238174,-1.075954,-10.092026,-0.436112
0.366000,-3.994509,-2.083564,0.308742,0.996681,-0.023220,0.001499,0.078007,0.561685,0.167739,0.200767,-0.351384,0.176615,0.175997,-0.061133,-1.279431,0.459191,0.046682,0.890675,0.059058,0.030911,-0.801765,-0.139667,-0.021620,1.169525,-0.523703,0.358749,8.590413,5.217183,-0.254655,1.190886,0.658524,-0.627719,-1.173889,-1.102624,-0.461933,-9.585392,-2.713143
0.368000,-3.993406,-2.083218,0.309169,0.996655,-0.023539,0.001696,0.078243,0.551514,0.172911,0.213263,-0.303565,0.215159,0.241549,-0.062252,-1.258310,0.462270,0.045983,0.892836,0.060432,0.029560,-0.804098,-0.141911,-0.023845,1.146860,-0.521773,-0.559437,10.560557,1.539670,-0.349551,1.080730,0.686554,-0.675695,-1.166340,-1.122077,-1.112649,-11.332342,0.965189
0.370000,-3.992302,-2.082873,0.309575,0.996631,-0.023885,0.001833,0.078443,0.551757,0.172657,0.202911,-0.335134,0.159655,0.204197,-0.061394,-1.237954,0.469652,0.045359,0.895167,0.061821,0.028256,-0.806376,-0.147031,-0.024651,1.125398,-0.524396,0.428614,10.178008,3.691183,-0.312140,1.165303,0.694565,-0.651939,-1.139043,-2.559692,-0.402793,-10.730873,-1.311507
0.372000,-3.991217,-2.082507,0.309986,0.996606,-0.024044,0.001993,0.078709,0.542520,0.182915,0.205527,-0.147440,0.164905,0.270242,-0.062503,-1.214408,0.470513,0.044268,0.897285,0.063351,0.027004,-0.809340,-0.150689,-0.026345,1.101176,-0.520058,-0.554236,11.772587,0.430545,-0.545118,1.059190,0.765305,-0.625886,-1.481917,-1.829345,-0.847109,-12.110958,2.169086
0.374000,-3.990129,-2.082140,0.310353,0.996584,-0.024147,0.002057,0.078949,0.544298,0.183352,0.183524,-0.098301,0.066072,0.242061,-0.061918,-1.191971,0.475880,0.043103,0.899599,0.064964,0.025731,-0.813282,-0.151886,-0.026849,1.078397,-0.520372,0.292577,11.218725,2.683258,-0.582467,1.157015,0.806215,-0.636703,-1.971155,-0.598325,-0.251802,-11.389623,-0.157298
0.376000,-3.989057,-2.081777,0.310720,0.996557,-0.024314,0.002130,0.079234,0.535625,0.181598,0.183632,-0.162560,0.079445,0.287504,-0.062492,-1.166872,0.474742,0.042045,0.901811,0.066521,0.024036,-0.816989,-0.154032,-0.028728,1.053510,-0.514490,-0.286900,12.549340,-0.568871,-0.529085,1.105749,0.778739,-0.847119,-1.853489,-1.073027,-0.939768,-12.443609,2.941026
0.378000,-3.987982,-2.081411,0.311049,0.996537,-0.024430,0.002123,0.079457,0.537628,0.183068,0.164530,-0.116909,-0.002862,0.223807,-0.061677,-1.142838,0.477506,0.040747,0.903939,0.072957,0.022922,-0.820358,-0.157475,-0.029503,1.030125,-0.512863,0.407040,12.017016,1.381717,-0.649315,1.064082,3.218120,-0.556986,-1.684742,-1.721339,-0.387169,-11.692304,0.813489
0.380000,-3.986925,-2.081049,0.311347,0.996511,-0.024653,0.002150,0.079709,0.528351,0.181037,0.148987,-0.221223,0.037785,0.253231,-0.061809,-1.117044,0.475418,0.039244,0.906991,0.076524,0.021521,-0.823171,-0.161525,-0.031474,1.005384,-0.506589,-0.066005,12.897375,-1.043816,-0.751299,1.526009,1.783091,-0.700906,-1.406271,-2.024999,-0.985463,-12.370759,3.137358
0.382000,-3.985871,-2.080686,0.311570,0.996488,-0.024872,0.002145,0.079928,0.527227,0.181465,0.111405,-0.219904,0.007980,0.219948,-0.061057,-1.092468,0.477182,0.037151,0.911275,0.076684,0.020317,-0.826095,-0.163650,-0.032838,0.981952,-0.504030,0.376252,12.287923,0.881891,-1.046632,2.142179,0.080058,-0.601561,-1.462198,-1.062687,-0.682252,-11.715894,1.279015
0.384000,-3.984832,-2.080321,0.311742,0.996465,-0.025054,0.002158,0.080160,0.519257,0.182757,0.085898,-0.180520,0.021814,0.232978,-0.061261,-1.067259,0.476336,0.035179,0.915560,0.076338,0.019267,-0.828746,-0.165117,-0.034703,0.958156,-0.499075,-0.102094,12.604240,-0.422865,-0.985911,2.142062,-0.172939,-0.525247,-1.325346,-0.733302,-0.932654,-11.897808,2.477962
0.386000,-3.983795,-2.079955,0.311851,0.996446,-0.025177,0.002139,0.080356,0.518593,0.182633,0.054711,-0.125435,-0.014578,0.195553,-0.061081,-1.043272,0.477937,0.033458,0.919605,0.076118,0.018770,-0.830973,-0.167211,-0.036076,0.935653,-0.496612,0.090009,11.993413,0.800677,-0.860562,2.022658,-0.110011,-0.248263,-1.113315,-1.047151,-0.686184,-11.251649,1.231046
0.388000,-3.982772,-2.079590,0.311949,0.996426,-0.025272,0.002118,0.080574,0.511398,0.182518,0.048761,-0.097507,-0.018622,0.218349,-0.062064,-1.018137,0.472915,0.031916,0.923208,0.076177,0.018381,-0.832609,-0.170606,-0.038257,0.912329,-0.488122,-0.491657,12.567536,-2.511234,-0.770766,1.801743,0.029351,-0.194838,-0.818198,-1.697388,-1.090431,-11.662175,4.245313
0.390000,-3.981747,-2.079233,0.312003,0.996409,-0.025323,0.002032,0.080769,0.512758,0.178848,0.027453,-0.058267,-0.086605,0.193537,-0.062461,-0.993985,0.469769,0.030571,0.926563,0.076599,0.018171,-0.834771,-0.173063,-0.040096,0.890020,-0.481475,-0.198124,12.076368,-1.573157,-0.672502,1.677112,0.211191,-0.104687,-1.081087,-1.228777,-0.919873,-11.154341,3.323312
0.392000,-3.980735,-2.078881,0.312058,0.996390,-0.025360,0.001913,0.080994,0.506162,0.175664,0.027333,-0.047966,-0.121198,0.222449,-0.063699,-0.968590,0.459685,0.029368,0.929513,0.077427,0.017929,-0.837222,-0.174876,-0.042743,0.866807,-0.468522,-0.618983,12.697189,-5.041883,-0.601712,1.475413,0.414265,-0.121085,-1.225536,-0.906573,-1.323119,-11.606614,6.476497
0.394000,-3.979725,-2.078547,0.312074,0.996374,-0.025428,0.001742,0.081171,0.504816,0.167090,0.008119,-0.081987,-0.168883,0.172581,-0.063734,-0.944143,0.454451,0.028474,0.932342,0.078466,0.017729,-0.839985,-0.176112,-0.044708,0.844664,-0.460033,-0.017458,12.223512,-2.616816,-0.446770,1.414183,0.519340,-0.100192,-1.381219,-0.617700,-0.982776,-11.071488,4.244419
0.396000,-3.978734,-2.078220,0.312100,0.996357,-0.025510,0.001571,0.081360,0.495501,0.163614,0.012766,-0.096214,-0.169012,0.185182,-0.064406,-0.918403,0.442668,0.027718,0.934864,0.079741,0.017507,-0.842702,-0.177269,-0.047132,0.821615,-0.445564,-0.336085,12.870060,-5.891795,-0.378169,1.261006,0.637400,-0.110964,-1.358403,-0.578739,-1.211855,-11.524243,7.234676
0.398000,-3.977751,-2.077905,0.312096,0.996344,-0.025614,0.001396,0.081492,0.491406,0.157581,-0.002093,-0.118544,-0.168956,0.128053,-0.064110,-0.893332,0.435213,0.027183,0.937349,0.081014,0.017359,-0.845440,-0.178195,-0.048648,0.799412,-0.435113,0.147843,12.535343,-3.727399,-0.267628,1.242405,0.636621,-0.073715,-1.369404,-0.462670,-0.758293,-11.101674,5.225625
0.400000,-3.976787,-2.077588,0.312110,0.996330,-0.025704,0.001250,0.081637,0.482278,0.158138,0.006957,-0.102193,-0.142091,0.141802,-0.064671,-0.867062,0.419323,0.026654,0.939597,0.082397,0.017252,-0.847973,-0.179267,-0.050457,0.776320,-0.417045,-0.280511,13.135246,-7.944706,-0.264241,1.124126,0.691256,-0.053517,-1.266259,-0.536186,-0.904400,-11.545771,9.033808
0.402000,-3.975826,-2.077282,0.312093,0.996320,-0.025830,0.001118,0.081718,0.480468,0.153277,-0.008543,-0.136433,-0.122972,0.078641,-0.064226,-0.841739,0.407957,0.026326,0.941931,0.083606,0.017203,-0.850431,-0.180248,-0.051283,0.754291,-0.403227,0.222543,12.661530,-5.683116,-0.163862,1.167170,0.604624,-0.024683,-1.228880,-0.490677,-0.413014,-11.014604,6.908878
0.404000,-3.974871,-2.076978,0.312084,0.996309,-0.026001,0.001004,0.081801,0.477492,0.152003,-0.004410,-0.180606,-0.102199,0.080274,-0.064120,-0.816058,0.389688,0.026107,0.944206,0.084770,0.017084,-0.852718,-0.181390,-0.052334,0.732065,-0.383419,0.052846,12.840201,-9.134699,-0.109838,1.137506,0.582018,-0.059300,-1.143716,-0.570795,-0.525320,-11.112872,9.904438
0.406000,-3.973909,-2.076682,0.312035,0.996302,-0.026210,0.000902,0.081820,0.480758,0.148089,-0.024503,-0.216287,-0.085122,0.016011,-0.062953,-0.791850,0.377027,0.026064,0.946682,0.085663,0.017018,-0.854996,-0.182403,-0.052462,0.711272,-0.368688,0.583466,12.104418,-6.330174,-0.021314,1.237793,0.446443,-0.033123,-1.139028,-0.506319,-0.063938,-10.396875,7.365256
0.408000,-3.972944,-2.076379,0.311989,0.996295,-0.026391,0.000810,0.081849,0.482526,0.151470,-0.022765,-0.188123,-0.077569,0.027002,-0.062336,-0.767818,0.357431,0.025951,0.949129,0.086553,0.017013,-0.857252,-0.183451,-0.052810,0.690559,-0.347611,0.308678,12.015794,-9.798462,-0.056334,1.223484,0.445138,-0.002433,-1.128110,-0.524331,-0.174232,-10.356213,10.538680
0.410000,-3.971967,-2.076075,0.311904,0.996292,-0.026552,0.000728,0.081832,0.488500,0.151695,-0.042511,-0.167364,-0.067486,-0.018802,-0.061138,-0.745332,0.342182,0.025863,0.951768,0.087221,0.017145,-0.859593,-0.184309,-0.052467,0.671221,-0.330408,0.598818,11.243066,-7.624334,-0.044202,1.319690,0.333702,0.066001,-1.170356,-0.428864,0.171645,-9.669297,8.601252
0.412000,-3.970980,-2.075764,0.311822,0.996289,-0.026685,0.000641,0.081832,0.493540,0.155680,-0.041302,-0.139211,-0.075919,-0.001796,-0.060534,-0.723311,0.320168,0.025692,0.954391,0.087940,0.017325,-0.862002,-0.185149,-0.052479,0.652175,-0.307408,0.302342,11.010479,-11.007150,-0.085344,1.311452,0.359522,0.089850,-1.204603,-0.420031,-0.006081,-9.522679,11.500194
0.414000,-3.969978,-2.075455,0.311701,0.996288,-0.026833,0.000558,0.081791,0.501222,0.154361,-0.060532,-0.154843,-0.069175,-0.043613,-0.059366,-0.702884,0.302925,0.025614,0.957220,0.088438,0.017556,-0.864494,-0.185835,-0.052040,0.634560,-0.288865,0.583659,10.213270,-8.621520,-0.039424,1.414447,0.249316,0.115383,-1.245649,-0.342987,0.219317,-8.807342,9.271358
0.416000,-3.968962,-2.075144,0.311581,0.996286,-0.026999,0.000467,0.081761,0.507759,0.155663,-0.059916,-0.172924,-0.076931,-0.032193,-0.058572,-0.683125,0.280708,0.025557,0.960060,0.088968,0.017743,-0.867022,-0.186555,-0.052042,0.617407,-0.266032,0.397209,9.879512,-11.108473,-0.028494,1.419998,0.264870,0.093467,-1.264164,-0.359975,-0.000916,-8.576558,11.416633
0.418000,-3.967934,-2.074834,0.311431,0.996287,-0.027177,0.000392,0.081696,0.513960,0.154779,-0.074884,-0.182559,-0.057874,-0.067101,-0.057431,-0.664748,0.262904,0.025570,0.963055,0.089305,0.017979,-0.869543,-0.187228,-0.051740,0.601444,-0.246956,0.570639,9.188868,-8.901807,0.006741,1.497326,0.168749,0.118213,-1.260372,-0.336727,0.151386,-7.981750,9.538037
0.420000,-3.966896,-2.074519,0.311289,0.996287,-0.027340,0.000319,0.081643,0.519210,0.157601,-0.071139,-0.168813,-0.058011,-0.054558,-0.056804,-0.646938,0.240471,0.025539,0.966005,0.089731,0.018233,-0.872050,-0.187988,-0.051808,0.585838,-0.223661,0.313314,8.904707,-11.216645,-0.015295,1.475395,0.212557,0.126716,-1.253615,-0.379799,-0.034218,-7.802947,11.647609
0.422000,-3.965848,-2.074203,0.311127,0.996289,-0.027501,0.000269,0.081560,0.523722,0.157890,-0.080614,-0.163970,-0.034353,-0.084000,-0.056053,-0.630213,0.221368,0.025540,0.969042,0.090038,0.018555,-0.874488,-0.188781,-0.051613,0.571226,-0.203434,0.375693,8.362801,-9.551086,0.000444,1.518374,0.153808,0.161199,-1.219229,-0.396412,0.097620,-7.305945,10.113042
0.424000,-3.964788,-2.073883,0.310973,0.996291,-0.027656,0.000213,0.081482,0.530106,0.160175,-0.077314,-0.159284,-0.041138,-0.079538,-0.055667,-0.614139,0.198848,0.025524,0.972045,0.090459,0.018887,-0.876939,-0.189635,-0.051665,0.557189,-0.180652,0.193031,8.036560,-11.260466,-0.007967,1.501688,0.210372,0.165768,-1.225422,-0.427243,-0.026225,-7.018718,11.391097
0.426000,-3.963718,-2.073564,0.310804,0.996295,-0.027818,0.000177,0.081375,0.534876,0.159679,-0.084493,-0.164598,-0.020125,-0.107610,-0.055118,-0.599096,0.179635,0.025560,0.975118,0.090796,0.019258,-0.879318,-0.190539,-0.051505,0.544113,-0.160842,0.274513,7.521708,-9.606295,0.017630,1.536317,0.168609,0.185687,-1.189488,-0.451898,0.079999,-6.537980,9.904976
0.428000,-3.962633,-2.073241,0.310640,0.996300,-0.027968,0.000133,0.081269,0.542445,0.161541,-0.081779,-0.152454,-0.028234,-0.107610,-0.054780,-0.584893,0.158506,0.025571,0.978162,0.091260,0.019654,-0.881731,-0.191478,-0.051501,0.531733,-0.139306,0.169048,7.101585,-10.564362,0.005814,1.522098,0.231833,0.198221,-1.206303,-0.469273,0.002075,-6.189660,10.767922
0.430000,-3.961540,-2.072919,0.310470,0.996306,-0.028123,0.000107,0.081143,0.546723,0.160940,-0.085076,-0.156714,-0.009489,-0.126637,-0.054355,-0.571573,0.139619,0.025621,0.981237,0.091687,0.020072,-0.884066,-0.192489,-0.051404,0.520113,-0.119490,0.212038,6.659755,-9.443539,0.024804,1.537523,0.213567,0.208623,-1.167701,-0.505683,0.048354,-5.810185,9.908343
0.432000,-3.960427,-2.072596,0.310304,0.996311,-0.028289,0.000063,0.081014,0.556253,0.161508,-0.083243,-0.168735,-0.027372,-0.130907,-0.053976,-0.559231,0.119559,0.025701,0.984311,0.092247,0.020469,-0.886479,-0.193502,-0.051435,0.509411,-0.099154,0.189743,6.171044,-10.030022,0.039883,1.536740,0.280099,0.198484,-1.206423,-0.506455,-0.015301,-5.350804,10.167795
0.434000,-3.959306,-2.072273,0.310135,0.996318,-0.028459,0.000031,0.080870,0.560527,0.161208,-0.084426,-0.171043,-0.013466,-0.144224,-0.053575,-0.547680,0.100915,0.025805,0.987396,0.092804,0.020879,-0.888830,-0.194585,-0.051414,0.499401,-0.080078,0.200393,5.775598,-9.322207,0.052248,1.542745,0.278367,0.205173,-1.175592,-0.541495,0.010478,-5.005244,9.538307
0.436000,-3.958163,-2.071948,0.309963,0.996326,-0.028612,-0.000018,0.080717,0.571927,0.162754,-0.085850,-0.157031,-0.032722,-0.154739,-0.053134,-0.537408,0.082928,0.025894,0.990507,0.093484,0.021333,-0.891309,-0.195602,-0.051328,0.490592,-0.062058,0.220613,5.136273,-8.993484,0.044621,1.555214,0.340039,0.226836,-1.239429,-0.508633,0.042889,-4.404322,9.009603
0.438000,-3.957012,-2.071621,0.309793,0.996335,-0.028747,-0.000048,0.080559,0.575076,0.163511,-0.085030,-0.136166,-0.014000,-0.158958,-0.052815,-0.527827,0.065683,0.025950,0.993599,0.094172,0.021829,-0.893711,-0.196704,-0.051230,0.482261,-0.044191,0.159432,4.790386,-8.622370,0.027846,1.545960,0.343813,0.248383,-1.201031,-0.551000,0.048957,-4.165861,8.933871
0.440000,-3.955837,-2.071292,0.309615,0.996345,-0.028875,-0.000096,0.080388,0.587890,0.164479,-0.088892,-0.130763,-0.032723,-0.172787,-0.052364,-0.519721,0.050297,0.026012,0.996750,0.094945,0.022357,-0.896257,-0.197720,-0.051020,0.475342,-0.028522,0.225684,4.053011,-7.692986,0.031015,1.575727,0.386628,0.263775,-1.272738,-0.508031,0.104962,-3.459341,7.834296
0.442000,-3.954657,-2.070964,0.309444,0.996355,-0.029011,-0.000124,0.080221,0.589815,0.164107,-0.085471,-0.138237,-0.012396,-0.168048,-0.052107,-0.512071,0.034272,0.026086,0.999872,0.095712,0.022853,-0.898687,-0.198876,-0.050972,0.468693,-0.011966,0.128188,3.824698,-8.012338,0.036965,1.560739,0.383761,0.247839,-1.215296,-0.577945,0.024068,-3.324356,8.278112
0.444000,-3.953447,-2.070637,0.309258,0.996365,-0.029174,-0.000177,0.080033,0.604927,0.163504,-0.092897,-0.165771,-0.033669,-0.189058,-0.051545,-0.506153,0.021546,0.026241,1.003112,0.096512,0.023325,-0.901283,-0.199926,-0.050777,0.463833,0.000503,0.281230,2.959239,-6.363322,0.077387,1.620052,0.399631,0.236332,-1.297709,-0.525008,0.097479,-2.429865,6.234176
0.446000,-3.952237,-2.070308,0.309083,0.996375,-0.029324,-0.000201,0.079858,0.605165,0.164111,-0.087964,-0.151541,-0.007496,-0.175976,-0.051335,-0.500556,0.007444,0.026354,1.006292,0.097308,0.023794,-0.903757,-0.201105,-0.050785,0.459024,0.014934,0.105021,2.798678,-7.050878,0.056384,1.590324,0.398217,0.234590,-1.237174,-0.589183,-0.003712,-2.404781,7.215802
0.448000,-3.950995,-2.069978,0.308885,0.996387,-0.029463,-0.000241,0.079659,0.620944,0.165026,-0.099000,-0.141851,-0.023057,-0.200552,-0.050834,-0.496973,-0.001658,0.026477,1.009626,0.098079,0.024324,-0.906432,-0.202105,-0.050479,0.456241,0.024107,0.250554,1.791463,-4.550918,0.061851,1.666994,0.385589,0.264685,-1.337716,-0.500243,0.153003,-1.391450,4.586186
0.450000,-3.949757,-2.069646,0.308702,0.996397,-0.029590,-0.000248,0.079481,0.618951,0.165867,-0.091397,-0.126540,0.009045,-0.178089,-0.050831,-0.493459,-0.013452,0.026545,1.012881,0.098826,0.024836,-0.908935,-0.203292,-0.050477,0.453240,0.036549,0.001581,1.756981,-5.896913,0.033894,1.627239,0.373495,0.256198,-1.251559,-0.593730,0.000805,-1.500726,6.221361
0.452000,-3.948485,-2.069317,0.308493,0.996409,-0.029748,-0.000277,0.079273,0.636119,0.164744,-0.104222,-0.159509,-0.010125,-0.209122,-0.050381,-0.492080,-0.019515,0.026717,1.016323,0.099527,0.025334,-0.911636,-0.204318,-0.050181,0.452570,0.042244,0.224611,0.689438,-3.031643,0.086204,1.721243,0.350260,0.249127,-1.350365,-0.512719,0.147860,-0.334654,2.847247
0.454000,-3.947220,-2.068987,0.308305,0.996419,-0.029905,-0.000269,0.079092,0.632538,0.164890,-0.094187,-0.155536,0.025230,-0.181300,-0.050481,-0.490568,-0.029207,0.026852,1.019657,0.100217,0.025781,-0.914119,-0.205585,-0.050291,0.451479,0.052117,-0.049901,0.755663,-4.846102,0.067348,1.666867,0.345225,0.223510,-1.241466,-0.633533,-0.054939,-0.545570,4.936493
0.456000,-3.945919,-2.068659,0.308087,0.996431,-0.030075,-0.000279,0.078874,0.650249,0.164076,-0.109212,-0.169580,0.009754,-0.217625,-0.050077,-0.491422,-0.031685,0.027062,1.023184,0.100860,0.026262,-0.916804,-0.206671,-0.049989,0.452916,0.054211,0.202288,-0.426830,-1.238740,0.104840,1.763353,0.321228,0.240510,-1.342450,-0.543152,0.151238,0.718372,1.047264
0.458000,-3.944630,-2.068329,0.307893,0.996441,-0.030220,-0.000247,0.078690,0.644691,0.165011,-0.096957,-0.141550,0.049683,-0.183819,-0.050338,-0.491976,-0.038484,0.027181,1.026556,0.101525,0.026729,-0.919243,-0.208022,-0.050110,0.453678,0.061568,-0.130691,-0.276804,-3.399595,0.059337,1.686024,0.332588,0.233087,-1.219732,-0.675344,-0.060768,0.381346,3.678508
0.460000,-3.943305,-2.068001,0.307667,0.996454,-0.030375,-0.000234,0.078466,0.662232,0.163940,-0.112711,-0.153325,0.032068,-0.223449,-0.050057,-0.494930,-0.037639,0.027374,1.030118,0.102157,0.027240,-0.921894,-0.209178,-0.049767,0.457090,0.060437,0.140492,-1.477031,0.422595,0.096812,1.781013,0.316087,0.255426,-1.325342,-0.577825,0.171882,1.705893,-0.565878
0.462000,-3.941995,-2.067673,0.307470,0.996464,-0.030517,-0.000181,0.078279,0.655268,0.164058,-0.098467,-0.137331,0.069594,-0.186135,-0.050466,-0.497364,-0.042078,0.027499,1.033502,0.102835,0.027702,-0.924285,-0.210619,-0.049926,0.459675,0.065139,-0.204289,-1.217013,-2.219678,0.062301,1.692141,0.338817,0.231134,-1.195213,-0.720462,-0.079720,1.292407,2.351232
0.464000,-3.940651,-2.067350,0.307241,0.996477,-0.030689,-0.000149,0.078050,0.671888,0.161360,-0.114449,-0.168568,0.051996,-0.227600,-0.050239,-0.502158,-0.038653,0.027742,1.037080,0.103469,0.028169,-0.926872,-0.211875,-0.049644,0.464912,0.060993,0.113113,-2.397149,1.712702,0.121747,1.788759,0.317185,0.233840,-1.293454,-0.628212,0.140899,2.618583,-2.073163
0.466000,-3.939324,-2.067028,0.307042,0.996487,-0.030839,-0.000073,0.077860,0.663396,0.161224,-0.099614,-0.142418,0.093306,-0.187741,-0.050712,-0.506349,-0.040538,0.027897,1.040461,0.104150,0.028600,-0.929182,-0.213421,-0.049874,0.469151,0.063142,-0.236554,-2.095533,-0.942781,0.077513,1.690619,0.340621,0.215320,-1.155147,-0.773149,-0.115052,2.119449,1.074784
0.468000,-3.937971,-2.066710,0.306813,0.996500,-0.030993,-0.000009,0.077633,0.676859,0.158924,-0.114447,-0.148285,0.082601,-0.225709,-0.050623,-0.512699,-0.034847,0.028118,1.043999,0.104795,0.029079,-0.931657,-0.214792,-0.049631,0.475764,0.057142,0.044607,-3.175070,2.845835,0.110289,1.768855,0.322369,0.239527,-1.237786,-0.685220,0.121742,3.306596,-2.999950
0.470000,-3.936636,-2.066393,0.306614,0.996511,-0.031123,0.000098,0.077443,0.667024,0.158393,-0.099613,-0.121241,0.122518,-0.186389,-0.051219,-0.518312,-0.034603,0.028250,1.047333,0.105490,0.029521,-0.933859,-0.216438,-0.049876,0.481319,0.057224,-0.298139,-2.806339,0.121899,0.066145,1.667434,0.347260,0.221153,-1.100802,-0.823385,-0.122798,2.777576,0.040619
0.472000,-3.935283,-2.066084,0.306390,0.996523,-0.031278,0.000194,0.077220,0.676699,0.154542,-0.112127,-0.146844,0.114781,-0.220465,-0.051260,-0.525672,-0.027951,0.028484,1.050800,0.106138,0.029962,-0.936175,-0.217951,-0.049728,0.488912,0.049884,-0.020276,-3.680049,3.325829,0.117048,1.733280,0.324299,0.220022,-1.158162,-0.756118,0.074254,3.796464,-3.670029
0.474000,-3.933952,-2.065778,0.306193,0.996534,-0.031411,0.000333,0.077032,0.665779,0.153137,-0.098516,-0.120895,0.155111,-0.184165,-0.051898,-0.532260,-0.026139,0.028639,1.054072,0.106819,0.030364,-0.938222,-0.219717,-0.050017,0.495433,0.048033,-0.318889,-3.293819,0.906022,0.077347,1.636013,0.340335,0.201191,-1.023242,-0.883013,-0.144359,3.260083,-0.925466
0.476000,-3.932613,-2.065479,0.305979,0.996546,-0.031549,0.000477,0.076820,0.669405,0.149226,-0.106837,-0.126020,0.160082,-0.207282,-0.052128,-0.540035,-0.019469,0.028845,1.057409,0.107454,0.030780,-0.940301,-0.221405,-0.049984,0.503286,0.040951,-0.115123,-3.887463,3.335168,0.102991,1.668300,0.317497,0.207967,-1.039390,-0.844105,0.016237,3.926745,-3.540748
0.478000,-3.931297,-2.065185,0.305789,0.996556,-0.031661,0.000661,0.076638,0.657621,0.147033,-0.095256,-0.097426,0.198290,-0.176677,-0.052830,-0.547034,-0.016666,0.028976,1.060565,0.108107,0.031170,-0.942132,-0.223301,-0.050283,0.510123,0.038302,-0.351176,-3.499463,1.401567,0.065335,1.578413,0.326389,0.195166,-0.915922,-0.948069,-0.149541,3.418430,-1.324393
0.480000,-3.929988,-2.064901,0.305593,0.996567,-0.031788,0.000862,0.076441,0.654626,0.142249,-0.097681,-0.110454,0.216060,-0.190777,-0.053242,-0.554472,-0.011252,0.029163,1.063721,0.108709,0.031538,-0.943872,-0.225231,-0.050374,0.517557,0.032551,-0.205686,-3.719245,2.706960,0.093886,1.577589,0.301456,0.184090,-0.869685,-0.964974,-0.045456,3.717171,-2.875843
0.482000,-3.928703,-2.064623,0.305416,0.996577,-0.031898,0.001100,0.076262,0.642451,0.138896,-0.088560,-0.091272,0.251000,-0.171595,-0.053913,-0.561168,-0.008362,0.029308,1.066724,0.109312,0.031882,-0.945379,-0.227334,-0.050635,0.524165,0.029460,-0.335857,-3.347782,1.444706,0.072513,1.501871,0.301105,0.171747,-0.753559,-1.051480,-0.130652,3.303778,-1.545087
0.484000,-3.927371,-2.064312,0.305309,0.996591,-0.031685,0.001183,0.076160,0.665964,0.155653,-0.053283,0.219138,0.070102,-0.099515,-0.055381,-0.567978,-0.024710,0.028750,1.069243,0.111165,0.032177,-0.948865,-0.225949,-0.050868,0.530660,0.045156,-0.733633,-3.404988,-8.173665,-0.279112,1.259137,0.926570,0.147783,-1.743095,0.692664,-0.116214,3.247707,7.848019
0.486000,-3.925966,-2.064014,0.305225,0.996600,-0.031800,0.000992,0.076001,0.702696,0.149135,-0.042001,-0.128703,-0.176451,-0.165247,-0.055374,-0.575459,-0.054456,0.028907,1.071905,0.113807,0.032044,-0.952884,-0.224888,-0.050774,0.541161,0.056592,0.003424,-3.740850,-14.873396,0.078269,1.331067,1.321299,-0.066770,-2.009706,0.530095,0.046775,5.250298,5.717969
0.488000,-3.924489,-2.063717,0.305055,0.996625,-0.031835,0.000798,0.075666,0.738515,0.148452,-0.085311,-0.048477,-0.180356,-0.342058,-0.052492,-0.588788,-0.060406,0.029098,1.075066,0.116296,0.032510,-0.956965,-0.224009,-0.047953,0.557475,0.050674,1.440739,-6.664176,-2.974771,0.095558,1.580725,1.244052,0.233107,-2.040234,0.439727,1.410666,8.157093,-2.958989
0.490000,-3.923005,-2.063416,0.304823,0.996663,-0.031639,0.000806,0.075239,0.741857,0.150281,-0.116165,0.197822,0.007077,-0.428207,-0.048021,-0.606614,-0.044095,0.028924,1.078475,0.118115,0.033694,-0.960298,-0.223832,-0.043508,0.575200,0.039943,2.235695,-8.913045,8.155254,-0.087153,1.704513,0.909606,0.591950,-1.666767,0.088309,2.222575,8.862326,-5.365708
0.492000,-3.921583,-2.063131,0.304624,0.996691,-0.031653,0.000967,0.074860,0.711028,0.142279,-0.099109,-0.000753,0.173226,-0.374407,-0.043990,-0.622221,-0.037143,0.029074,1.081828,0.119239,0.034434,-0.962381,-0.225033,-0.040179,0.589767,0.031401,2.015688,-7.803466,3.476319,0.075339,1.676392,0.561912,0.369906,-1.041400,-0.600337,1.664447,7.283497,-4.271148
0.494000,-3.920257,-2.062839,0.304510,0.996709,-0.031736,0.001331,0.074575,0.662944,0.146291,-0.057026,-0.054576,0.378144,-0.274563,-0.042357,-0.632397,-0.052266,0.029179,1.084776,0.119887,0.034935,-0.962930,-0.227832,-0.037578,0.600937,0.025657,0.816361,-5.087961,-7.561857,0.052579,1.473865,0.324352,0.250734,-0.274404,-1.399678,1.300509,5.585099,-2.871797
0.496000,-3.919029,-2.062520,0.304429,0.996734,-0.031406,0.002032,0.074368,0.614066,0.159556,-0.040623,0.382323,0.680726,-0.185436,-0.042971,-0.640078,-0.069955,0.028341,1.087287,0.119900,0.036140,-0.962126,-0.231662,-0.034638,0.608696,0.022920,-0.306918,-3.840857,-8.844119,-0.418968,1.255489,0.006190,0.602341,0.402160,-1.914928,1.470011,3.879432,-1.368495
0.498000,-3.917878,-2.062194,0.304329,0.996770,-0.030509,0.003125,0.074225,0.575696,0.162972,-0.049947,0.976337,1.026679,-0.108763,-0.044360,-0.649039,-0.070248,0.026371,1.089504,0.119073,0.037747,-0.961393,-0.233056,-0.031040,0.613389,0.022895,-0.694449,-4.480514,-0.146690,-0.985091,1.108740,-0.413089,0.803341,0.366258,-0.696975,1.799042,2.346799,-0.012775
0.500000,-3.916769,-2.061928,0.304234,0.996795,-0.029742,0.004422,0.074137,0.554556,0.132828,-0.047778,0.862347,1.238951,-0.047760,-0.044803,-0.658431,-0.060363,0.024734,1.091680,0.117510,0.037995,-0.961489,-0.230666,-0.028206,0.616070,0.024494,-0.221530,-4.696044,4.942332,-0.818683,1.088041,-0.781491,0.123941,-0.047781,1.195155,1.416977,1.340164,0.799915
0.502000,-3.915670,-2.061781,0.304202,0.996785,-0.029999,0.005678,0.074081,0.549253,0.073791,-0.016022,-0.162949,1.272581,-0.018638,-0.043210,-0.664992,-0.060035,0.025227,1.094036,0.115477,0.034602,-0.960954,-0.228945,-0.027856,0.617962,0.026426,0.796511,-3.280294,0.164161,0.246379,1.177790,-1.016811,-1.696156,0.267233,0.860354,0.174698,0.946037,0.965917
0.504000,-3.914561,-2.061692,0.304218,0.996757,-0.030836,0.006778,0.074024,0.554558,0.044467,0.008257,-0.753670,1.159997,-0.026301,-0.040732,-0.668808,-0.071755,0.026939,1.096400,0.113752,0.029773,-0.959772,-0.230434,-0.029092,0.620198,0.027756,1.239063,-1.908098,-5.860159,0.856132,1.181895,-0.862203,-2.414689,0.591177,-0.744628,-0.617698,1.117918,0.664958
0.506000,-3.913439,-2.061532,0.304217,0.996756,-0.030840,0.007803,0.073925,0.561271,0.079984,-0.000651,0.072265,1.025375,-0.067823,-0.039731,-0.673241,-0.080394,0.027029,1.098313,0.113181,0.027506,-0.959105,-0.232053,-0.028467,0.623508,0.028051,0.500244,-2.216581,-4.319363,0.044843,0.956750,-0.285497,-1.133188,0.333573,-0.809406,0.312201,1.655192,0.147540
0.508000,-3.912297,-2.061249,0.304161,0.996804,-0.029393,0.008794,0.073764,0.570802,0.141279,-0.027911,1.518189,0.885307,-0.122129,-0.040987,-0.680400,-0.077257,0.024270,1.099618,0.114070,0.029300,-0.959965,-0.230719,-0.024392,0.628424,0.026907,-0.628163,-3.579543,1.568709,-1.379454,0.652233,0.444375,0.896699,-0.430293,0.667044,2.037764,2.457950,-0.572256
0.510000,-3.911117,-2.060967,0.304089,0.996856,-0.027815,0.009620,0.073565,0.589773,0.141061,-0.035807,1.637962,0.712621,-0.163439,-0.041769,-0.688380,-0.072806,0.021352,1.100872,0.115682,0.031816,-0.961403,-0.230051,-0.020367,0.634963,0.024175,-0.390924,-3.989948,2.225524,-1.458590,0.627084,0.805872,1.258120,-0.718767,0.333886,2.012445,3.269493,-1.365785
0.512000,-3.909887,-2.060805,0.304048,0.996877,-0.027348,0.010227,0.073378,0.615234,0.081035,-0.020804,0.512462,0.575219,-0.167177,-0.039744,-0.695013,-0.077520,0.020787,1.102576,0.117141,0.031617,-0.962304,-0.233307,-0.020333,0.642249,0.031477,1.012819,-3.316172,-2.357329,-0.282713,0.852021,0.729614,-0.099676,-0.450658,-1.627650,0.016856,3.643269,3.651130
0.514000,-3.908614,-2.060728,0.303988,0.996879,-0.027683,0.010594,0.073174,0.636555,0.038439,-0.029623,-0.305564,0.396466,-0.196066,-0.035554,-0.701052,-0.087019,0.021937,1.104782,0.118495,0.029371,-0.963812,-0.235616,-0.022412,0.651866,0.033720,2.094796,-3.019537,-4.749567,0.574752,1.102885,0.676893,-1.122964,-0.754096,-1.154854,-1.039446,4.808408,1.121043
0.516000,-3.907336,-2.060613,0.303871,0.996897,-0.027522,0.010949,0.072932,0.639127,0.057725,-0.058532,0.189869,0.348115,-0.231238,-0.032152,-0.708409,-0.090091,0.022124,1.106984,0.120065,0.028367,-0.966011,-0.234959,-0.023013,0.662913,0.032492,1.701268,-3.678803,-1.535726,0.093833,1.101063,0.785217,-0.502020,-1.099216,0.328575,-0.300163,5.523229,-0.613669
0.518000,-3.906085,-2.060410,0.303707,0.996941,-0.026426,0.011435,0.072660,0.625340,0.101283,-0.082146,1.132593,0.411371,-0.249129,-0.031085,-0.716765,-0.086871,0.020401,1.108903,0.121839,0.029898,-0.967744,-0.234257,-0.021047,0.673627,0.030188,0.533317,-4.177786,1.609864,-0.861440,0.959822,0.886621,0.765542,-0.866435,0.351397,0.982731,5.357410,-1.152078
0.520000,-3.904872,-2.060173,0.303533,0.996990,-0.024965,0.012045,0.072402,0.606347,0.118531,-0.087111,1.504635,0.508614,-0.228411,-0.031450,-0.724618,-0.082669,0.017893,1.110671,0.123415,0.032349,-0.968198,-0.236041,-0.018333,0.682517,0.028682,-0.182467,-3.926569,2.101046,-1.253963,0.883731,0.788075,1.225565,-0.226978,-0.892274,1.356810,4.444653,-0.753221
0.522000,-3.903688,-2.059978,0.303377,0.997024,-0.023879,0.012718,0.072189,0.591942,0.097365,-0.077738,1.135044,0.596763,-0.184921,-0.031599,-0.731633,-0.078437,0.016122,1.112543,0.124413,0.033167,-0.967881,-0.238340,-0.016469,0.689753,0.027855,-0.074575,-3.507327,2.116060,-0.885758,0.936120,0.499145,0.409248,0.158430,-1.149463,0.932383,3.618152,-0.413543
0.524000,-3.902520,-2.059877,0.303253,0.997031,-0.023670,0.013368,0.072039,0.584262,0.050754,-0.062250,0.256807,0.636487,-0.131397,-0.030381,-0.737637,-0.074917,0.016207,1.114799,0.124418,0.030714,-0.967481,-0.239084,-0.016615,0.695920,0.027193,0.609104,-3.002123,1.760148,0.042577,1.127785,0.002505,-1.226942,0.200183,-0.372205,-0.073137,3.083433,-0.330636
0.526000,-3.901364,-2.059816,0.303166,0.997025,-0.023878,0.013950,0.071946,0.577877,0.030192,-0.043622,-0.163945,0.597902,-0.081147,-0.028688,-0.742881,-0.072148,0.017080,1.117037,0.124418,0.026541,-0.967354,-0.238113,-0.017711,0.701220,0.026874,0.846282,-2.621960,1.384517,0.436586,1.118988,0.000168,-2.086237,0.063408,0.485826,-0.547832,2.650107,-0.159559
0.528000,-3.900222,-2.059719,0.303114,0.997024,-0.023819,0.014451,0.071882,0.570826,0.048925,-0.025645,0.095973,0.496388,-0.051304,-0.027883,-0.747727,-0.069857,0.017331,1.118883,0.125150,0.023299,-0.967118,-0.237950,-0.018191,0.705848,0.027064,0.402566,-2.423043,1.145566,0.125230,0.923027,0.365833,-1.621129,0.118046,0.081367,-0.240130,2.313903,0.094745
0.530000,-3.899087,-2.059549,0.303094,0.997037,-0.023167,0.014866,0.071833,0.567823,0.084768,-0.010269,0.680944,0.368148,-0.029975,-0.028575,-0.752438,-0.067840,0.016300,1.120192,0.126936,0.022205,-0.966746,-0.239416,-0.017810,0.709654,0.035709,-0.345866,-2.355505,1.008503,-0.515109,0.654624,0.892884,-0.547157,0.185913,-0.733060,0.190622,1.903128,4.322580
0.532000,-3.897937,-2.059335,0.303069,0.997059,-0.022293,0.015060,0.071756,0.575025,0.106887,-0.012219,0.886859,0.132014,-0.061141,-0.029862,-0.757053,-0.066455,0.014779,1.121343,0.129643,0.022613,-0.966902,-0.240791,-0.016425,0.715594,0.040097,-0.643795,-2.307712,0.692277,-0.760562,0.575374,1.353664,0.204255,-0.078315,-0.687216,0.692387,2.969908,2.194201
0.534000,-3.896763,-2.059136,0.303027,0.997079,-0.021780,0.014978,0.071656,0.586957,0.099558,-0.021224,0.507732,-0.116515,-0.095801,-0.030472,-0.761429,-0.066067,0.013971,1.122742,0.132714,0.022846,-0.967840,-0.240985,-0.015281,0.724474,0.036011,-0.304768,-2.187738,0.194161,-0.404379,0.699609,1.535474,0.116645,-0.468687,-0.097199,0.571936,4.439852,-2.043328
0.536000,-3.895548,-2.058939,0.303028,0.997100,-0.021473,0.014664,0.071529,0.607392,0.098379,0.000350,0.285417,-0.332959,-0.129850,-0.030661,-0.765475,-0.066853,0.013608,1.124002,0.136824,0.024175,-0.967761,-0.254587,-0.014541,0.733392,0.031816,-0.094351,-2.022932,-0.392995,-0.181303,0.630066,2.054768,0.664106,0.039454,-6.801210,0.369879,4.459214,-2.097288
0.538000,-3.894302,-2.058736,0.303048,0.997121,-0.021022,0.014123,0.071471,0.623046,0.101472,0.010299,0.412280,-0.570676,-0.064731,-0.031216,-0.769506,-0.068514,0.012966,1.125001,0.141980,0.024910,-0.971493,-0.261806,-0.013702,0.742179,0.027793,-0.277884,-2.015418,-0.830747,-0.320898,0.499317,2.578210,0.367961,-1.866275,-3.609385,0.419474,4.393243,-2.011276
0.540000,-3.893032,-2.058529,0.303058,0.997141,-0.020309,0.013429,0.071540,0.635110,0.103888,0.004752,0.661065,-0.744305,0.062773,-0.032438,-0.773765,-0.070544,0.011809,1.126208,0.147481,0.024006,-0.981921,-0.253206,-0.012672,0.750548,0.024247,-0.610741,-2.129842,-1.014941,-0.578521,0.603845,2.750642,-0.452187,-5.213657,4.300119,0.514940,4.184460,-1.773424
0.542000,-3.891770,-2.058361,0.303092,0.997148,-0.019994,0.012821,0.071633,0.630968,0.083990,0.016984,0.269400,-0.630957,0.084321,-0.032903,-0.777738,-0.072590,0.011795,1.128179,0.151812,0.022513,-0.990899,-0.250289,-0.012544,0.757693,0.021806,-0.232460,-1.986342,-1.023001,-0.007283,0.985393,2.165413,-0.746705,-4.489161,1.458542,0.064387,3.572488,-1.220342
0.544000,-3.890525,-2.058208,0.303104,0.997146,-0.019892,0.012355,0.071777,0.622584,0.076129,0.006089,0.066507,-0.474931,0.135859,-0.033071,-0.781699,-0.074106,0.011044,1.134890,0.144671,0.020407,-1.000002,-0.245525,-0.012947,0.763589,0.020408,-0.084059,-1.980567,-0.758112,-0.375208,3.355219,-3.570366,-1.053045,-4.551565,2.382024,-0.201598,2.948307,-0.699001
0.546000,-3.889303,-2.058048,0.303140,0.997146,-0.019691,0.012049,0.071884,0.610932,0.080153,0.018072,0.176842,-0.321711,0.102703,-0.033438,-0.785574,-0.075076,0.010850,1.141281,0.139835,0.020082,-1.006001,-0.248772,-0.013075,0.768224,0.020323,-0.183623,-1.937581,-0.484687,-0.097016,3.195540,-2.418044,-0.162357,-2.999296,-1.623750,-0.064145,2.317384,-0.042429
0.548000,-3.888092,-2.057837,0.303122,0.997155,-0.018719,0.011719,0.072065,0.605317,0.105620,-0.008833,0.943558,-0.401916,0.185799,-0.035462,-0.790050,-0.075349,0.008633,1.149082,0.130806,0.019918,-1.017892,-0.229365,-0.011831,0.772483,0.020708,-1.012125,-2.237716,-0.136909,-1.108655,3.900510,-4.514455,-0.082013,-5.945768,9.703698,0.621942,2.129322,0.192336
0.550000,-3.886885,-2.057658,0.303132,0.997165,-0.017984,0.011456,0.072162,0.603744,0.089266,0.004701,0.713004,-0.317167,0.099265,-0.036849,-0.794291,-0.075536,0.009115,1.154571,0.131565,0.021203,-1.026229,-0.220078,-0.010941,0.776309,0.021506,-0.693151,-2.120438,-0.093438,0.241169,2.744629,0.379326,0.642536,-4.168169,4.643540,0.444964,1.913089,0.399377
0.552000,-3.885681,-2.057529,0.303080,0.997162,-0.017712,0.011177,0.072310,0.601808,0.064682,-0.025944,0.249987,-0.300979,0.145697,-0.037331,-0.798556,-0.075637,0.009582,1.164131,0.117295,0.020650,-1.037261,-0.200052,-0.011094,0.780295,0.021711,-0.241058,-2.132850,-0.050333,0.233228,4.780104,-7.135214,-0.276557,-5.516276,10.013096,-0.076201,1.993322,0.102435
