QPZ-918/AT_DOG_AMP/temp/gmr_data_csv/Vz-0.4.csv
time_sec,root_pos_x,root_pos_y,root_pos_z,root_quat_w,root_quat_x,root_quat_y,root_quat_z,base_lin_vel_x,base_lin_vel_y,base_lin_vel_z,base_ang_vel_x,base_ang_vel_y,base_ang_vel_z,FR_hip_joint,FR_thigh_joint,FR_calf_joint,FL_hip_joint,FL_thigh_joint,FL_calf_joint,RR_hip_joint,RR_thigh_joint,RR_calf_joint,RL_hip_joint,RL_thigh_joint,RL_calf_joint,FR_hip_joint_vel,FR_thigh_joint_vel,FR_calf_joint_vel,FL_hip_joint_vel,FL_thigh_joint_vel,FL_calf_joint_vel,RR_hip_joint_vel,RR_thigh_joint_vel,RR_calf_joint_vel,RL_hip_joint_vel,RL_thigh_joint_vel,RL_calf_joint_vel
0.002000,0.032146,0.032423,0.284535,0.963307,0.003509,-0.017717,-0.267793,-0.073907,0.002205,0.116899,0.285890,-0.404033,-0.098094,-0.025374,-0.819822,0.018410,0.073426,1.057567,-0.466291,0.054887,-0.966825,0.487603,-0.027642,0.762603,-0.104603,-0.056599,0.255341,-0.542416,-1.174705,-1.115569,0.206411,-1.124607,-1.778695,0.224480,0.247072,0.176587,0.143119
0.004000,0.032003,0.032432,0.284753,0.963270,0.003750,-0.018216,-0.267891,-0.071327,0.004596,0.108653,0.364886,-0.417263,-0.106557,-0.025626,-0.819419,0.017459,0.070576,1.055557,-0.467285,0.052681,-0.970491,0.489196,-0.026979,0.763055,-0.104429,-0.126084,0.201432,-0.475299,-1.424953,-1.005330,-0.497197,-1.103243,-1.832811,0.796650,0.331242,0.225951,0.086956
0.006000,0.031856,0.032434,0.284961,0.963225,0.003957,-0.018704,-0.268015,-0.073314,0.000979,0.104464,0.327465,-0.415882,-0.133908,-0.025735,-0.819029,0.016568,0.068140,1.053212,-0.466563,0.050611,-0.973794,0.488973,-0.026374,0.763584,-0.104351,-0.054659,0.194926,-0.445534,-1.218045,-1.172356,0.360878,-1.034660,-1.651480,-0.111569,0.302689,0.264921,0.039206
0.008000,0.031704,0.032425,0.285149,0.963178,0.004067,-0.019159,-0.268150,-0.076310,-0.004740,0.093813,0.225513,-0.410450,-0.142458,-0.025604,-0.818671,0.015750,0.065803,1.051251,-0.467810,0.048124,-0.977191,0.489864,-0.025991,0.764207,-0.104450,0.065797,0.179253,-0.409396,-1.168434,-0.980660,-0.623169,-1.243518,-1.698454,0.445258,0.191725,0.311283,-0.049425
0.010000,0.031547,0.032401,0.285313,0.963129,0.004080,-0.019586,-0.268294,-0.078537,-0.011743,0.081768,0.125070,-0.408898,-0.150420,-0.025233,-0.818359,0.015006,0.063721,1.049711,-0.470584,0.045277,-0.980887,0.491866,-0.025835,0.764943,-0.104742,0.185552,0.155739,-0.372014,-1.041005,-0.770138,-1.386978,-1.423764,-1.847879,1.001334,0.077992,0.367906,-0.146296
0.012000,0.031394,0.032377,0.285456,0.963076,0.004144,-0.020035,-0.268450,-0.076462,-0.012315,0.071562,0.179198,-0.417037,-0.163962,-0.024941,-0.818140,0.014393,0.061599,1.048504,-0.473607,0.042680,-0.984796,0.494602,-0.025571,0.765766,-0.105136,0.145815,0.109659,-0.306472,-1.061058,-0.603148,-1.511827,-1.298206,-1.954697,1.367871,0.131666,0.411517,-0.196647
0.014000,0.031243,0.032359,0.285600,0.963015,0.004344,-0.020513,-0.268629,-0.075198,-0.008694,0.071961,0.316994,-0.409119,-0.191049,-0.024879,-0.817946,0.013898,0.059644,1.046803,-0.473027,0.040900,-0.988228,0.494565,-0.025004,0.766514,-0.105387,0.030966,0.096994,-0.247395,-0.977357,-0.850413,0.290205,-0.890323,-1.716227,-0.018430,0.283863,0.374205,-0.125683
0.016000,0.031091,0.032345,0.285738,0.962952,0.004610,-0.020992,-0.268816,-0.076391,-0.006944,0.068996,0.381639,-0.390962,-0.200894,-0.024926,-0.817765,0.013514,0.057656,1.045039,-0.471862,0.039384,-0.991449,0.493849,-0.024310,0.767162,-0.105531,-0.023394,0.090785,-0.191972,-0.993737,-0.882258,0.582646,-0.757964,-1.610488,-0.358236,0.346713,0.324023,-0.072173
0.018000,0.030920,0.032330,0.285891,0.962883,0.004852,-0.021411,-0.269026,-0.085112,-0.007876,0.076470,0.341623,-0.341727,-0.223141,-0.024839,-0.817434,0.013132,0.056321,1.042324,-0.467216,0.038094,-0.993574,0.489152,-0.023690,0.767554,-0.105409,0.043197,0.165100,-0.190717,-0.667652,-1.357498,2.322910,-0.644811,-1.062484,-2.348167,0.310210,0.195694,0.061289
0.020000,0.030735,0.032312,0.286037,0.962820,0.005056,-0.021785,-0.269216,-0.092454,-0.008633,0.073263,0.293422,-0.306753,-0.202592,-0.024674,-0.817051,0.012790,0.054681,1.039695,-0.465603,0.036002,-0.995765,0.487019,-0.023225,0.767753,-0.105166,0.082591,0.191491,-0.171180,-0.819955,-1.314328,0.806545,-1.045812,-1.095594,-1.066700,0.232174,0.099805,0.121398
0.022000,0.030528,0.032295,0.286206,0.962754,0.005226,-0.022097,-0.269424,-0.103506,-0.008666,0.084253,0.242819,-0.257454,-0.220285,-0.024362,-0.816474,0.012387,0.053614,1.035818,-0.460512,0.033965,-0.996661,0.481302,-0.022857,0.767667,-0.104629,0.156304,0.288802,-0.201627,-0.533700,-1.938673,2.545340,-1.018851,-0.447908,-2.858326,0.184324,-0.043096,0.268549
0.024000,0.030315,0.032288,0.286373,0.962692,0.005478,-0.022423,-0.269612,-0.106546,-0.003679,0.083825,0.327255,-0.248493,-0.201466,-0.024247,-0.815883,0.012005,0.051804,1.031810,-0.457455,0.031527,-0.997593,0.478179,-0.022354,0.767445,-0.103965,0.057067,0.295215,-0.190870,-0.905059,-2.003815,1.528516,-1.218810,-0.466079,-1.561803,0.251300,-0.111222,0.332077
0.026000,0.030090,0.032291,0.286571,0.962620,0.005813,-0.022750,-0.269835,-0.112691,0.001554,0.099073,0.405407,-0.227351,-0.239404,-0.024227,-0.815126,0.011540,0.050412,1.026172,-0.448052,0.029995,-0.996785,0.469359,-0.021635,0.767031,-0.103018,0.010332,0.378899,-0.232591,-0.695628,-2.819302,4.701411,-0.766218,0.404013,-4.409854,0.359638,-0.206793,0.473454
0.028000,0.029861,0.032299,0.286764,0.962552,0.006171,-0.023093,-0.270041,-0.114709,0.004076,0.096287,0.432628,-0.235923,-0.223185,-0.024285,-0.814363,0.011037,0.048196,1.020646,-0.441496,0.027966,-0.996064,0.463153,-0.020889,0.766622,-0.102106,-0.029142,0.381265,-0.251472,-1.108095,-2.763051,3.277901,-1.014339,0.360801,-3.103291,0.372979,-0.204783,0.456014
0.030000,0.029613,0.032301,0.286977,0.962474,0.006422,-0.023388,-0.270287,-0.123748,0.000961,0.106569,0.316173,-0.219813,-0.261871,-0.024032,-0.813405,0.010370,0.046681,1.013866,-0.430341,0.026302,-0.993651,0.451567,-0.020328,0.766174,-0.101147,0.126376,0.478957,-0.333642,-0.757489,-3.389767,5.577562,-0.832166,1.206244,-5.792655,0.280505,-0.223760,0.479318
0.032000,0.029362,0.032298,0.287172,0.962402,0.006607,-0.023691,-0.270514,-0.125346,-0.001501,0.097595,0.255693,-0.244893,-0.240946,-0.023682,-0.812480,0.009639,0.044397,1.007567,-0.423469,0.023730,-0.991714,0.444106,-0.019932,0.765884,-0.100426,0.175077,0.462417,-0.365307,-1.141984,-3.149277,3.436211,-1.285817,0.968560,-3.730664,0.198185,-0.144978,0.360615
0.034000,0.029100,0.032290,0.287384,0.962316,0.006735,-0.023983,-0.270792,-0.131071,-0.003887,0.105883,0.195503,-0.249849,-0.291154,-0.023118,-0.811418,0.008772,0.042897,0.999915,-0.410450,0.021902,-0.988071,0.430959,-0.019586,0.765663,-0.099735,0.282151,0.530938,-0.433463,-0.749954,-3.826008,6.509195,-0.913890,1.821820,-6.573565,0.172616,-0.110729,0.345371
0.036000,0.028844,0.032285,0.287574,0.962231,0.006900,-0.024325,-0.271056,-0.128110,-0.002733,0.095100,0.246717,-0.288589,-0.278633,-0.022677,-0.810468,0.007927,0.040555,0.992659,-0.400480,0.019699,-0.984903,0.421444,-0.019159,0.765643,-0.099284,0.220290,0.475079,-0.422460,-1.171031,-3.628287,4.985206,-1.101804,1.583626,-4.757276,0.213672,-0.009795,0.225851
0.038000,0.028581,0.032281,0.287775,0.962133,0.007078,-0.024671,-0.271370,-0.131409,-0.002007,0.100414,0.257753,-0.288917,-0.330571,-0.022173,-0.809443,0.007062,0.038877,0.984139,-0.384644,0.018546,-0.979997,0.406111,-0.018630,0.765664,-0.098827,0.252087,0.512837,-0.432369,-0.839059,-4.259726,7.918088,-0.576123,2.453192,-7.666702,0.264407,0.010688,0.228490
0.040000,0.028322,0.032275,0.287946,0.962039,0.007253,-0.025036,-0.271665,-0.129844,-0.002614,0.085561,0.261082,-0.308471,-0.311797,-0.021704,-0.808544,0.006297,0.036472,0.976249,-0.373347,0.016797,-0.975659,0.394843,-0.018132,0.765836,-0.098602,0.234382,0.449330,-0.382938,-1.202772,-3.945263,5.648216,-0.874445,2.168744,-5.633906,0.249105,0.086069,0.112031
0.042000,0.028049,0.032265,0.288122,0.961933,0.007367,-0.025361,-0.272005,-0.136190,-0.005256,0.087868,0.189895,-0.286909,-0.355851,-0.021013,-0.807556,0.005550,0.034988,0.967262,-0.357328,0.015719,-0.969668,0.378227,-0.017723,0.765984,-0.098360,0.345735,0.493947,-0.373497,-0.741898,-4.493499,8.009813,-0.539080,2.995600,-8.307907,0.204458,0.073589,0.121375
0.044000,0.027779,0.032252,0.288268,0.961833,0.007485,-0.025698,-0.272323,-0.135233,-0.006570,0.072765,0.197562,-0.297144,-0.333908,-0.020367,-0.806700,0.004936,0.033011,0.958812,-0.345106,0.013994,-0.964331,0.365742,-0.017350,0.766225,-0.098292,0.323098,0.427929,-0.306838,-0.988337,-4.225066,6.110632,-0.862717,2.668557,-6.242404,0.186637,0.120568,0.033713
0.046000,0.027499,0.032237,0.288418,0.961723,0.007603,-0.026015,-0.272681,-0.140004,-0.007359,0.075253,0.191886,-0.277644,-0.374818,-0.019636,-0.805784,0.004376,0.031933,0.949216,-0.327351,0.013061,-0.957482,0.348241,-0.016941,0.766407,-0.098145,0.365126,0.458227,-0.279965,-0.538972,-4.797894,8.877974,-0.466454,3.424662,-8.750867,0.204174,0.091063,0.073635
0.048000,0.027224,0.032224,0.288540,0.961618,0.007778,-0.026355,-0.273014,-0.137351,-0.006494,0.060875,0.252614,-0.284959,-0.350615,-0.019070,-0.805018,0.003985,0.030294,0.940194,-0.313102,0.011682,-0.951307,0.334525,-0.016462,0.766639,-0.098106,0.283208,0.382868,-0.195578,-0.819652,-4.510775,7.124267,-0.689695,3.087313,-6.857928,0.239783,0.115972,0.019333
0.050000,0.026942,0.032212,0.288663,0.961504,0.007963,-0.026673,-0.273377,-0.140983,-0.006237,0.061709,0.256530,-0.260496,-0.382491,-0.018463,-0.804209,0.003675,0.029331,0.930383,-0.294905,0.011028,-0.943794,0.316280,-0.015937,0.766786,-0.097973,0.303378,0.404268,-0.154819,-0.481316,-4.905645,9.098549,-0.327002,3.756375,-9.122311,0.262418,0.073491,0.066800
0.052000,0.026665,0.032199,0.288758,0.961397,0.008180,-0.027004,-0.273713,-0.138609,-0.006375,0.047448,0.290453,-0.264361,-0.355823,-0.017970,-0.803534,0.003511,0.027865,0.921305,-0.280629,0.009878,-0.936995,0.301683,-0.015400,0.766975,-0.097949,0.246701,0.337785,-0.082257,-0.733234,-4.539248,7.137921,-0.574797,3.399612,-7.298672,0.268534,0.094810,0.012082
0.054000,0.026382,0.032184,0.288853,0.961284,0.008396,-0.027321,-0.274074,-0.141521,-0.007295,0.047330,0.285966,-0.251858,-0.381461,-0.017425,-0.802821,0.003381,0.027037,0.911631,-0.262809,0.009289,-0.929184,0.283671,-0.014849,0.767129,-0.097880,0.272316,0.356474,-0.065026,-0.413900,-4.837058,8.910008,-0.294625,3.905642,-9.005942,0.275698,0.076876,0.034141
0.056000,0.026103,0.032167,0.288923,0.961175,0.008632,-0.027658,-0.274413,-0.139173,-0.008564,0.035284,0.311127,-0.264968,-0.359319,-0.016965,-0.802216,0.003330,0.025901,0.902577,-0.247670,0.008301,-0.922069,0.268863,-0.014299,0.767359,-0.097936,0.230240,0.302478,-0.025461,-0.567829,-4.526845,7.569682,-0.493991,3.557399,-7.403820,0.274653,0.114703,-0.027815
0.058000,0.025820,0.032147,0.288992,0.961061,0.008853,-0.027985,-0.274774,-0.141546,-0.010204,0.034560,0.292976,-0.259814,-0.380996,-0.016432,-0.801572,0.003276,0.025350,0.893143,-0.229678,0.007799,-0.914139,0.251188,-0.013770,0.767587,-0.097987,0.266496,0.321949,-0.026916,-0.275601,-4.716988,8.995856,-0.251082,3.964929,-8.837510,0.264789,0.114297,-0.025675
0.060000,0.025542,0.032124,0.289040,0.960951,0.009086,-0.028328,-0.275115,-0.139253,-0.011307,0.023949,0.309378,-0.271829,-0.361552,-0.015964,-0.801015,0.003276,0.024539,0.884377,-0.214384,0.007032,-0.906795,0.236016,-0.013252,0.767886,-0.098153,0.233900,0.278652,0.000249,-0.405799,-4.382933,7.646734,-0.383120,3.672186,-7.586324,0.258813,0.149467,-0.082721
0.062000,0.025262,0.032099,0.289082,0.960838,0.009312,-0.028669,-0.275467,-0.140139,-0.012403,0.021040,0.301862,-0.271868,-0.373197,-0.015464,-0.800446,0.003280,0.024083,0.875595,-0.197972,0.006637,-0.898992,0.219235,-0.012745,0.768204,-0.098344,0.249790,0.284475,0.001994,-0.227863,-4.391058,8.206022,-0.197705,3.901415,-8.390457,0.253577,0.158924,-0.095387
0.064000,0.024987,0.032074,0.289108,0.960728,0.009570,-0.029037,-0.275802,-0.137427,-0.012834,0.012608,0.341228,-0.288625,-0.356207,-0.015071,-0.799956,0.003317,0.023440,0.867360,-0.183404,0.006139,-0.891753,0.204580,-0.012199,0.768589,-0.098622,0.196477,0.244944,0.018349,-0.321641,-4.117505,7.284037,-0.248870,3.619464,-7.327353,0.272930,0.192588,-0.139471
0.066000,0.024713,0.032045,0.289125,0.960616,0.009835,-0.029418,-0.276142,-0.137050,-0.014279,0.008734,0.350760,-0.299867,-0.361091,-0.014687,-0.799481,0.003346,0.023062,0.859265,-0.168158,0.005918,-0.884439,0.189592,-0.011643,0.769029,-0.098956,0.192420,0.237323,0.014693,-0.188509,-4.047604,7.623227,-0.110669,3.657253,-7.494095,0.277851,0.219872,-0.166642
0.068000,0.024446,0.032016,0.289126,0.960507,0.010169,-0.029854,-0.276464,-0.133143,-0.014387,0.000691,0.433015,-0.333507,-0.345491,-0.014485,-0.799109,0.003394,0.022537,0.851574,-0.153716,0.005978,-0.878893,0.178343,-0.010966,0.769582,-0.099396,0.100560,0.185906,0.023632,-0.262846,-3.845357,7.220790,0.029991,2.772742,-5.624303,0.338456,0.276641,-0.220271
0.070000,0.024171,0.031974,0.289118,0.960398,0.010371,-0.030236,-0.276792,-0.137807,-0.021170,-0.004214,0.290224,-0.317253,-0.347019,-0.013981,-0.798689,0.003418,0.022528,0.844413,-0.140584,0.005884,-0.874506,0.169781,-0.010601,0.770136,-0.099906,0.252317,0.210445,0.011970,-0.004389,-3.580268,6.566185,-0.046847,2.193512,-4.280959,0.182694,0.276812,-0.255009
0.072000,0.023874,0.031918,0.289116,0.960290,0.010371,-0.030490,-0.277140,-0.148383,-0.027752,-0.001179,0.061122,-0.251312,-0.361413,-0.012985,-0.798087,0.003414,0.023304,0.837562,-0.128095,0.005470,-0.870704,0.163021,-0.010690,0.770481,-0.100292,0.497752,0.300802,-0.001574,0.388176,-3.425696,6.244705,-0.207050,1.901294,-3.380013,-0.044255,0.172804,-0.193037
0.074000,0.023557,0.031860,0.289125,0.960180,0.010208,-0.030580,-0.277517,-0.158301,-0.029018,0.004820,-0.142295,-0.138122,-0.386797,-0.011563,-0.797278,0.003520,0.024636,0.831400,-0.117691,0.004823,-0.867062,0.157420,-0.011129,0.770438,-0.100375,0.711054,0.404649,0.052853,0.665720,-3.081162,5.201756,-0.323544,1.820785,-2.800734,-0.219971,-0.021531,-0.041197
0.076000,0.023226,0.031821,0.289171,0.960063,0.010061,-0.030534,-0.277931,-0.165584,-0.019510,0.022747,-0.165303,-0.004774,-0.425235,-0.010086,-0.796227,0.003788,0.026241,0.825241,-0.106101,0.004346,-0.863273,0.152482,-0.011500,0.769805,-0.099848,0.738850,0.525459,0.134037,0.802544,-3.079180,5.794974,-0.238300,1.894697,-2.468963,-0.185031,-0.316540,0.263248
0.078000,0.022898,0.031816,0.289243,0.959940,0.010033,-0.030375,-0.278374,-0.164295,-0.002814,0.036103,-0.082627,0.137257,-0.460743,-0.008811,-0.795034,0.004374,0.027306,0.820092,-0.097435,0.004274,-0.859295,0.148041,-0.011547,0.768593,-0.098718,0.637386,0.596425,0.292912,0.532374,-2.574816,4.333190,-0.035979,1.988694,-2.220285,-0.023936,-0.606205,0.565261
0.080000,0.022575,0.031847,0.289356,0.959805,0.010187,-0.030154,-0.278857,-0.161142,0.015633,0.056336,0.072291,0.245831,-0.507810,-0.007862,-0.793680,0.005150,0.027985,0.815097,-0.087350,0.004754,-0.855122,0.143937,-0.011107,0.766893,-0.096997,0.474177,0.676916,0.387925,0.339739,-2.497593,5.042165,0.239765,2.086822,-2.051997,0.219995,-0.849804,0.860533
0.082000,0.022263,0.031896,0.289485,0.959661,0.010288,-0.029816,-0.279385,-0.155961,0.024506,0.064595,-0.011248,0.343086,-0.553924,-0.006769,-0.792183,0.006042,0.028246,0.811722,-0.082041,0.005299,-0.850758,0.140009,-0.010657,0.764994,-0.095094,0.546527,0.748457,0.445834,0.130635,-1.687103,2.654848,0.272338,2.181921,-1.964108,0.225232,-0.949534,0.951379
0.084000,0.021961,0.031955,0.289644,0.959501,0.010350,-0.029435,-0.279972,-0.150929,0.029531,0.079799,-0.062474,0.371548,-0.613474,-0.005544,-0.790518,0.006793,0.028739,0.808481,-0.074109,0.005954,-0.846355,0.136279,-0.010129,0.763158,-0.093179,0.612931,0.832425,0.375520,0.246338,-1.620549,3.965814,0.327892,2.201261,-1.865286,0.264034,-0.918310,0.957525
0.086000,0.021677,0.032006,0.289805,0.959330,0.010163,-0.028968,-0.280614,-0.142403,0.025409,0.080144,-0.328070,0.384326,-0.663025,-0.003779,-0.788747,0.007365,0.029287,0.806986,-0.070859,0.006268,-0.842029,0.132741,-0.009981,0.761863,-0.091840,0.882486,0.885584,0.286202,0.273758,-0.747757,1.624894,0.156566,2.163323,-1.768529,0.073992,-0.647457,0.669540
0.088000,0.021414,0.032060,0.289988,0.959141,0.009931,-0.028519,-0.281312,-0.131180,0.027136,0.091616,-0.366080,0.353193,-0.720791,-0.001907,-0.786890,0.007675,0.030131,0.805418,-0.064124,0.006694,-0.837883,0.129454,-0.009638,0.761262,-0.091181,0.935845,0.928419,0.155093,0.421965,-0.783954,3.367513,0.213354,2.072845,-1.643799,0.171378,-0.300108,0.329542
0.090000,0.021194,0.032123,0.290157,0.958946,0.009713,-0.028115,-0.282024,-0.109922,0.031476,0.084267,-0.341529,0.312975,-0.735923,-0.000149,-0.785175,0.007947,0.030189,0.805645,-0.063260,0.007293,-0.834253,0.126779,-0.009181,0.761310,-0.091087,0.878995,0.857715,0.135973,0.029038,0.113624,0.432132,0.299235,1.814731,-1.337484,0.228544,0.023571,0.046676
0.092000,0.021009,0.032202,0.290340,0.958741,0.009658,-0.027816,-0.282752,-0.092683,0.039618,0.091506,-0.155248,0.259089,-0.756823,0.001210,-0.783543,0.008100,0.030083,0.805506,-0.058999,0.008371,-0.831048,0.124586,-0.008274,0.761602,-0.091048,0.679346,0.815817,0.076201,-0.052650,-0.069385,2.130448,0.538934,1.602534,-1.096464,0.453440,0.146096,0.019770
0.094000,0.020868,0.032293,0.290500,0.958538,0.009736,-0.027609,-0.283458,-0.070597,0.045439,0.080471,-0.001923,0.207927,-0.738541,0.002166,-0.782169,0.008325,0.029142,0.806712,-0.060040,0.009785,-0.828534,0.123171,-0.007042,0.762042,-0.091093,0.478281,0.687211,0.112737,-0.470456,0.602918,-0.520284,0.707408,1.257312,-0.707647,0.615943,0.220203,-0.022425
0.096000,0.020746,0.032380,0.290667,0.958332,0.009844,-0.027467,-0.284163,-0.061188,0.043531,0.083170,0.046201,0.153845,-0.738606,0.003021,-0.780865,0.008390,0.028749,0.807160,-0.057139,0.011292,-0.826414,0.122154,-0.005731,0.762521,-0.091069,0.427508,0.652081,0.032628,-0.196625,0.223763,1.450205,0.753377,1.059902,-0.508113,0.655510,0.239223,0.011897
0.098000,0.020642,0.032447,0.290802,0.958135,0.009805,-0.027322,-0.284840,-0.051737,0.033212,0.067599,-0.095364,0.115421,-0.704732,0.004106,-0.779724,0.008408,0.028564,0.808710,-0.059568,0.012396,-0.825149,0.121965,-0.004788,0.763165,-0.091271,0.542510,0.570224,0.008910,-0.092743,0.775291,-1.214406,0.551994,0.632665,-0.094521,0.471867,0.322338,-0.101216
0.100000,0.020543,0.032495,0.290936,0.957942,0.009677,-0.027192,-0.285507,-0.049371,0.024082,0.066865,-0.176334,0.076879,-0.692336,0.005363,-0.778620,0.008262,0.029367,0.809458,-0.058593,0.013285,-0.824100,0.121959,-0.004076,0.763851,-0.091479,0.628090,0.552315,-0.073297,0.401537,0.373775,0.487620,0.444206,0.524246,-0.003313,0.355654,0.342733,-0.104016
0.102000,0.020463,0.032531,0.291043,0.957760,0.009524,-0.027083,-0.286131,-0.040016,0.018114,0.053703,-0.192748,0.049747,-0.645814,0.006581,-0.777717,0.008171,0.030189,0.810901,-0.061475,0.013961,-0.824085,0.122952,-0.003498,0.764588,-0.091762,0.609013,0.451430,-0.045372,0.411252,0.721407,-1.441004,0.338207,0.007354,0.496696,0.288895,0.368550,-0.141237
0.104000,0.020396,0.032569,0.291152,0.957584,0.009490,-0.027032,-0.286728,-0.033793,0.019164,0.054632,-0.061592,0.028904,-0.622474,0.007506,-0.776923,0.008105,0.031315,0.811557,-0.061186,0.014877,-0.824149,0.124032,-0.002717,0.765210,-0.091841,0.462861,0.397027,-0.032929,0.562811,0.328111,0.144523,0.458142,-0.031773,0.539935,0.390745,0.310875,-0.039618
0.106000,0.020347,0.032616,0.291250,0.957417,0.009606,-0.027025,-0.287281,-0.024510,0.023185,0.048938,0.095875,0.030182,-0.580089,0.008037,-0.776313,0.008222,0.032051,0.812462,-0.062845,0.016022,-0.824578,0.125501,-0.001690,0.765665,-0.091713,0.265434,0.304702,0.058712,0.368065,0.452523,-0.829688,0.572403,-0.214577,0.734304,0.513699,0.227688,0.063919
0.108000,0.020302,0.032665,0.291353,0.957256,0.009795,-0.027026,-0.287810,-0.022177,0.024483,0.051314,0.168073,0.043166,-0.557773,0.008399,-0.775738,0.008393,0.032956,0.812888,-0.062843,0.017279,-0.824813,0.126773,-0.000568,0.765909,-0.091327,0.180720,0.287818,0.085111,0.452538,0.213284,0.001089,0.628237,-0.117710,0.636406,0.560905,0.121861,0.192918
0.110000,0.020254,0.032711,0.291462,0.957102,0.009957,-0.026986,-0.288319,-0.024365,0.023199,0.054347,0.131859,0.076016,-0.537072,0.008815,-0.775124,0.008581,0.034087,0.813019,-0.062418,0.018421,-0.824726,0.127693,0.000432,0.765911,-0.090705,0.208171,0.306927,0.094418,0.565564,0.065260,0.212654,0.571322,0.043844,0.459593,0.500082,0.001012,0.311109
0.112000,0.020196,0.032751,0.291579,0.956954,0.010026,-0.026879,-0.288819,-0.028730,0.019784,0.058626,0.022804,0.113466,-0.523505,0.009444,-0.774420,0.008731,0.035556,0.812909,-0.061610,0.019316,-0.824253,0.128160,0.001179,0.765704,-0.089903,0.314561,0.352083,0.074651,0.734258,-0.055044,0.403928,0.447475,0.236642,0.233638,0.373168,-0.103178,0.401228
0.114000,0.020077,0.032747,0.291750,0.956786,0.009638,-0.026557,-0.289416,-0.059376,-0.001628,0.085470,-0.477921,0.185240,-0.612900,0.011309,-0.773218,0.008519,0.040582,0.809109,-0.040692,0.019293,-0.822548,0.127189,0.000969,0.765282,-0.088936,0.932186,0.600886,-0.105741,2.513086,-1.899679,10.459021,-0.011535,0.852125,-0.485456,-0.104811,-0.211437,0.483546
0.116000,0.019928,0.032741,0.291915,0.956619,0.008867,-0.025903,-0.290054,-0.074703,-0.003445,0.082564,-0.942738,0.392575,-0.644642,0.013923,-0.771889,0.008861,0.046067,0.806643,-0.026746,0.018462,-0.819480,0.124786,-0.000065,0.764324,-0.087746,1.307224,0.664438,0.170974,2.742394,-1.233187,6.972768,-0.415389,1.534289,-1.201559,-0.517103,-0.479015,0.594906
0.118000,0.019798,0.032786,0.292046,0.956458,0.008165,-0.025022,-0.290680,-0.064808,0.022926,0.065504,-0.942198,0.629237,-0.635238,0.015912,-0.770948,0.010581,0.049201,0.808057,-0.032696,0.017821,-0.815374,0.121434,-0.000908,0.762707,-0.086175,0.994745,0.470391,0.860030,1.567061,0.707112,-2.974840,-0.320747,2.052839,-1.675963,-0.421316,-0.808143,0.785586
0.120000,0.019729,0.032916,0.292185,0.956290,0.008100,-0.024258,-0.291299,-0.034842,0.064584,0.069576,-0.297710,0.702587,-0.645652,0.016115,-0.770483,0.013276,0.049615,0.810412,-0.042205,0.018705,-0.811041,0.117955,0.000159,0.761271,-0.084989,0.101459,0.232757,1.347299,0.207258,1.177308,-4.754615,0.441937,2.166677,-1.739244,0.533347,-0.718013,0.592929
0.122000,0.019720,0.033104,0.292369,0.956103,0.008718,-0.023825,-0.291932,-0.004098,0.094056,0.091893,0.450895,0.584690,-0.678092,0.014768,-0.770197,0.015831,0.048707,0.810423,-0.037164,0.021262,-0.807203,0.114960,0.003202,0.760776,-0.084595,-0.673894,0.142970,1.277554,-0.454097,0.005584,2.520652,1.278584,1.918635,-1.497541,1.521394,-0.247807,0.196728
0.124000,0.019718,0.033268,0.292575,0.955906,0.009111,-0.023451,-0.292593,-0.001279,0.082181,0.103265,0.252330,0.461980,-0.702164,0.014036,-0.769572,0.017359,0.048670,0.809000,-0.022726,0.023445,-0.803633,0.111991,0.005629,0.761369,-0.084965,-0.365957,0.312452,0.763837,-0.018601,-0.711797,7.218930,1.091676,1.785027,-1.484858,1.213448,0.296837,-0.184625
0.126000,0.019683,0.033363,0.292760,0.955718,0.008608,-0.022818,-0.293271,-0.017414,0.047627,0.092525,-0.680605,0.446734,-0.696999,0.015329,-0.768449,0.017895,0.050047,0.809060,-0.015539,0.023688,-0.799842,0.108476,0.005810,0.762819,-0.086356,0.646826,0.561218,0.268121,0.688678,0.030146,3.593341,0.121281,1.895773,-1.757530,0.090658,0.724882,-0.695954
0.128000,0.019632,0.033415,0.292916,0.955549,0.007499,-0.021977,-0.293916,-0.025543,0.025824,0.077813,-1.319527,0.469548,-0.647700,0.017915,-0.767066,0.017875,0.051792,0.811132,-0.019466,0.022540,-0.795935,0.104633,0.003590,0.763937,-0.081414,1.292649,0.691508,-0.010057,0.872243,1.036275,-1.963138,-0.573752,1.953536,-1.921477,-1.109862,0.559005,2.471112
0.130000,0.019610,0.033477,0.293059,0.955382,0.006464,-0.021245,-0.294536,-0.011240,0.031115,0.071637,-1.216893,0.386480,-0.623956,0.020251,-0.765768,0.017534,0.053013,0.813026,-0.023073,0.021610,-0.792523,0.101235,0.001686,0.765787,-0.078367,1.168029,0.649118,-0.170134,0.610471,0.947026,-1.803918,-0.465033,1.705673,-1.698907,-0.951921,0.925020,1.523627
0.132000,0.019652,0.033598,0.293207,0.955210,0.006142,-0.020871,-0.295127,0.021350,0.060509,0.073594,-0.428576,0.255149,-0.611854,0.020785,-0.764943,0.017390,0.052873,0.812878,-0.017094,0.022438,-0.790067,0.098932,0.001967,0.768458,-0.077200,0.267337,0.412730,-0.072236,-0.069975,-0.074221,2.989681,0.413895,1.228025,-1.151440,0.140436,1.335464,0.583622
0.134000,0.019753,0.033781,0.293342,0.955043,0.006466,-0.020745,-0.295669,0.050202,0.091166,0.067497,0.261347,0.209490,-0.574422,0.018634,-0.764060,0.010460,0.051349,0.811495,-0.006725,0.024689,-0.788211,0.097384,0.004019,0.771087,-0.076833,-1.075459,0.441529,-3.464969,-0.762102,-0.691418,5.184308,1.125282,0.928148,-0.774230,1.025893,1.314393,0.183376
0.136000,0.019842,0.033952,0.293415,0.954889,0.006623,-0.020433,-0.296185,0.044847,0.085764,0.036612,0.048389,0.337979,-0.543851,0.016972,-0.764542,0.006964,0.050236,0.811054,-0.003788,0.026413,-0.786040,0.095631,0.005560,0.772952,-0.076570,-0.831104,-0.241449,-1.747947,-0.556415,-0.220531,1.468938,0.862195,1.085465,-0.876352,0.770551,0.932507,0.131656
0.138000,0.019886,0.034072,0.293423,0.954744,0.006220,-0.019776,-0.296704,0.021734,0.059868,0.004303,-0.589295,0.500675,-0.534407,0.017275,-0.766614,0.009594,0.050921,0.811483,-0.007441,0.026718,-0.783217,0.093250,0.005626,0.774180,-0.076614,0.151544,-1.035581,1.314762,0.342758,0.214298,-1.826623,0.152384,1.411563,-1.190323,0.032734,0.614188,-0.022352
0.140000,0.019895,0.034156,0.293409,0.954602,0.005476,-0.018942,-0.297230,0.004837,0.042147,-0.007368,-0.967423,0.569485,-0.534860,0.018579,-0.769042,0.013106,0.053401,0.811038,-0.007789,0.026164,-0.780038,0.090483,0.004865,0.774957,-0.076757,0.651933,-1.214195,1.756036,1.239739,-0.222096,-0.173950,-0.276601,1.589430,-1.383559,-0.380520,0.388230,-0.071484
0.142000,0.019894,0.034236,0.293396,0.954460,0.004688,-0.018096,-0.297753,-0.000939,0.039938,-0.006478,-1.012747,0.568509,-0.530634,0.020000,-0.770921,0.016342,0.056735,0.809289,-0.001689,0.025475,-0.776816,0.087650,0.003985,0.775399,-0.076854,0.710528,-0.939305,1.617981,1.667037,-0.874608,3.049703,-0.344553,1.611107,-1.416690,-0.439853,0.221186,-0.048134
0.144000,0.019909,0.034344,0.293387,0.954324,0.004101,-0.017336,-0.298243,0.007926,0.054017,-0.004195,-0.794213,0.546090,-0.501825,0.021015,-0.772268,0.019113,0.059247,0.807554,0.004894,0.025228,-0.773774,0.085005,0.003557,0.775540,-0.076795,0.507480,-0.673638,1.385633,1.256128,-0.867417,3.291896,-0.123692,1.520755,-1.322522,-0.213951,0.070547,0.029237
0.146000,0.019965,0.034505,0.293380,0.954198,0.003911,-0.016729,-0.298682,0.027974,0.080489,-0.003518,-0.369908,0.517640,-0.454725,0.021083,-0.773212,0.021479,0.059658,0.806914,0.006911,0.025879,-0.771090,0.082764,0.004022,0.775385,-0.076492,0.033688,-0.472023,1.182915,0.205523,-0.320102,1.008093,0.325409,1.342098,-1.120213,0.232729,-0.077700,0.151431
0.148000,0.020050,0.034698,0.293378,0.954081,0.003911,-0.016235,-0.299082,0.042086,0.096424,-0.001206,-0.154098,0.468545,-0.418752,0.020643,-0.773725,0.023245,0.058691,0.807150,0.005885,0.026991,-0.768719,0.080807,0.004949,0.775143,-0.076154,-0.219734,-0.256639,0.882851,-0.483475,0.117987,-0.512786,0.556075,1.185509,-0.978517,0.463116,-0.121013,0.169131
0.150000,0.020150,0.034898,0.293388,0.953970,0.003857,-0.015805,-0.299460,0.050033,0.099957,0.005233,-0.185555,0.390379,-0.394767,0.018758,-0.771635,0.010353,0.057611,0.807284,0.007038,0.028047,-0.766615,0.078978,0.005825,0.775049,-0.076012,-0.942352,1.045293,-6.445548,-0.540076,0.067045,0.576431,0.528217,1.051950,-0.914769,0.438137,-0.046902,0.071192
0.152000,0.020242,0.035079,0.293368,0.953856,0.003744,-0.015311,-0.299852,0.046079,0.090768,-0.010221,-0.261244,0.434363,-0.408231,0.017531,-0.770354,0.001719,0.057327,0.806957,0.011441,0.028911,-0.764410,0.077113,0.006523,0.774860,-0.075940,-0.613783,0.640108,-4.317025,-0.141949,-0.163466,2.201733,0.431627,1.102851,-0.932206,0.349133,-0.094509,0.035651
0.154000,0.020310,0.035224,0.293284,0.953735,0.003468,-0.014626,-0.300272,0.033885,0.072587,-0.042059,-0.474402,0.567690,-0.434983,0.018261,-0.771752,0.007385,0.058224,0.806749,0.015379,0.029276,-0.761816,0.075023,0.006744,0.774435,-0.075936,0.364881,-0.698764,2.832700,0.448586,-0.104187,1.968718,0.182616,1.296992,-1.044874,0.110432,-0.212630,0.002093
0.156000,0.020360,0.035338,0.293158,0.953614,0.002919,-0.013784,-0.300702,0.025368,0.056923,-0.062797,-0.782746,0.634501,-0.441341,0.020049,-0.773809,0.016286,0.060026,0.807038,0.016967,0.028975,-0.758989,0.072714,0.006313,0.773991,-0.076169,0.894095,-1.028393,4.450413,0.901100,0.144696,0.794276,-0.150556,1.413248,-1.154517,-0.215368,-0.221779,-0.116197
0.158000,0.020413,0.035444,0.293027,0.953496,0.002234,-0.012938,-0.301120,0.026595,0.052893,-0.065536,-0.912797,0.597515,-0.428085,0.022025,-0.775369,0.023633,0.062010,0.807443,0.018146,0.028403,-0.756290,0.070445,0.005615,0.773719,-0.076642,0.988004,-0.780134,3.673822,0.991910,0.202281,0.589430,-0.285850,1.349631,-1.134688,-0.349018,-0.136042,-0.236767
0.160000,0.020491,0.035569,0.292917,0.953383,0.001656,-0.012242,-0.301509,0.038825,0.062441,-0.055034,-0.765212,0.487645,-0.398804,0.023543,-0.776458,0.029318,0.063314,0.807550,0.020924,0.028161,-0.754050,0.068517,0.005230,0.773684,-0.077239,0.759308,-0.544676,2.842356,0.652090,0.053771,1.388990,-0.121261,1.120112,-0.964033,-0.192480,-0.017430,-0.298258
0.162000,0.020606,0.035731,0.292840,0.953280,0.001336,-0.011771,-0.301856,0.057249,0.081235,-0.038380,-0.451843,0.350954,-0.358157,0.024172,-0.777031,0.033251,0.063320,0.807350,0.025069,0.028626,-0.752416,0.067090,0.005505,0.773865,-0.077846,0.314397,-0.286454,1.966261,0.002952,-0.100069,2.072337,0.232660,0.817000,-0.713315,0.137070,0.090310,-0.303479
0.164000,0.020756,0.035930,0.292794,0.953192,0.001104,-0.011437,-0.302149,0.075032,0.099187,-0.023129,-0.324933,0.246981,-0.303875,0.021847,-0.773498,0.013442,0.062314,0.807322,0.027825,0.029391,-0.751159,0.065864,0.006075,0.774218,-0.078511,-1.162409,1.766615,-9.904246,-0.503164,-0.014123,1.378190,0.382334,0.628238,-0.612978,0.285323,0.176533,-0.332716
0.166000,0.020898,0.036114,0.292704,0.953085,0.000843,-0.010998,-0.302500,0.071314,0.092174,-0.044923,-0.385582,0.337942,-0.364665,0.021043,-0.771986,0.007065,0.061726,0.806958,0.032525,0.030069,-0.749537,0.064392,0.007219,0.775387,-0.081032,-0.402252,0.756188,-3.188539,-0.294238,-0.182134,2.350010,0.339378,0.810969,-0.736192,0.572024,0.584528,-1.260710
0.168000,0.021011,0.036267,0.292548,0.952966,0.000422,-0.010322,-0.302901,0.056274,0.076611,-0.077940,-0.610162,0.515170,-0.414008,0.022783,-0.773853,0.021109,0.062001,0.806755,0.035920,0.030264,-0.747266,0.062455,0.008039,0.776420,-0.083748,0.870214,-0.933722,7.021926,0.137826,-0.101313,1.697176,0.097224,1.135473,-0.968517,0.409653,0.516739,-1.357645
0.170000,0.021101,0.036376,0.292358,0.952841,-0.000486,-0.009453,-0.303322,0.045053,0.054365,-0.095109,-1.132380,0.551093,-0.430006,0.026037,-0.776205,0.037696,0.063363,0.806955,0.037569,0.029382,-0.744721,0.060131,0.007691,0.778057,-0.087136,1.626988,-1.175729,8.293648,0.681098,0.099693,0.824705,-0.440861,1.272528,-1.161851,-0.173533,0.818249,-1.694392
0.172000,0.021198,0.036479,0.292193,0.952724,-0.001704,-0.008584,-0.303711,0.048538,0.051619,-0.082746,-1.427680,0.458252,-0.394526,0.028063,-0.775395,0.036084,0.064819,0.807089,0.039785,0.027914,-0.742334,0.057676,0.006615,0.779907,-0.090560,1.012838,0.404611,-0.805916,0.727771,0.067389,1.107894,-0.733934,1.193830,-1.227571,-0.537986,0.924980,-1.711893
0.174000,0.021349,0.036619,0.292002,0.952606,-0.002500,-0.007890,-0.304093,0.075632,0.070080,-0.095077,-0.972992,0.418337,-0.391573,0.028831,-0.775306,0.035812,0.064842,0.806987,0.043470,0.027457,-0.740393,0.055786,0.007096,0.782950,-0.096088,0.383951,0.044746,-0.136320,0.011488,-0.051039,1.842419,-0.228605,0.970135,-0.945169,0.240203,1.521642,-2.763919
0.176000,0.021541,0.036800,0.291772,0.952499,-0.002830,-0.007263,-0.304441,0.095623,0.090013,-0.115151,-0.508125,0.497869,-0.359392,0.028102,-0.776244,0.037845,0.064165,0.807317,0.045290,0.027955,-0.738549,0.054216,0.008576,0.785612,-0.098371,-0.364186,-0.468846,1.016548,-0.338238,0.164689,0.910033,0.248933,0.922345,-0.784889,0.740037,1.331214,-1.141347
0.178000,0.021766,0.036977,0.291449,0.952383,-0.002956,-0.006659,-0.304818,0.112476,0.088974,-0.161334,-0.306418,0.536992,-0.392212,0.028110,-0.781110,0.055337,0.063436,0.808376,0.045276,0.028930,-0.736981,0.053202,0.011330,0.790467,-0.108687,0.003913,-2.433106,8.745972,-0.364675,0.529627,-0.006735,0.487490,0.783544,-0.507093,1.376942,2.427416,-5.157953
0.180000,0.021981,0.037118,0.291113,0.952275,-0.003463,-0.005975,-0.305164,0.107882,0.070400,-0.168049,-0.694586,0.497119,-0.356590,0.028459,-0.785802,0.067411,0.063685,0.809969,0.043938,0.029044,-0.735536,0.052140,0.012429,0.795301,-0.116698,0.174187,-2.345982,6.037051,0.124296,0.796421,-0.668969,0.057035,0.722668,-0.531129,0.549700,2.416843,-4.005754
0.182000,0.022193,0.037207,0.290745,0.952162,-0.004425,-0.005259,-0.305517,0.105870,0.044339,-0.184345,-1.136806,0.388793,-0.362443,0.030004,-0.791680,0.079421,0.065052,0.812149,0.041625,0.028251,-0.734472,0.051302,0.012454,0.802052,-0.130700,0.772910,-2.938989,6.004972,0.683742,1.090302,-1.156691,-0.396582,0.532165,-0.418815,0.012501,3.375492,-7.001091
0.184000,0.022411,0.037304,0.290405,0.952065,-0.005285,-0.004623,-0.305815,0.109130,0.048479,-0.170006,-1.015638,0.343182,-0.306123,0.030295,-0.796806,0.083496,0.066257,0.814274,0.039099,0.027626,-0.733589,0.050551,0.011573,0.807555,-0.137678,0.145188,-2.563162,2.037567,0.602242,1.062152,-1.263077,-0.312197,0.441337,-0.375236,-0.440794,2.751445,-3.488947
0.186000,0.022661,0.037426,0.290035,0.951959,-0.005662,-0.004174,-0.306144,0.124672,0.061102,-0.185074,-0.498466,0.313858,-0.341786,0.030433,-0.804969,0.099700,0.066636,0.816389,0.036512,0.028123,-0.733058,0.050396,0.012401,0.814555,-0.150995,0.068917,-4.081554,8.102021,0.189692,1.057778,-1.293505,0.248357,0.265414,-0.077506,0.413926,3.500295,-6.658549
0.188000,0.022916,0.037574,0.289699,0.951858,-0.005724,-0.003865,-0.306461,0.127928,0.073939,-0.167904,-0.154901,0.276866,-0.330927,0.029504,-0.813205,0.114736,0.066439,0.818210,0.034246,0.029299,-0.732623,0.050358,0.013441,0.820874,-0.161274,-0.464561,-4.118129,7.518048,-0.098361,0.910335,-1.132824,0.588200,0.217891,-0.019335,0.520182,3.159295,-5.139377
0.190000,0.023169,0.037711,0.289365,0.951740,-0.005784,-0.003661,-0.306828,0.126314,0.068605,-0.166837,-0.122285,0.177072,-0.383598,0.029335,-0.823078,0.136199,0.066390,0.820018,0.032225,0.030595,-0.732431,0.050565,0.014993,0.829030,-0.179428,-0.084510,-4.936347,10.731286,-0.024711,0.904055,-1.010750,0.647887,0.095830,0.103581,0.776245,4.077884,-9.077180
0.192000,0.023397,0.037801,0.289032,0.951601,-0.006231,-0.003463,-0.307254,0.113972,0.045153,-0.166568,-0.488075,0.052706,-0.445392,0.031039,-0.834668,0.163757,0.067307,0.821999,0.030271,0.031179,-0.732417,0.050814,0.016068,0.839519,-0.206965,0.852432,-5.795111,13.779045,0.458523,0.990552,-0.976890,0.291779,0.006766,0.124734,0.537194,5.244481,-13.768144
0.194000,0.023592,0.037885,0.288794,0.951479,-0.006846,-0.003262,-0.307619,0.097696,0.041524,-0.118761,-0.648549,0.004755,-0.381821,0.031527,-0.843806,0.176844,0.068540,0.823585,0.028790,0.031287,-0.732181,0.050521,0.014622,0.847396,-0.220970,0.243818,-4.568768,6.543667,0.616567,0.792742,-0.740452,0.053961,0.118358,-0.146908,-0.722926,3.938377,-7.002494
0.196000,0.023767,0.037999,0.288660,0.951378,-0.007269,-0.003108,-0.307924,0.087389,0.057011,-0.066951,-0.452066,0.017941,-0.318356,0.029729,-0.850207,0.176593,0.069336,0.824567,0.027923,0.031673,-0.731572,0.049677,0.011594,0.851946,-0.219519,-0.899098,-3.200710,-0.125278,0.397823,0.491040,-0.433457,0.193412,0.304062,-0.421699,-1.513909,2.275113,0.725517
0.198000,0.023942,0.038131,0.288504,0.951243,-0.007414,-0.003060,-0.308339,0.087151,0.066065,-0.078281,-0.154984,0.003352,-0.436270,0.029085,-0.859557,0.194504,0.069776,0.825516,0.027250,0.032829,-0.730939,0.049069,0.011073,0.859230,-0.232817,-0.321842,-4.674784,8.955232,0.220241,0.474537,-0.336758,0.577836,0.316773,-0.304351,-0.260361,3.641953,-6.649268
0.200000,0.024102,0.038270,0.288355,0.951080,-0.007497,-0.003075,-0.308839,0.080411,0.069810,-0.074211,-0.076776,-0.036595,-0.525300,0.029233,-0.870085,0.221478,0.070236,0.826390,0.026858,0.034253,-0.730225,0.048467,0.012023,0.868400,-0.256645,0.074123,-5.264017,13.487128,0.229922,0.436955,-0.195806,0.711974,0.357142,-0.300905,0.474960,4.585385,-11.913665
0.202000,0.024247,0.038402,0.288231,0.950902,-0.007653,-0.003138,-0.309381,0.072502,0.065661,-0.062026,-0.131752,-0.104116,-0.570550,0.029926,-0.881176,0.251424,0.070916,0.827184,0.026806,0.035589,-0.729541,0.047852,0.013199,0.878613,-0.285225,0.346165,-5.545331,14.973176,0.339979,0.397346,-0.026096,0.667741,0.341666,-0.307504,0.587704,5.106309,-14.290022
0.204000,0.024368,0.038530,0.288207,0.950745,-0.007913,-0.003215,-0.309857,0.060444,0.064311,-0.012416,-0.226875,-0.150664,-0.500603,0.029005,-0.889641,0.265645,0.071708,0.827565,0.027355,0.036565,-0.728724,0.046799,0.011994,0.886131,-0.299166,-0.460224,-4.232576,7.110107,0.395878,0.190372,0.274666,0.488205,0.408572,-0.526558,-0.602199,3.759010,-6.970594
0.206000,0.024471,0.038646,0.288225,0.950590,-0.008272,-0.003306,-0.310322,0.051284,0.057871,0.009211,-0.315347,-0.194335,-0.490135,0.028024,-0.898006,0.277194,0.072700,0.827808,0.028199,0.037284,-0.727899,0.045610,0.009694,0.893041,-0.308966,-0.490651,-4.182744,5.774600,0.496024,0.121338,0.421950,0.359593,0.412485,-0.594438,-1.150150,3.454975,-4.899882
0.208000,0.024562,0.038761,0.288264,0.950426,-0.008611,-0.003432,-0.310811,0.045713,0.057463,0.019302,-0.286599,-0.222035,-0.515672,0.027299,-0.906964,0.291600,0.073691,0.827976,0.029250,0.038059,-0.727066,0.044415,0.007572,0.900272,-0.320506,-0.362286,-4.478798,7.203100,0.495762,0.084014,0.525685,0.387411,0.416804,-0.597455,-1.060770,3.615574,-5.770248
0.210000,0.024654,0.038881,0.288283,0.950243,-0.008835,-0.003628,-0.311362,0.045649,0.059982,0.009726,-0.155064,-0.251670,-0.581011,0.027459,-0.917926,0.316685,0.074523,0.828216,0.030370,0.039178,-0.726354,0.043502,0.007006,0.909325,-0.342156,0.079881,-5.481007,12.542409,0.415829,0.120201,0.559573,0.559423,0.355655,-0.456636,-0.283130,4.526355,-10.824962
0.212000,0.024741,0.039011,0.288326,0.950061,-0.008990,-0.003867,-0.311911,0.043883,0.064927,0.021351,-0.076063,-0.271286,-0.579607,0.027019,-0.928688,0.339918,0.075178,0.828359,0.031670,0.040437,-0.725661,0.042600,0.006544,0.918205,-0.363548,-0.220216,-5.381261,11.616719,0.327352,0.071598,0.650054,0.629562,0.346803,-0.450985,-0.231014,4.439978,-10.695757
0.214000,0.024821,0.039145,0.288400,0.949890,-0.009138,-0.004115,-0.312424,0.039866,0.067234,0.037141,-0.067279,-0.277750,-0.542609,0.025574,-0.938742,0.357501,0.075749,0.828395,0.033066,0.041631,-0.724949,0.041612,0.005198,0.925966,-0.379897,-0.722612,-5.026926,8.791363,0.285653,0.017571,0.698362,0.596908,0.356046,-0.493730,-0.673323,3.880460,-8.174807
0.216000,0.024885,0.039278,0.288509,0.949729,-0.009369,-0.004329,-0.312903,0.031937,0.066222,0.054350,-0.155951,-0.271618,-0.507004,0.023348,-0.947830,0.369041,0.076441,0.828347,0.034473,0.042555,-0.724115,0.040403,0.002664,0.932429,-0.390166,-1.112752,-4.544129,5.770099,0.346014,-0.023546,0.703155,0.461871,0.416897,-0.604429,-1.266603,3.231474,-5.134283
0.218000,0.024930,0.039404,0.288621,0.949565,-0.009709,-0.004495,-0.313387,0.022494,0.063037,0.056098,-0.274214,-0.260003,-0.510835,0.021389,-0.957047,0.382236,0.077382,0.828364,0.035699,0.043207,-0.723167,0.039084,-0.000207,0.938668,-0.401317,-0.979730,-4.608107,6.597191,0.470502,0.008314,0.613225,0.326254,0.474099,-0.659625,-1.435795,3.119571,-5.575858
0.220000,0.024961,0.039530,0.288727,0.949391,-0.010093,-0.004636,-0.313901,0.015725,0.063024,0.052805,-0.325317,-0.249768,-0.541922,0.019969,-0.966684,0.400013,0.078466,0.828460,0.036777,0.043780,-0.722119,0.037731,-0.002509,0.945401,-0.416914,-0.709612,-4.818902,8.888804,0.542107,0.047900,0.538804,0.286497,0.523561,-0.676704,-1.151033,3.366664,-7.798188
0.222000,0.024987,0.039669,0.288837,0.949218,-0.010405,-0.004782,-0.314411,0.012947,0.069453,0.055383,-0.253878,-0.232229,-0.538794,0.018065,-0.976030,0.417946,0.079382,0.828518,0.037815,0.044485,-0.721016,0.036377,-0.004553,0.951742,-0.432771,-0.952295,-4.672548,8.966342,0.458123,0.029079,0.518960,0.352281,0.551916,-0.676671,-1.021838,3.170326,-7.928682
0.224000,0.025010,0.039817,0.288964,0.949049,-0.010671,-0.004936,-0.314908,0.011154,0.074228,0.063286,-0.208704,-0.226216,-0.524829,0.015474,-0.984667,0.432969,0.080164,0.828505,0.038901,0.045251,-0.719881,0.034991,-0.006639,0.957499,-0.446360,-1.295493,-4.318925,7.511429,0.390629,-0.006497,0.542984,0.383365,0.567079,-0.693348,-1.042848,2.878592,-6.794446
0.226000,0.025025,0.039972,0.289115,0.948894,-0.010927,-0.005086,-0.315364,0.007675,0.077630,0.075702,-0.199671,-0.218216,-0.482031,0.011843,-0.992095,0.441946,0.080847,0.828383,0.040035,0.045956,-0.718720,0.033526,-0.009543,0.961869,-0.454036,-1.815295,-3.713992,4.488509,0.341507,-0.060948,0.567304,0.352181,0.580699,-0.732514,-1.452095,2.184991,-3.837872
0.228000,0.025028,0.040119,0.289269,0.948735,-0.011290,-0.005213,-0.315828,0.001544,0.073413,0.076795,-0.308364,-0.231363,-0.489815,0.008750,-0.999427,0.451996,0.081758,0.828309,0.041129,0.046425,-0.717563,0.032051,-0.012453,0.966282,-0.462670,-1.546637,-3.665965,5.024944,0.455535,-0.036928,0.546921,0.234464,0.578458,-0.737086,-1.455194,2.206361,-4.316985
0.230000,0.025019,0.040263,0.289429,0.948578,-0.011723,-0.005322,-0.316280,-0.004598,0.071988,0.079987,-0.380455,-0.236041,-0.477941,0.005769,-1.006266,0.461387,0.082792,0.828234,0.042188,0.046706,-0.716406,0.030563,-0.015655,0.970113,-0.470471,-1.490534,-3.419329,4.695755,0.517309,-0.037444,0.529711,0.140802,0.578510,-0.744134,-1.601053,1.915719,-3.900434
0.232000,0.025004,0.040406,0.289582,0.948415,-0.012178,-0.005443,-0.316751,-0.007414,0.071274,0.076341,-0.398020,-0.253247,-0.496689,0.003481,-1.013325,0.474139,0.083882,0.828202,0.043253,0.046968,-0.715315,0.029185,-0.018219,0.974325,-0.481617,-1.144065,-3.529454,6.376104,0.544531,-0.016230,0.532290,0.130867,0.545380,-0.689249,-1.281739,2.106035,-5.573116
0.234000,0.024989,0.040562,0.289754,0.948267,-0.012543,-0.005590,-0.317176,-0.007380,0.078170,0.086042,-0.302903,-0.251029,-0.450517,0.000091,-1.019140,0.481332,0.084688,0.828029,0.044435,0.047354,-0.714275,0.027837,-0.021253,0.977113,-0.487589,-1.694871,-2.907494,3.596348,0.403360,-0.086271,0.590973,0.192786,0.520418,-0.673727,-1.516929,1.393701,-2.986122
0.236000,0.024974,0.040722,0.289927,0.948121,-0.012880,-0.005763,-0.317596,-0.007711,0.080118,0.086642,-0.269593,-0.266006,-0.443979,-0.003242,-1.024676,0.488425,0.085403,0.827834,0.045683,0.047795,-0.713323,0.026596,-0.024016,0.979679,-0.493666,-1.666483,-2.767994,3.546663,0.357631,-0.097589,0.623905,0.220505,0.475606,-0.620787,-1.381536,1.283231,-3.038686
0.238000,0.024954,0.040890,0.290117,0.947990,-0.013204,-0.005938,-0.317970,-0.010107,0.083596,0.095135,-0.255321,-0.264980,-0.396803,-0.007386,-1.028931,0.490212,0.086006,0.827541,0.046979,0.048189,-0.712399,0.025338,-0.027506,0.980780,-0.494603,-2.072020,-2.127693,0.893263,0.301379,-0.146775,0.648315,0.197191,0.462372,-0.628906,-1.745210,0.550439,-0.468418
0.240000,0.024925,0.041049,0.290294,0.947852,-0.013620,-0.006104,-0.318362,-0.014519,0.079748,0.088463,-0.345600,-0.285587,-0.415166,-0.010436,-1.033445,0.496088,0.086817,0.827341,0.048208,0.048416,-0.711534,0.024167,-0.030508,0.982277,-0.499436,-1.524795,-2.256684,2.937834,0.405201,-0.099938,0.614472,0.113732,0.432220,-0.585284,-1.501006,0.748750,-2.416211
0.242000,0.024890,0.041214,0.290481,0.947724,-0.014046,-0.006261,-0.318719,-0.017479,0.082633,0.093676,-0.357436,-0.280584,-0.379328,-0.014000,-1.036822,0.498215,0.087584,0.827083,0.049425,0.048567,-0.710660,0.022956,-0.034025,0.982578,-0.500701,-1.782269,-1.688788,1.063745,0.383789,-0.128777,0.608206,0.075314,0.437017,-0.605728,-1.758146,0.150106,-0.632716
0.244000,0.024853,0.041380,0.290657,0.947593,-0.014484,-0.006427,-0.319088,-0.018328,0.082967,0.087850,-0.366212,-0.292485,-0.390459,-0.016944,-1.040269,0.503064,0.088374,0.826878,0.050608,0.048722,-0.709844,0.021840,-0.036936,0.983133,-0.504657,-1.472035,-1.723522,2.424296,0.394905,-0.102602,0.591387,0.077611,0.408175,-0.557709,-1.455830,0.277781,-1.977847
0.246000,0.024817,0.041559,0.290850,0.947478,-0.014866,-0.006596,-0.319407,-0.017982,0.089536,0.096277,-0.312168,-0.277536,-0.339490,-0.021058,-1.042203,0.501362,0.088956,0.826560,0.051818,0.048927,-0.709002,0.020656,-0.040481,0.982171,-0.502527,-2.057108,-0.966843,-0.851018,0.290938,-0.158900,0.604987,0.102222,0.420743,-0.592069,-1.772492,-0.481084,1.065060
0.248000,0.024780,0.041738,0.291030,0.947359,-0.015275,-0.006764,-0.319737,-0.018568,0.089278,0.090024,-0.337902,-0.286272,-0.350423,-0.024526,-1.044223,0.502127,0.089594,0.826308,0.052967,0.049105,-0.708198,0.019538,-0.043477,0.981503,-0.502786,-1.733667,-1.010072,0.382427,0.319083,-0.126353,0.574922,0.089013,0.402047,-0.558980,-1.497766,-0.333788,-0.129505
0.250000,0.024741,0.041924,0.291218,0.947251,-0.015677,-0.006919,-0.320034,-0.019455,0.093172,0.094084,-0.334927,-0.271804,-0.315221,-0.028613,-1.045132,0.498770,0.090157,0.826004,0.054075,0.049250,-0.707350,0.018344,-0.046916,0.979755,-0.498922,-2.043802,-0.454501,-1.678467,0.281503,-0.151872,0.553998,0.072523,0.424275,-0.597055,-1.719863,-0.874323,1.931669
0.252000,0.024699,0.042106,0.291387,0.947135,-0.016145,-0.007064,-0.320351,-0.020877,0.090828,0.084324,-0.401065,-0.282677,-0.336883,-0.031659,-1.046446,0.499559,0.090878,0.825813,0.055072,0.049301,-0.706534,0.017220,-0.049706,0.978621,-0.498966,-1.522972,-0.656851,0.394660,0.360484,-0.095439,0.498505,0.025811,0.407673,-0.561895,-1.394805,-0.567085,-0.021718
0.254000,0.024658,0.042293,0.291560,0.947029,-0.016621,-0.007198,-0.320636,-0.020728,0.093820,0.086571,-0.410855,-0.275379,-0.301821,-0.035287,-1.046778,0.496143,0.091548,0.825594,0.056020,0.049299,-0.705712,0.016054,-0.052959,0.976580,-0.495340,-1.813951,-0.166264,-1.708089,0.335116,-0.109249,0.473905,-0.000978,0.410944,-0.582961,-1.626397,-1.020140,1.813154
0.256000,0.024619,0.042481,0.291716,0.946921,-0.017108,-0.007338,-0.320926,-0.019313,0.093942,0.078157,-0.420591,-0.285044,-0.309025,-0.038378,-1.047348,0.494900,0.092236,0.825450,0.056898,0.049307,-0.704960,0.014992,-0.055735,0.974907,-0.493885,-1.545159,-0.284748,-0.621534,0.343872,-0.072312,0.439147,0.003659,0.376390,-0.530972,-1.387994,-0.836815,0.727271
0.258000,0.024587,0.042680,0.291873,0.946825,-0.017531,-0.007494,-0.321183,-0.016157,0.099355,0.078577,-0.353555,-0.279394,-0.273101,-0.042221,-1.047157,0.489947,0.092716,0.825252,0.057779,0.049423,-0.704253,0.013972,-0.058814,0.972431,-0.488827,-1.921868,0.095176,-2.476269,0.240190,-0.098862,0.440471,0.058155,0.353375,-0.510203,-1.539686,-1.237782,2.528785
0.260000,0.024557,0.042878,0.292011,0.946726,-0.017965,-0.007659,-0.321446,-0.014623,0.099079,0.068810,-0.362133,-0.291644,-0.281025,-0.045481,-1.047367,0.487704,0.093218,0.825131,0.058595,0.049552,-0.703632,0.013079,-0.061476,0.970395,-0.486171,-1.629611,-0.104635,-1.121503,0.250626,-0.060392,0.407623,0.064367,0.310480,-0.446386,-1.330718,-1.017902,1.328234
0.262000,0.024532,0.043080,0.292138,0.946634,-0.018389,-0.007832,-0.321691,-0.012558,0.100918,0.063775,-0.349504,-0.296020,-0.261551,-0.048950,-1.047376,0.484454,0.093655,0.825028,0.059362,0.049699,-0.703084,0.012270,-0.064328,0.968112,-0.482366,-1.734582,-0.004434,-1.625274,0.218441,-0.051682,0.383761,0.073758,0.274053,-0.404659,-1.426377,-1.141710,1.902322
0.264000,0.024510,0.043279,0.292247,0.946538,-0.018857,-0.008006,-0.321940,-0.011317,0.099218,0.054083,-0.390635,-0.312205,-0.265789,-0.051938,-1.047770,0.483119,0.094175,0.825013,0.060053,0.049788,-0.702627,0.011576,-0.067022,0.966283,-0.480535,-1.494328,-0.197326,-0.667162,0.260059,-0.007434,0.345251,0.044250,0.228227,-0.347205,-1.346778,-0.914567,0.915840
0.266000,0.024492,0.043476,0.292337,0.946446,-0.019346,-0.008190,-0.322179,-0.008630,0.098728,0.045370,-0.407064,-0.327192,-0.255075,-0.054975,-1.048365,0.481744,0.094705,0.825063,0.060677,0.049852,-0.702285,0.011009,-0.069890,0.964658,-0.479005,-1.518536,-0.297554,-0.687399,0.265230,0.025074,0.311968,0.031923,0.171244,-0.283054,-1.434177,-0.812502,0.764647
0.268000,0.024482,0.043675,0.292412,0.946355,-0.019824,-0.008387,-0.322411,-0.005126,0.099455,0.037341,-0.392907,-0.336610,-0.248658,-0.058089,-1.049235,0.480588,0.095190,0.825159,0.061257,0.049960,-0.702033,0.010557,-0.072777,0.963296,-0.477701,-1.556853,-0.434853,-0.578224,0.242212,0.048048,0.290122,0.054293,0.125974,-0.226046,-1.443433,-0.680776,0.652332
0.270000,0.024476,0.043884,0.292490,0.946273,-0.020243,-0.008582,-0.322621,-0.003065,0.104764,0.039120,-0.337004,-0.316694,-0.225675,-0.061879,-1.049601,0.476484,0.095518,0.825182,0.061843,0.050171,-0.701715,0.010031,-0.075914,0.961336,-0.472906,-1.894876,-0.182844,-2.051854,0.163979,0.011587,0.292890,0.105631,0.159029,-0.263229,-1.568243,-0.979937,2.397470
0.272000,0.024468,0.044097,0.292564,0.946188,-0.020684,-0.008758,-0.322836,-0.003908,0.106407,0.036755,-0.363934,-0.304736,-0.230782,-0.065520,-1.049939,0.472800,0.095902,0.825210,0.062378,0.050352,-0.701305,0.009415,-0.078914,0.959442,-0.468445,-1.820526,-0.169199,-1.842373,0.192135,0.013557,0.267644,0.090354,0.204922,-0.307708,-1.500035,-0.947381,2.230405
0.274000,0.024452,0.044319,0.292655,0.946108,-0.021163,-0.008886,-0.323038,-0.008206,0.110692,0.045754,-0.415346,-0.272446,-0.215646,-0.069520,-1.049204,0.465453,0.096358,0.825138,0.062900,0.050417,-0.700652,0.008496,-0.082208,0.956662,-0.460690,-1.999874,0.367667,-3.673492,0.228178,-0.035711,0.261237,0.032502,0.326363,-0.459809,-1.647365,-1.390050,3.877298
0.276000,0.024425,0.044542,0.292746,0.946016,-0.021719,-0.008972,-0.323266,-0.013487,0.111690,0.045147,-0.502376,-0.256798,-0.242425,-0.072733,-1.048406,0.460595,0.097024,0.825076,0.063364,0.050352,-0.699809,0.007387,-0.084986,0.954115,-0.455775,-1.606861,0.398643,-2.428922,0.333102,-0.031044,0.232029,-0.032592,0.421686,-0.554504,-1.388841,-1.273166,2.457904
0.278000,0.024388,0.044781,0.292864,0.945930,-0.022264,-0.009020,-0.323479,-0.018249,0.119383,0.059085,-0.503836,-0.217940,-0.225453,-0.076354,-1.046187,0.451681,0.097654,0.824844,0.063893,0.050266,-0.698689,0.005944,-0.087858,0.950339,-0.446828,-1.810091,1.109837,-4.456977,0.314952,-0.116067,0.264485,-0.042955,0.559931,-0.721638,-1.436158,-1.888058,4.473160
0.280000,0.024345,0.045027,0.292985,0.945837,-0.022808,-0.009057,-0.323714,-0.021536,0.123356,0.060571,-0.506993,-0.206486,-0.248557,-0.079240,-1.043842,0.445305,0.098315,0.824566,0.064462,0.050213,-0.697439,0.004393,-0.089987,0.946616,-0.440097,-1.443140,1.172573,-3.187873,0.330330,-0.138793,0.284266,-0.026488,0.624885,-0.775339,-1.064460,-1.861366,3.365803
0.282000,0.024300,0.045294,0.293138,0.945754,-0.023266,-0.009096,-0.323921,-0.022891,0.133269,0.076639,-0.424461,-0.181516,-0.218214,-0.082736,-1.039915,0.433783,0.098744,0.824071,0.065207,0.050290,-0.696039,0.002641,-0.092165,0.941411,-0.427752,-1.748151,1.963388,-5.761228,0.214411,-0.247598,0.372744,0.038525,0.700299,-0.876055,-1.088755,-2.602919,6.172189
0.284000,0.024249,0.045561,0.293289,0.945663,-0.023772,-0.009143,-0.324149,-0.025107,0.133326,0.075459,-0.466899,-0.203144,-0.241600,-0.085112,-1.036069,0.425221,0.099282,0.823590,0.066022,0.050316,-0.694672,0.000934,-0.093639,0.936550,-0.418613,-1.187823,1.922863,-4.281010,0.268895,-0.240723,0.407050,0.012855,0.683159,-0.853234,-0.737280,-2.430130,4.569461
0.286000,0.024198,0.045837,0.293465,0.945583,-0.024272,-0.009205,-0.324343,-0.025724,0.138004,0.088073,-0.457070,-0.217256,-0.206906,-0.087716,-1.030768,0.411383,0.099725,0.822975,0.067012,0.050314,-0.693344,-0.000810,-0.095361,0.930484,-0.404810,-1.302254,2.650587,-6.918758,0.221900,-0.307407,0.495434,-0.001015,0.664433,-0.872012,-0.860962,-3.032951,6.901636
0.288000,0.024147,0.046109,0.293629,0.945495,-0.024816,-0.009297,-0.324556,-0.025573,0.136385,0.081794,-0.488171,-0.259667,-0.227374,-0.089084,-1.025794,0.401226,0.100250,0.822430,0.068060,0.050281,-0.692198,-0.002338,-0.096390,0.924979,-0.394853,-0.683786,2.487055,-5.078473,0.262166,-0.272290,0.523535,-0.016520,0.572740,-0.764346,-0.514194,-2.752928,4.978636
0.290000,0.024101,0.046396,0.293810,0.945423,-0.025275,-0.009431,-0.324727,-0.022961,0.143432,0.090713,-0.394413,-0.271555,-0.183779,-0.090954,-1.019451,0.386067,0.100497,0.821756,0.069266,0.050383,-0.691163,-0.003788,-0.097608,0.918159,-0.379366,-0.935120,3.171265,-7.579489,0.123698,-0.337296,0.603212,0.051241,0.517478,-0.725033,-0.608965,-3.409826,7.743450
0.292000,0.024060,0.046683,0.293972,0.945346,-0.025729,-0.009604,-0.324909,-0.020635,0.143531,0.080856,-0.376313,-0.307452,-0.197537,-0.091899,-1.013450,0.374498,0.100715,0.821169,0.070474,0.050552,-0.690339,-0.004964,-0.098142,0.911833,-0.367151,-0.472526,3.000628,-5.784696,0.109031,-0.293420,0.604130,0.084529,0.411916,-0.587920,-0.267060,-3.162734,6.107211
0.294000,0.024020,0.046980,0.294146,0.945284,-0.026170,-0.009789,-0.325051,-0.019725,0.148371,0.087204,-0.359061,-0.315123,-0.154396,-0.093319,-1.006011,0.357547,0.100813,0.820517,0.071721,0.050706,-0.689577,-0.006127,-0.099058,0.904270,-0.349783,-0.709884,3.719304,-8.475506,0.048905,-0.326096,0.623451,0.077003,0.381169,-0.581374,-0.457993,-3.781571,8.684338
0.296000,0.023981,0.047273,0.294295,0.945213,-0.026675,-0.009982,-0.325210,-0.019400,0.146326,0.074581,-0.418714,-0.342548,-0.173523,-0.093755,-0.998917,0.344209,0.101048,0.820017,0.072842,0.050781,-0.688950,-0.007103,-0.099423,0.897360,-0.336473,-0.218062,3.547278,-6.669095,0.117656,-0.249740,0.560592,0.037306,0.313261,-0.487839,-0.182746,-3.454988,6.655111
0.298000,0.023942,0.047575,0.294452,0.945153,-0.027185,-0.010163,-0.325335,-0.019644,0.151020,0.078412,-0.426086,-0.335071,-0.137512,-0.094634,-0.990505,0.326148,0.101227,0.819484,0.073910,0.050805,-0.688300,-0.008141,-0.100137,0.889315,-0.318574,-0.439660,4.206160,-9.030457,0.089501,-0.266668,0.533638,0.012253,0.325211,-0.519037,-0.356982,-4.022532,8.949343
0.300000,0.023905,0.047878,0.294582,0.945086,-0.027708,-0.010348,-0.325480,-0.018548,0.151551,0.064710,-0.437353,-0.340696,-0.158454,-0.094780,-0.982528,0.311969,0.101451,0.819085,0.074812,0.050858,-0.687707,-0.009043,-0.100207,0.881847,-0.304226,-0.072795,3.988312,-7.089157,0.111977,-0.199560,0.451406,0.026149,0.296326,-0.451185,-0.034783,-3.734329,7.173899
0.302000,0.023871,0.048197,0.294716,0.945032,-0.028158,-0.010532,-0.325594,-0.016758,0.159411,0.067044,-0.367882,-0.318667,-0.126075,-0.095583,-0.973439,0.293700,0.101470,0.818623,0.075670,0.051029,-0.687058,-0.010003,-0.100394,0.873266,-0.285163,-0.401504,4.544712,-9.134897,0.009295,-0.231014,0.429032,0.085598,0.324525,-0.480135,-0.093831,-4.290331,9.531322
0.304000,0.023840,0.048515,0.294823,0.944969,-0.028642,-0.010714,-0.325729,-0.015577,0.158973,0.053513,-0.401149,-0.325591,-0.147771,-0.095719,-0.964818,0.278707,0.101580,0.818300,0.076365,0.051187,-0.686457,-0.010852,-0.100040,0.865340,-0.269584,-0.068139,4.310056,-7.496408,0.054979,-0.161415,0.347269,0.078840,0.300427,-0.424435,0.177082,-3.963138,7.789880
0.306000,0.023809,0.048838,0.294932,0.944912,-0.029156,-0.010878,-0.325840,-0.015651,0.161915,0.054701,-0.435588,-0.320077,-0.123117,-0.096171,-0.955273,0.259701,0.101709,0.817970,0.076994,0.051260,-0.685819,-0.011776,-0.100000,0.856647,-0.250552,-0.225822,4.772677,-9.502678,0.064740,-0.164890,0.314541,0.036829,0.319132,-0.462028,0.020345,-4.346359,9.515651
0.308000,0.023779,0.049158,0.295015,0.944847,-0.029728,-0.011035,-0.325973,-0.014868,0.159836,0.041581,-0.492716,-0.331774,-0.145169,-0.095925,-0.946299,0.243804,0.101983,0.817780,0.077477,0.051270,-0.685237,-0.012595,-0.099574,0.848657,-0.234857,0.122803,4.487232,-7.948871,0.136777,-0.094991,0.241545,0.004801,0.291017,-0.409481,0.212564,-3.994809,7.847817
0.310000,0.023753,0.049487,0.295097,0.944789,-0.030264,-0.011195,-0.326088,-0.013174,0.164431,0.040936,-0.456976,-0.322693,-0.126474,-0.096028,-0.936777,0.225374,0.102147,0.817558,0.077939,0.051348,-0.684636,-0.013432,-0.099268,0.840024,-0.216031,-0.051252,4.760901,-9.214624,0.082201,-0.111031,0.230958,0.038800,0.300367,-0.418572,0.153378,-4.316760,9.412837
0.312000,0.023732,0.049817,0.295155,0.944724,-0.030791,-0.011366,-0.326220,-0.010532,0.164838,0.028922,-0.445977,-0.331143,-0.144505,-0.095731,-0.927851,0.209767,0.102312,0.817426,0.078320,0.051496,-0.684105,-0.014135,-0.098548,0.831974,-0.199727,0.148534,4.462812,-7.803640,0.082415,-0.066051,0.190347,0.074454,0.265528,-0.351489,0.360080,-4.024817,8.151896
0.314000,0.023715,0.050152,0.295209,0.944663,-0.031309,-0.011546,-0.326340,-0.008635,0.167846,0.027087,-0.434100,-0.335161,-0.132723,-0.095686,-0.918554,0.192029,0.102425,0.817282,0.078704,0.051676,-0.683595,-0.014823,-0.097945,0.823598,-0.181528,0.022240,4.648767,-8.869171,0.056650,-0.072009,0.192040,0.089923,0.255301,-0.343569,0.301483,-4.188133,9.099433
0.316000,0.023701,0.050486,0.295243,0.944596,-0.031864,-0.011730,-0.326474,-0.006921,0.166620,0.016896,-0.467300,-0.352241,-0.148161,-0.095287,-0.909729,0.176135,0.102624,0.817229,0.079025,0.051832,-0.683160,-0.015400,-0.097162,0.815814,-0.165658,0.199616,4.412406,-7.947098,0.099392,-0.026311,0.160620,0.078011,0.217340,-0.288641,0.391220,-3.891885,7.935248
0.318000,0.023689,0.050821,0.295270,0.944529,-0.032440,-0.011916,-0.326605,-0.005916,0.167501,0.013471,-0.487364,-0.360260,-0.145330,-0.094936,-0.900822,0.159322,0.102853,0.817193,0.079333,0.051963,-0.682745,-0.015961,-0.096525,0.807979,-0.148956,0.175288,4.453522,-8.406204,0.114649,-0.018002,0.154079,0.065530,0.207349,-0.280588,0.318365,-3.917700,8.351129
0.320000,0.023681,0.051156,0.295280,0.944457,-0.033018,-0.012110,-0.326747,-0.004061,0.167806,0.005120,-0.486573,-0.368482,-0.156456,-0.094420,-0.892375,0.144176,0.103095,0.817211,0.079599,0.052132,-0.682377,-0.016438,-0.095784,0.800533,-0.133514,0.257971,4.223521,-7.573299,0.120841,0.009075,0.132973,0.084145,0.184411,-0.238634,0.370918,-3.722866,7.720587
0.322000,0.023678,0.051496,0.295280,0.944385,-0.033568,-0.012318,-0.326893,-0.001554,0.169960,-0.000083,-0.455555,-0.371842,-0.161866,-0.093988,-0.884177,0.129559,0.103277,0.817240,0.079867,0.052391,-0.682034,-0.016858,-0.094970,0.793275,-0.118091,0.216344,4.098685,-7.308185,0.090851,0.014287,0.133753,0.129848,0.171366,-0.209984,0.406597,-3.629066,7.711513
0.324000,0.023679,0.051838,0.295268,0.944309,-0.034122,-0.012534,-0.327045,0.000484,0.170797,-0.005867,-0.456904,-0.381183,-0.168803,-0.093581,-0.876261,0.115434,0.103465,0.817303,0.080119,0.052679,-0.681731,-0.017217,-0.094146,0.786346,-0.103401,0.203336,3.958035,-7.062797,0.093977,0.031318,0.126214,0.143749,0.151617,-0.179463,0.412096,-3.464218,7.345384
0.326000,0.023682,0.052172,0.295240,0.944222,-0.034779,-0.012749,-0.327219,0.001931,0.166914,-0.014418,-0.555064,-0.412950,-0.191555,-0.092845,-0.868822,0.102433,0.103873,0.817482,0.080332,0.052824,-0.681511,-0.017498,-0.093544,0.781262,-0.093266,0.368066,3.719888,-6.500478,0.204171,0.089669,0.106426,0.072584,0.109988,-0.140273,0.301256,-2.542025,5.067288
0.328000,0.023692,0.052517,0.295206,0.944138,-0.035345,-0.012979,-0.327391,0.005024,0.172691,-0.016570,-0.464752,-0.396736,-0.191319,-0.092517,-0.861581,0.089357,0.104091,0.817616,0.080558,0.053174,-0.681244,-0.017785,-0.092857,0.777518,-0.085819,0.163921,3.620101,-6.537697,0.108822,0.066749,0.112868,0.174767,0.133129,-0.143440,0.343160,-1.872039,3.723626
0.330000,0.023708,0.052884,0.295170,0.944066,-0.035651,-0.013221,-0.327557,0.007689,0.183599,-0.018068,-0.214021,-0.324550,-0.184574,-0.092663,-0.855249,0.079568,0.103812,0.817602,0.080763,0.054023,-0.680785,-0.018144,-0.091761,0.774546,-0.080213,-0.072964,3.166096,-4.894418,-0.139461,-0.006681,0.102670,0.424822,0.229676,-0.179568,0.547968,-1.486355,2.803007
0.332000,0.023717,0.053278,0.295158,0.944016,-0.035714,-0.013427,-0.327686,0.004365,0.196997,-0.005924,0.004307,-0.210802,-0.144552,-0.093662,-0.848925,0.068736,0.103065,0.817316,0.080928,0.055234,-0.679909,-0.018871,-0.090372,0.771744,-0.075611,-0.499292,3.161983,-5.416333,-0.373480,-0.143165,0.082321,0.605635,0.438060,-0.363739,0.694690,-1.400849,2.300773
0.334000,0.023703,0.053675,0.295166,0.943980,-0.035682,-0.013527,-0.327789,-0.006570,0.198214,0.004039,0.060272,-0.081051,-0.113601,-0.094400,-0.843665,0.061359,0.102240,0.816851,0.080880,0.056437,-0.678536,-0.020071,-0.089042,0.768999,-0.071777,-0.369390,2.630201,-3.688140,-0.412175,-0.232180,-0.023810,0.601480,0.686258,-0.599891,0.665045,-1.372342,1.917304
0.336000,0.023659,0.054041,0.295185,0.943945,-0.035792,-0.013476,-0.327880,-0.022212,0.183053,0.009263,-0.123178,0.015253,-0.093966,-0.093766,-0.840269,0.060002,0.101868,0.816388,0.080498,0.057125,-0.676786,-0.021691,-0.088277,0.766502,-0.068822,0.317433,1.697709,-0.678866,-0.186195,-0.231640,-0.191244,0.343641,0.875216,-0.809878,0.382349,-1.248448,1.477417
0.338000,0.023591,0.054393,0.295251,0.943927,-0.036039,-0.013315,-0.327912,-0.034262,0.175931,0.032985,-0.286517,0.072039,-0.026874,-0.093206,-0.836251,0.052152,0.101785,0.815755,0.080082,0.057303,-0.674755,-0.023771,-0.088057,0.764024,-0.066308,0.279654,2.009320,-3.925054,-0.041612,-0.316843,-0.207769,0.089006,1.015354,-1.040170,0.110023,-1.239289,1.257138
0.340000,0.023510,0.054748,0.295366,0.943937,-0.036243,-0.013116,-0.327868,-0.040447,0.177767,0.057534,-0.256931,0.119218,0.054796,-0.093506,-0.831102,0.036137,0.101562,0.814846,0.079804,0.057365,-0.672578,-0.026119,-0.087973,0.761388,-0.063919,-0.149901,2.574184,-8.007112,-0.111412,-0.454347,-0.138941,0.031173,1.088453,-1.174107,0.042125,-1.317700,1.194165
0.342000,0.023430,0.055111,0.295473,0.943980,-0.035956,-0.012960,-0.327783,-0.039588,0.181306,0.053524,0.222750,0.238906,0.095907,-0.093632,-0.828948,0.032755,0.100439,0.813692,0.079519,0.058231,-0.670377,-0.028229,-0.087090,0.758384,-0.061335,-0.062788,1.077344,-1.691331,-0.561720,-0.576716,-0.142615,0.433052,1.100667,-1.054749,0.441246,-1.502365,1.292138
0.344000,0.023345,0.055466,0.295593,0.944048,-0.035464,-0.012814,-0.327645,-0.042561,0.177426,0.060053,0.420790,0.294988,0.152281,-0.093755,-0.827919,0.033180,0.098931,0.812353,0.079301,0.059293,-0.668317,-0.030117,-0.085998,0.755197,-0.058704,-0.061703,0.514211,0.212496,-0.754030,-0.669685,-0.108933,0.530943,1.030210,-0.943977,0.545996,-1.593258,1.315372
0.346000,0.023253,0.055773,0.295712,0.944122,-0.035106,-0.012658,-0.327478,-0.046287,0.153911,0.059224,0.291221,0.260072,0.182337,-0.092827,-0.828316,0.037549,0.097736,0.811100,0.079109,0.059918,-0.666906,-0.031391,-0.085346,0.752473,-0.056698,0.464050,-0.198389,2.184553,-0.597186,-0.626426,-0.096100,0.312470,0.705214,-0.637121,0.326365,-1.362109,1.002951
0.348000,0.023151,0.056037,0.295867,0.944200,-0.035115,-0.012477,-0.327257,-0.050952,0.131974,0.077770,-0.061717,0.160915,0.241017,-0.091932,-0.826974,0.030817,0.097193,0.809886,0.079144,0.059661,-0.666140,-0.032304,-0.085585,0.750268,-0.055308,0.447618,0.671014,-3.365990,-0.271390,-0.606876,0.017561,-0.128652,0.382872,-0.456465,-0.119482,-1.102392,0.695348
0.350000,0.023049,0.056252,0.296007,0.944269,-0.035335,-0.012301,-0.327040,-0.051138,0.107142,0.069959,-0.260382,0.087377,0.235824,-0.089992,-0.826812,0.027913,0.097119,0.808892,0.079188,0.058953,-0.665810,-0.032855,-0.086312,0.748832,-0.054822,0.969734,0.081054,-1.451901,-0.037138,-0.497164,0.022053,-0.353801,0.165378,-0.275449,-0.363556,-0.718120,0.242934
0.352000,0.022969,0.056431,0.296092,0.944323,-0.035483,-0.012215,-0.326872,-0.039959,0.089883,0.042381,-0.163976,0.027892,0.181173,-0.086999,-0.829637,0.038162,0.096982,0.808176,0.079226,0.058520,-0.665809,-0.032939,-0.086847,0.749158,-0.056140,1.496656,-1.412409,5.124245,-0.068526,-0.358132,0.018793,-0.216559,0.000228,-0.042266,-0.267668,0.163166,-0.659008
0.354000,0.022921,0.056619,0.296176,0.944383,-0.035508,-0.012265,-0.326694,-0.023739,0.093749,0.042287,-0.003359,-0.061283,0.186443,-0.085476,-0.831290,0.041827,0.096458,0.807452,0.079633,0.058488,-0.666096,-0.032784,-0.087018,0.750020,-0.057960,0.761508,-0.826744,1.832810,-0.261940,-0.361781,0.203515,-0.015818,-0.143540,0.077943,-0.085564,0.431042,-0.909912
0.356000,0.022899,0.056834,0.296289,0.944459,-0.035394,-0.012418,-0.326483,-0.010839,0.107702,0.056480,0.163251,-0.114162,0.217648,-0.086386,-0.830049,0.031734,0.095471,0.806569,0.080433,0.058848,-0.666427,-0.032701,-0.086800,0.750759,-0.059587,-0.454835,0.620656,-5.046508,-0.493405,-0.441451,0.400053,0.179600,-0.165615,0.041429,0.109329,0.369536,-0.813906
0.358000,0.022885,0.057052,0.296374,0.944528,-0.035091,-0.012579,-0.326309,-0.007252,0.109075,0.042494,0.343246,-0.058682,0.176651,-0.087245,-0.830259,0.030711,0.094214,0.805756,0.081055,0.059640,-0.666529,-0.032702,-0.086132,0.751509,-0.061265,-0.429652,-0.104859,-0.511317,-0.628691,-0.406857,0.311215,0.396357,-0.050991,-0.000429,0.333578,0.374624,-0.838812
0.360000,0.022853,0.057256,0.296448,0.944583,-0.034849,-0.012636,-0.326174,-0.015776,0.101936,0.036578,0.250457,0.021325,0.140434,-0.087415,-0.831452,0.036973,0.093250,0.805053,0.081310,0.060264,-0.666160,-0.033146,-0.085616,0.751967,-0.062738,-0.084797,-0.596767,3.130591,-0.481919,-0.351497,0.127198,0.311787,0.184576,-0.222072,0.258477,0.229236,-0.736731
0.362000,0.022794,0.057415,0.296515,0.944604,-0.035057,-0.012525,-0.326094,-0.029583,0.079320,0.033651,-0.230121,0.034462,0.089802,-0.086061,-0.833003,0.046306,0.093366,0.804648,0.081147,0.059948,-0.665413,-0.034124,-0.086050,0.752882,-0.064801,0.676631,-0.775327,4.666553,0.057759,-0.202414,-0.081324,-0.158005,0.373474,-0.489317,-0.217252,0.457704,-1.031030
0.364000,0.022725,0.057553,0.296608,0.944610,-0.035630,-0.012336,-0.326022,-0.034585,0.069221,0.046439,-0.602692,-0.010126,0.083224,-0.084842,-0.832546,0.045850,0.094203,0.804351,0.080969,0.058908,-0.664508,-0.035520,-0.087203,0.753906,-0.067008,0.609443,0.228410,-0.227826,0.418589,-0.148223,-0.088822,-0.519659,0.452693,-0.697605,-0.576606,0.511995,-1.103844
0.366000,0.022675,0.057703,0.296728,0.944610,-0.036203,-0.012222,-0.325963,-0.024875,0.074787,0.060055,-0.577190,-0.081168,0.067193,-0.084159,-0.829894,0.033492,0.094936,0.804007,0.081155,0.058014,-0.663730,-0.036892,-0.088171,0.755017,-0.069168,0.341526,1.326150,-6.178814,0.366338,-0.172176,0.092716,-0.447125,0.389140,-0.686377,-0.483738,0.555466,-1.079864
0.368000,0.022661,0.057899,0.296833,0.944625,-0.036117,-0.012274,-0.325927,-0.007209,0.097949,0.052813,0.099236,-0.022735,0.036037,-0.084018,-0.828344,0.026979,0.094343,0.803437,0.081610,0.058574,-0.662989,-0.037903,-0.087626,0.755620,-0.070603,0.070743,0.774612,-3.256621,-0.296142,-0.285054,0.227448,0.279842,0.370511,-0.505249,0.272132,0.301270,-0.717351
0.370000,0.022675,0.058136,0.296910,0.944655,-0.035307,-0.012465,-0.325923,0.007022,0.118663,0.038156,0.828281,0.083544,-0.003313,-0.083844,-0.829246,0.033310,0.092383,0.802662,0.082166,0.060663,-0.662189,-0.038551,-0.085499,0.755574,-0.071189,0.086907,-0.450904,3.165334,-0.980328,-0.387420,0.277933,1.044411,0.399762,-0.323938,1.063844,-0.023187,-0.293020
0.372000,0.022685,0.058361,0.296987,0.944673,-0.034524,-0.012629,-0.325947,0.004869,0.112477,0.038441,0.793498,0.102172,-0.033109,-0.082725,-0.830355,0.040607,0.090583,0.801971,0.082637,0.062683,-0.661289,-0.039281,-0.083414,0.755418,-0.071604,0.559359,-0.554541,3.648344,-0.899662,-0.345681,0.235961,1.010016,0.450203,-0.365318,1.042192,-0.077634,-0.207589
0.374000,0.022667,0.058535,0.297086,0.944663,-0.034341,-0.012637,-0.325995,-0.009034,0.087027,0.049820,0.174250,0.052824,-0.050823,-0.080240,-0.829642,0.038199,0.090241,0.801595,0.082760,0.063418,-0.660262,-0.040434,-0.082609,0.755570,-0.072380,1.242415,0.356443,-1.203733,-0.170928,-0.188102,0.061217,0.367863,0.513258,-0.576218,0.402497,0.075765,-0.387942
0.376000,0.022635,0.058679,0.297194,0.944637,-0.034470,-0.012562,-0.326060,-0.015982,0.071687,0.053965,-0.147926,0.030709,-0.065508,-0.077001,-0.827828,0.030112,0.090709,0.801418,0.082650,0.063481,-0.659183,-0.041776,-0.082469,0.755863,-0.073306,1.619599,0.907001,-4.043346,0.233828,-0.088463,-0.055005,0.031405,0.539369,-0.671229,0.070253,0.146756,-0.463151
0.378000,0.022609,0.058822,0.297280,0.944611,-0.034418,-0.012503,-0.326142,-0.012865,0.071701,0.042738,0.028379,0.075606,-0.084485,-0.073585,-0.826790,0.026457,0.090969,0.801294,0.082361,0.063896,-0.658105,-0.042958,-0.081959,0.755972,-0.073997,1.708123,0.519019,-1.827524,0.130195,-0.061635,-0.144323,0.207317,0.539297,-0.590863,0.255012,0.054441,-0.345404
0.380000,0.022609,0.058992,0.297332,0.944600,-0.033842,-0.012560,-0.326231,0.000075,0.085000,0.026194,0.560902,0.137034,-0.097319,-0.070843,-0.827092,0.030229,0.090169,0.801039,0.082182,0.065401,-0.657160,-0.043686,-0.080340,0.755730,-0.074209,1.370760,-0.150812,1.885947,-0.400114,-0.127612,-0.089475,0.752758,0.472322,-0.364138,0.809497,-0.121206,-0.106311
0.382000,0.022634,0.059180,0.297366,0.944601,-0.032925,-0.012725,-0.326317,0.012312,0.094057,0.016870,0.919460,0.146303,-0.097200,-0.069105,-0.827418,0.034501,0.088601,0.800670,0.082234,0.067632,-0.656510,-0.043934,-0.077984,0.755349,-0.074165,0.869288,-0.162862,2.136003,-0.783959,-0.184502,0.025934,1.115264,0.325176,-0.123679,1.177806,-0.190503,0.022462
0.384000,0.022658,0.059348,0.297398,0.944595,-0.032181,-0.012870,-0.326402,0.011922,0.084143,0.016238,0.748288,0.108017,-0.096829,-0.067625,-0.826482,0.032472,0.087436,0.800409,0.082265,0.069481,-0.656000,-0.044115,-0.076005,0.755172,-0.074316,0.740060,0.467975,-1.014823,-0.582470,-0.130534,0.015244,0.924685,0.254962,-0.090774,0.989479,-0.088545,-0.075509
0.386000,0.022661,0.059474,0.297425,0.944571,-0.031829,-0.012901,-0.326505,0.001867,0.062765,0.013390,0.340680,0.089311,-0.110368,-0.065474,-0.824807,0.026997,0.087322,0.800412,0.081932,0.070459,-0.655439,-0.044481,-0.074900,0.755258,-0.074809,1.075283,0.837228,-2.737111,-0.057344,0.001611,-0.166155,0.489027,0.280467,-0.183177,0.552594,0.043329,-0.246872
0.388000,0.022652,0.059572,0.297431,0.944536,-0.031605,-0.012857,-0.326631,-0.004527,0.048850,0.002809,0.194334,0.117959,-0.132030,-0.062692,-0.823734,0.025136,0.087719,0.800578,0.081294,0.071113,-0.654772,-0.044929,-0.074123,0.755387,-0.075393,1.391193,0.536671,-0.930851,0.198751,0.083032,-0.319254,0.326997,0.333686,-0.223707,0.388689,0.064518,-0.291612
0.390000,0.022643,0.059659,0.297415,0.944497,-0.031310,-0.012802,-0.326774,-0.004691,0.043509,-0.007925,0.257684,0.151685,-0.150228,-0.059793,-0.823517,0.027804,0.088064,0.800748,0.080648,0.071885,-0.654060,-0.045325,-0.073229,0.755455,-0.075902,1.449432,0.108484,1.333997,0.172413,0.084811,-0.323156,0.386010,0.356011,-0.198273,0.446681,0.034033,-0.254490
0.392000,0.022645,0.059748,0.297390,0.944461,-0.030872,-0.012798,-0.326919,0.001141,0.044903,-0.012356,0.409387,0.151537,-0.153553,-0.057582,-0.823227,0.029804,0.088038,0.800789,0.080301,0.072969,-0.653437,-0.045571,-0.072030,0.755492,-0.076306,1.105352,0.145203,1.000364,-0.012953,0.020677,-0.173067,0.541829,0.311321,-0.122600,0.599505,0.018483,-0.202467
0.394000,0.022661,0.059843,0.297365,0.944430,-0.030311,-0.012854,-0.327059,0.007813,0.047487,-0.012539,0.544991,0.134523,-0.151757,-0.056322,-0.822317,0.028250,0.087653,0.800666,0.080330,0.074336,-0.652932,-0.045678,-0.070556,0.755531,-0.076624,0.630005,0.454626,-0.777045,-0.192556,-0.061746,0.014524,0.683259,0.252554,-0.053640,0.737184,0.019523,-0.158646
0.396000,0.022674,0.059923,0.297334,0.944394,-0.029778,-0.012896,-0.327210,0.006537,0.039857,-0.015443,0.514274,0.138164,-0.162345,-0.055309,-0.821176,0.025191,0.088282,0.799291,0.088099,0.075621,-0.652418,-0.045794,-0.069167,0.755596,-0.076938,0.506873,0.570623,-1.529448,0.314272,-0.687296,3.884040,0.642834,0.256698,-0.058055,0.694312,0.032465,-0.156951
0.398000,0.022675,0.059980,0.297266,0.944352,-0.029442,-0.012771,-0.327368,0.000399,0.028606,-0.033918,0.273780,0.232343,-0.164059,-0.053841,-0.820448,0.024241,0.089468,0.798941,0.092167,0.076398,-0.651590,-0.046200,-0.068284,0.755538,-0.077304,0.733630,0.364105,-0.475452,0.593302,-0.175298,2.034003,0.388414,0.414069,-0.203210,0.441676,-0.029094,-0.183277
0.400000,0.022671,0.060025,0.297153,0.944308,-0.029235,-0.012483,-0.327524,-0.001859,0.022246,-0.056625,0.097507,0.344527,-0.155439,-0.052115,-0.820215,0.025706,0.090604,0.800370,0.088568,0.076808,-0.650454,-0.046850,-0.067763,0.755288,-0.077675,0.863001,0.116582,0.732604,0.567964,0.714921,-1.799278,0.204946,0.568138,-0.324977,0.260643,-0.125204,-0.185484
0.402000,0.022678,0.060070,0.297019,0.944269,-0.028958,-0.012181,-0.327672,0.003727,0.022777,-0.067144,0.159238,0.379060,-0.147358,-0.050829,-0.819991,0.026548,0.091550,0.802021,0.084720,0.077349,-0.649319,-0.047440,-0.067114,0.754964,-0.077990,0.643131,0.111950,0.420879,0.472877,0.825279,-1.924120,0.270469,0.567570,-0.294870,0.324458,-0.162086,-0.157284
0.404000,0.022709,0.060129,0.296883,0.944240,-0.028458,-0.011987,-0.327808,0.015084,0.029363,-0.067698,0.406883,0.350641,-0.138385,-0.050419,-0.819514,0.025036,0.091764,0.803337,0.081584,0.078408,-0.648429,-0.047728,-0.065957,0.754655,-0.078198,0.205005,0.238507,-0.755962,0.106857,0.657993,-1.567848,0.529500,0.444740,-0.144147,0.578625,-0.154338,-0.104365
0.406000,0.022757,0.060196,0.296755,0.944215,-0.027739,-0.011922,-0.327942,0.024260,0.033368,-0.063951,0.655327,0.301028,-0.141255,-0.050521,-0.819072,0.022772,0.091342,0.804218,0.079404,0.079982,-0.647818,-0.047697,-0.064296,0.754424,-0.078321,-0.050875,0.221135,-1.132008,-0.210651,0.440517,-1.089962,0.787132,0.305856,0.015486,0.830268,-0.115574,-0.061218
0.408000,0.022804,0.060246,0.296639,0.944184,-0.027022,-0.011910,-0.328093,0.023507,0.025323,-0.058331,0.669754,0.249650,-0.161107,-0.050114,-0.819032,0.022059,0.090868,0.804742,0.078072,0.081572,-0.647365,-0.047540,-0.062629,0.754373,-0.078511,0.203275,0.019638,-0.356284,-0.237238,0.261824,-0.666052,0.794970,0.226573,0.078658,0.833315,-0.025281,-0.095020
0.410000,0.022825,0.060252,0.296539,0.944132,-0.026575,-0.011861,-0.328280,0.010600,0.002749,-0.050067,0.401990,0.198001,-0.198258,-0.048433,-0.819187,0.022396,0.092377,0.802555,0.090715,0.082574,-0.646918,-0.047503,-0.061559,0.754611,-0.078938,0.840409,-0.077448,0.168447,0.754740,-1.093579,6.321667,0.500883,0.223478,0.018349,0.535325,0.118749,-0.213520
0.412000,0.022821,0.060223,0.296414,0.944067,-0.026559,-0.011587,-0.328477,-0.001976,-0.014587,-0.062110,-0.077657,0.267804,-0.199326,-0.045658,-0.819140,0.022589,0.094574,0.801556,0.097793,0.082576,-0.646107,-0.047932,-0.061482,0.754865,-0.079611,1.387467,0.023696,0.096672,1.098225,-0.499400,3.538776,0.001271,0.405533,-0.214100,0.038512,0.127029,-0.336602
0.414000,0.022843,0.060233,0.296252,0.944023,-0.026326,-0.011252,-0.328636,0.010816,0.005160,-0.081271,0.105947,0.396340,-0.159006,-0.044208,-0.818060,0.016934,0.094868,0.803745,0.088197,0.083007,-0.645053,-0.048416,-0.060973,0.754614,-0.079880,0.725134,0.539883,-2.827737,0.147287,1.094491,-4.798168,0.215468,0.526720,-0.242269,0.254419,-0.125581,-0.134561
0.416000,0.022905,0.060298,0.296072,0.943999,-0.025403,-0.011096,-0.328783,0.031008,0.032210,-0.089794,0.817981,0.454986,-0.153023,-0.044374,-0.817295,0.012204,0.093614,0.805538,0.079418,0.084941,-0.644124,-0.048433,-0.058968,0.753881,-0.079469,-0.082792,0.382717,-2.364920,-0.626937,0.896685,-4.389308,0.967030,0.464646,-0.008528,1.002555,-0.366443,0.205418
0.418000,0.023001,0.060385,0.295875,0.943985,-0.023883,-0.011170,-0.328932,0.048156,0.043530,-0.098749,1.456958,0.432787,-0.163702,-0.045161,-0.817774,0.012691,0.091132,0.806798,0.072695,0.088169,-0.644164,-0.045997,-0.055683,0.753049,-0.078708,-0.393616,-0.239493,0.243698,-1.241184,0.630137,-3.361446,1.613745,-0.019994,1.218063,1.642484,-0.415850,0.380904
0.420000,0.023068,0.060416,0.295691,0.943946,-0.022597,-0.011233,-0.329134,0.033471,0.015838,-0.091777,1.231948,0.368818,-0.219334,-0.044350,-0.818623,0.014715,0.091271,0.804975,0.082668,0.090828,-0.644284,-0.043728,-0.052930,0.752563,-0.078189,0.405312,-0.424624,1.011774,0.069351,-0.911757,4.986424,1.329372,-0.060082,1.134344,1.376455,-0.243201,0.259104
0.422000,0.023088,0.060342,0.295460,0.943894,-0.022328,-0.010899,-0.329313,0.009765,-0.037367,-0.115785,0.140779,0.406979,-0.181997,-0.040895,-0.818831,0.013057,0.093534,0.806315,0.080724,0.089837,-0.646052,-0.036706,-0.052570,0.752530,-0.078551,1.727825,-0.104081,-0.828891,1.131671,0.670035,-0.972117,-0.495449,-0.883778,3.511057,0.179916,-0.016533,-0.180786
0.424000,0.023098,0.060239,0.295193,0.943832,-0.022393,-0.010353,-0.329504,0.005169,-0.051395,-0.133272,-0.245038,0.496987,-0.187043,-0.036831,-0.818337,0.008929,0.096289,0.810049,0.069755,0.088002,-0.647413,-0.033573,-0.052979,0.752487,-0.079119,2.031917,0.247143,-2.064130,1.377661,1.866824,-5.484365,-0.917434,-0.680847,1.566474,-0.204422,-0.021243,-0.284142
0.426000,0.023189,0.060182,0.294847,0.943807,-0.021662,-0.010088,-0.329631,0.045650,-0.028403,-0.172935,0.601155,0.493555,-0.130447,-0.035134,-0.818283,0.006196,0.096235,0.816476,0.049905,0.087700,-0.651576,-0.021887,-0.051692,0.752404,-0.079533,0.848416,0.026697,-1.366532,-0.027319,3.213611,-9.924715,-0.151194,-2.081549,5.843300,0.643266,-0.041759,-0.207047
0.428000,0.023344,0.060188,0.294500,0.943783,-0.019938,-0.010218,-0.329805,0.077148,0.003014,-0.173886,1.667330,0.449874,-0.192150,-0.035750,-0.818596,0.006195,0.095248,0.820245,0.046265,0.090853,-0.655417,-0.015014,-0.048122,0.752189,-0.079379,-0.308178,-0.156271,-0.000399,-0.493392,1.884547,-1.820461,1.576961,-1.920358,3.436144,1.785194,-0.107210,0.077172
0.430000,0.023528,0.060181,0.294092,0.943772,-0.018029,-0.010425,-0.329940,0.092061,-0.003535,-0.203866,1.868604,0.436074,-0.154936,-0.036852,-0.819087,0.006925,0.093714,0.825809,0.038468,0.093842,-0.661747,-0.000353,-0.044251,0.752151,-0.079423,-0.550978,-0.245354,0.365230,-0.767116,2.782200,-3.898040,1.494301,-3.164907,7.330874,1.935364,-0.019026,-0.022105
0.432000,0.023650,0.060097,0.293678,0.943728,-0.016973,-0.010239,-0.330129,0.061053,-0.042115,-0.206959,0.932820,0.527522,-0.200726,-0.035643,-0.818637,0.005355,0.095153,0.831998,0.030353,0.094894,-0.666678,0.006795,-0.042317,0.752212,-0.079868,0.604483,0.224693,-0.785427,0.719659,3.094224,-4.057759,0.526098,-2.465577,3.574018,0.967155,0.030676,-0.222528
0.434000,0.023741,0.059933,0.293190,0.943693,-0.016645,-0.009722,-0.330259,0.045563,-0.081823,-0.244094,0.136795,0.597442,-0.128089,-0.032725,-0.817764,0.001769,0.097557,0.842273,0.005760,0.092815,-0.673973,0.022583,-0.042204,0.752498,-0.080985,1.459030,0.436664,-1.792979,1.202021,5.137411,-12.296669,-1.039629,-3.647279,7.893696,0.056475,0.142813,-0.558394
0.436000,0.023845,0.059787,0.292698,0.943652,-0.015926,-0.009324,-0.330423,0.052179,-0.072948,-0.245830,0.544908,0.616186,-0.169074,-0.030514,-0.816971,-0.000332,0.100370,0.850755,-0.008355,0.092282,-0.680655,0.034285,-0.041233,0.752601,-0.081758,1.105525,0.396281,-1.050168,1.406668,4.241038,-7.057498,-0.266382,-3.341360,5.851251,0.485551,0.051290,-0.386236
0.438000,0.024018,0.059692,0.292145,0.943643,-0.014316,-0.009253,-0.330525,0.086130,-0.047608,-0.276287,1.494128,0.599874,-0.112738,-0.030581,-0.816881,-0.000031,0.100746,0.860179,-0.024663,0.093509,-0.689897,0.055342,-0.038408,0.752541,-0.082188,-0.033315,0.045374,0.150547,0.187799,4.711982,-8.153632,0.613282,-4.620995,10.528263,1.412441,-0.029886,-0.215281
0.440000,0.024194,0.059617,0.291597,0.943620,-0.012448,-0.009206,-0.330670,0.088000,-0.037298,-0.274113,1.746452,0.663534,-0.161166,-0.031182,-0.816496,0.000022,0.101488,0.868397,-0.034357,0.096287,-0.697464,0.068135,-0.035006,0.752171,-0.082216,-0.300510,0.192319,0.026539,0.370829,4.109014,-4.847066,1.389272,-3.783125,6.396747,1.700999,-0.184860,-0.014057
0.442000,0.024361,0.059512,0.290991,0.943613,-0.010842,-0.008998,-0.330750,0.083742,-0.052637,-0.303310,1.445255,0.728900,-0.090122,-0.031241,-0.815859,-0.001792,0.101899,0.879580,-0.057464,0.097483,-0.706673,0.087506,-0.032370,0.751776,-0.082493,-0.029769,0.318629,-0.907039,0.205636,5.591662,-11.553535,0.597637,-4.604622,9.685477,1.317814,-0.197605,-0.138314
0.444000,0.024489,0.059368,0.290385,0.943592,-0.009602,-0.008596,-0.330860,0.064153,-0.072244,-0.302774,1.035653,0.790125,-0.116952,-0.029971,-0.814906,-0.004489,0.104141,0.890005,-0.076623,0.097970,-0.714802,0.101901,-0.030613,0.751313,-0.082823,0.634993,0.476477,-1.348690,1.121164,5.212569,-9.579397,0.243861,-4.064669,7.197564,0.878532,-0.231505,-0.165225
0.446000,0.024615,0.059193,0.289732,0.943588,-0.008448,-0.008160,-0.330912,0.062652,-0.087479,-0.326338,0.944011,0.793454,-0.056864,-0.028155,-0.814333,-0.006621,0.106315,0.901567,-0.100425,0.097264,-0.724945,0.124237,-0.029215,0.750961,-0.083394,0.908053,0.286215,-1.065892,1.086651,5.781021,-11.901128,-0.353103,-5.071679,11.167950,0.699109,-0.176098,-0.285513
0.448000,0.024751,0.059041,0.289071,0.943574,-0.006876,-0.007815,-0.330998,0.068186,-0.076016,-0.330913,1.368957,0.847167,-0.095036,-0.027745,-0.814907,-0.005853,0.108639,0.911310,-0.115190,0.098190,-0.734092,0.141575,-0.026923,0.750324,-0.083558,0.205361,-0.286965,0.383691,1.162271,4.871430,-7.382325,0.462989,-4.573235,8.669020,1.145837,-0.318560,-0.081770
0.450000,0.024908,0.058901,0.288362,0.943575,-0.005048,-0.007526,-0.331034,0.078226,-0.069997,-0.354478,1.628933,0.877950,-0.046157,-0.028484,-0.816574,-0.002768,0.109609,0.922320,-0.135946,0.099226,-0.744505,0.163697,-0.024189,0.749584,-0.083673,-0.369701,-0.833163,1.542532,0.485013,5.504988,-10.378469,0.517908,-5.206678,11.060826,1.367396,-0.369593,-0.057695
0.452000,0.025040,0.058744,0.287657,0.943564,-0.003452,-0.007112,-0.331096,0.066128,-0.078164,-0.352135,1.368193,0.919166,-0.072082,-0.029078,-0.818673,0.001651,0.111392,0.932940,-0.154924,0.100113,-0.753765,0.180181,-0.021976,0.748805,-0.083830,-0.296820,-1.049649,2.209505,0.891577,5.310109,-9.488931,0.443696,-4.629644,8.241857,1.106132,-0.389755,-0.078482
0.454000,0.025153,0.058555,0.286943,0.943564,-0.002242,-0.006607,-0.331117,0.056388,-0.094650,-0.357137,0.974470,0.876798,-0.027115,-0.029278,-0.821119,0.006738,0.113165,0.944702,-0.179318,0.099398,-0.764183,0.201045,-0.020684,0.748320,-0.084425,-0.100224,-1.223322,2.543880,0.886537,5.880932,-12.196939,-0.357530,-5.209020,10.432305,0.646376,-0.242294,-0.297529
0.456000,0.025244,0.058345,0.286272,0.943555,-0.001338,-0.006097,-0.331158,0.045807,-0.105100,-0.335447,0.683817,0.780776,-0.046738,-0.029132,-0.823581,0.011870,0.115708,0.955410,-0.198083,0.098374,-0.774149,0.219170,-0.019978,0.748167,-0.085290,0.073167,-1.230909,2.565744,1.271245,5.354026,-9.382453,-0.512161,-4.983169,9.062173,0.352614,-0.076471,-0.432328
0.458000,0.025340,0.058135,0.285635,0.943555,-0.000530,-0.005708,-0.331167,0.048009,-0.104852,-0.318517,0.633374,0.634443,-0.012458,-0.029193,-0.826143,0.016860,0.117243,0.966373,-0.218086,0.097059,-0.785096,0.240754,-0.019413,0.748401,-0.086435,-0.030810,-1.280902,2.494839,0.767439,5.481440,-10.001388,-0.657591,-5.473345,10.792175,0.282645,0.116695,-0.572571
0.460000,0.025437,0.057945,0.285057,0.943548,0.000276,-0.005435,-0.331190,0.048446,-0.095072,-0.288835,0.669671,0.524685,-0.028175,-0.029533,-0.828637,0.021657,0.118031,0.976693,-0.235649,0.096639,-0.795277,0.258776,-0.018706,0.748806,-0.087572,-0.169730,-1.247190,2.398630,0.394216,5.160123,-8.781660,-0.209821,-5.090712,9.011270,0.353681,0.202374,-0.568361
0.462000,0.025538,0.057777,0.284526,0.943548,0.001104,-0.005283,-0.331191,0.050214,-0.083728,-0.265767,0.731376,0.417706,-0.005521,-0.030224,-0.831105,0.026238,0.117347,0.987220,-0.256075,0.096560,-0.805628,0.277921,-0.017858,0.749335,-0.088704,-0.345403,-1.233945,2.290668,-0.342060,5.263616,-10.213075,-0.039746,-5.175568,9.572030,0.423782,0.264834,-0.566181
0.464000,0.025616,0.057616,0.284056,0.943544,0.001744,-0.005145,-0.331204,0.039124,-0.080760,-0.235118,0.557640,0.341526,-0.017154,-0.030672,-0.833322,0.030401,0.116612,0.997023,-0.275172,0.096577,-0.815197,0.294947,-0.017326,0.749929,-0.089813,-0.224373,-1.108535,2.081148,-0.367625,4.901144,-9.548245,0.008539,-4.784608,8.513146,0.266091,0.296815,-0.554581
0.466000,0.025666,0.057450,0.283642,0.943542,0.002130,-0.005005,-0.331207,0.025299,-0.082732,-0.206832,0.317852,0.260079,-0.005973,-0.030735,-0.835274,0.034030,0.115986,1.006132,-0.293778,0.095946,-0.824723,0.313014,-0.017296,0.750607,-0.090957,-0.031256,-0.975544,1.814524,-0.313064,4.554611,-9.302905,-0.315301,-4.762591,9.033437,0.015168,0.339022,-0.571722
0.468000,0.025686,0.057282,0.283289,0.943539,0.002254,-0.004844,-0.331219,0.009863,-0.084157,-0.176306,0.064090,0.192759,-0.013172,-0.030338,-0.836898,0.037096,0.115853,1.014287,-0.310408,0.094932,-0.833710,0.330248,-0.017762,0.751331,-0.092095,0.198603,-0.812003,1.533083,-0.066462,4.077297,-8.315418,-0.507195,-4.493848,8.617145,-0.233103,0.362283,-0.569242
0.470000,0.025687,0.057124,0.282999,0.943537,0.002258,-0.004714,-0.331226,0.000674,-0.079304,-0.145435,-0.039814,0.124226,-0.007317,-0.029808,-0.838249,0.039637,0.115582,1.021632,-0.326205,0.093787,-0.842419,0.346705,-0.018417,0.752040,-0.093123,0.264867,-0.675571,1.270597,-0.135283,3.672636,-7.898044,-0.572104,-4.354204,8.228390,-0.327598,0.354251,-0.513867
0.472000,0.025682,0.056988,0.282764,0.943537,0.002267,-0.004655,-0.331228,-0.002595,-0.067981,-0.117054,-0.010895,0.058700,-0.002223,-0.029427,-0.839388,0.041747,0.114668,1.028556,-0.342504,0.092999,-0.850807,0.362295,-0.018966,0.752703,-0.093987,0.190396,-0.569782,1.054936,-0.457068,3.461925,-8.149630,-0.394343,-4.194092,7.794877,-0.274412,0.331439,-0.432027
0.474000,0.025679,0.056880,0.282595,0.943537,0.002392,-0.004718,-0.331224,-0.001724,-0.053896,-0.084651,0.139317,-0.017737,0.003776,-0.029431,-0.840340,0.043404,0.112995,1.034622,-0.357043,0.092781,-0.859003,0.376433,-0.019161,0.753297,-0.094592,-0.002003,-0.476061,0.828577,-0.836760,3.033044,-7.269582,-0.108976,-4.098174,7.069194,-0.097368,0.297306,-0.302207
0.476000,0.025667,0.056785,0.282479,0.943542,0.002471,-0.004831,-0.331208,-0.005921,-0.047254,-0.057900,0.111852,-0.080560,0.016529,-0.029450,-0.841070,0.044562,0.110946,1.040358,-0.371762,0.092429,-0.867227,0.390828,-0.019389,0.753872,-0.095076,-0.009253,-0.364973,0.579191,-1.024082,2.868160,-7.359478,-0.175706,-4.111837,7.197377,-0.114386,0.287252,-0.242031
0.478000,0.025636,0.056692,0.282431,0.943547,0.002398,-0.004943,-0.331193,-0.015368,-0.046512,-0.024335,-0.031481,-0.130139,0.016183,-0.029199,-0.841469,0.045096,0.109341,1.045022,-0.383139,0.091685,-0.875114,0.402797,-0.019885,0.754395,-0.095400,0.125485,-0.199197,0.266691,-0.802894,2.331929,-5.688400,-0.372295,-3.943489,5.984733,-0.247675,0.261634,-0.162110
0.480000,0.025589,0.056600,0.282431,0.943558,0.002148,-0.005038,-0.331162,-0.023863,-0.046005,0.000136,-0.204725,-0.171955,0.034118,-0.028653,-0.841595,0.045078,0.107749,1.049578,-0.395626,0.090162,-0.883073,0.415387,-0.020729,0.754892,-0.095661,0.272691,-0.063014,-0.008824,-0.795675,2.277894,-6.243821,-0.761168,-3.979613,6.295046,-0.422299,0.248336,-0.130469
0.482000,0.025529,0.056516,0.282497,0.943567,0.001813,-0.005149,-0.331136,-0.029785,-0.042037,0.032826,-0.278902,-0.215696,0.029661,-0.027978,-0.841417,0.044485,0.106404,1.053128,-0.404994,0.088508,-0.890508,0.424730,-0.021678,0.755324,-0.095734,0.337461,0.088855,-0.296625,-0.672732,1.775346,-4.683964,-0.827067,-3.717225,4.671544,-0.474110,0.216210,-0.036671
0.484000,0.025475,0.056456,0.282600,0.943582,0.001578,-0.005346,-0.331092,-0.027135,-0.030301,0.051778,-0.156585,-0.263558,0.047620,-0.027628,-0.841145,0.043598,0.104150,1.056734,-0.416213,0.086876,-0.898072,0.435447,-0.022346,0.755709,-0.095660,0.175132,0.135912,-0.443586,-1.126803,1.802756,-5.609419,-0.815950,-3.782337,5.358293,-0.334241,0.192531,0.037095
0.486000,0.025426,0.056422,0.282758,0.943590,0.001531,-0.005642,-0.331064,-0.024577,-0.016931,0.078788,0.053450,-0.295164,0.030427,-0.027702,-0.840761,0.042501,0.101694,1.059049,-0.422842,0.085987,-0.904918,0.442706,-0.022510,0.755958,-0.095263,-0.036759,0.192292,-0.548145,-1.228193,1.157629,-3.314373,-0.444751,-3.422632,3.629606,-0.082108,0.124408,0.198462
0.488000,0.025373,0.056402,0.282937,0.943602,0.001520,-0.005965,-0.331025,-0.026062,-0.009935,0.089491,0.097112,-0.307841,0.040883,-0.027892,-0.840338,0.041318,0.098791,1.061345,-0.431372,0.084775,-0.911750,0.451647,-0.022566,0.756135,-0.094770,-0.094947,0.211103,-0.591438,-1.451369,1.147862,-4.264959,-0.605752,-3.416128,4.470630,-0.028055,0.088625,0.246390
0.490000,0.025303,0.056382,0.283155,0.943605,0.001416,-0.006237,-0.331013,-0.035381,-0.010066,0.109029,-0.008255,-0.291461,0.013507,-0.027801,-0.839739,0.039980,0.096808,1.062312,-0.435658,0.083362,-0.917580,0.456484,-0.022782,0.756188,-0.094117,0.045168,0.299919,-0.669424,-0.991288,0.483594,-2.142981,-0.706768,-2.915188,2.418070,-0.107895,0.026426,0.326657
0.492000,0.025221,0.056363,0.283379,0.943610,0.001237,-0.006473,-0.330993,-0.040930,-0.009581,0.111950,-0.090132,-0.281480,0.021490,-0.027543,-0.839121,0.038646,0.094718,1.063393,-0.442754,0.081123,-0.923424,0.463380,-0.023162,0.756203,-0.093484,0.128904,0.308729,-0.666711,-1.045117,0.540361,-3.548161,-1.119222,-2.921715,3.448222,-0.189692,0.007565,0.316610
0.494000,0.025132,0.056349,0.283630,0.943605,0.001082,-0.006705,-0.331004,-0.044587,-0.006846,0.125677,-0.069911,-0.270679,-0.010066,-0.027255,-0.838437,0.037305,0.093163,1.063220,-0.445549,0.079049,-0.928375,0.466281,-0.023436,0.756139,-0.092711,0.144117,0.342263,-0.670812,-0.777631,-0.086501,-1.397221,-1.037468,-2.475911,1.450684,-0.137292,-0.032351,0.386198
0.496000,0.025052,0.056350,0.283878,0.943601,0.001072,-0.007003,-0.331008,-0.039964,0.000664,0.123992,0.089540,-0.283777,-0.004737,-0.027298,-0.837884,0.036120,0.090727,1.063226,-0.450734,0.076845,-0.933569,0.471596,-0.023369,0.756094,-0.091941,-0.021187,0.276418,-0.592373,-1.218096,0.003049,-2.592878,-1.101682,-2.597027,2.657305,0.033654,-0.022289,0.384935
0.498000,0.024976,0.056362,0.284145,0.943586,0.001199,-0.007354,-0.331045,-0.037677,0.006073,0.133633,0.235149,-0.290063,-0.040558,-0.027561,-0.837352,0.035004,0.088430,1.062052,-0.451149,0.075217,-0.938021,0.473090,-0.022936,0.756039,-0.091061,-0.131787,0.265805,-0.557897,-1.148519,-0.586767,-0.207294,-0.814273,-2.225731,0.747078,0.216356,-0.027424,0.440236
0.500000,0.024902,0.056375,0.284402,0.943570,0.001331,-0.007715,-0.331080,-0.037242,0.006478,0.128278,0.243954,-0.297365,-0.039047,-0.027828,-0.836907,0.033984,0.085615,1.061174,-0.454286,0.073044,-0.942718,0.476736,-0.022483,0.756073,-0.090309,-0.133621,0.222809,-0.510222,-1.407549,-0.439249,-1.568766,-1.086169,-2.348752,1.822729,0.226343,0.017042,0.376023
0.502000,0.024816,0.056378,0.284668,0.943543,0.001358,-0.008031,-0.331150,-0.042951,0.001187,0.132861,0.129634,-0.289246,-0.075053,-0.027771,-0.836395,0.032928,0.083537,1.059405,-0.454080,0.070690,-0.946697,0.476719,-0.022221,0.756171,-0.089627,0.028872,0.255847,-0.528001,-1.038970,-0.884371,0.103466,-1.177372,-1.989057,-0.008361,0.131420,0.048628,0.340919
0.504000,0.024728,0.056375,0.284917,0.943515,0.001341,-0.008341,-0.331223,-0.043944,-0.001396,0.124816,0.086101,-0.298212,-0.076877,-0.027602,-0.835953,0.031938,0.081106,1.057968,-0.456571,0.067698,-0.950939,0.478947,-0.022051,0.756400,-0.089138,0.084554,0.220875,-0.494895,-1.215461,-0.718333,-1.245647,-1.495554,-2.121218,1.114065,0.084594,0.114791,0.244515
0.506000,0.024640,0.056370,0.285167,0.943475,0.001346,-0.008670,-0.331326,-0.043889,-0.002350,0.124930,0.112647,-0.309435,-0.110281,-0.027412,-0.835532,0.030984,0.078930,1.055862,-0.456217,0.064947,-0.954724,0.478877,-0.021786,0.756736,-0.088727,0.094906,0.210374,-0.477011,-1.087808,-1.053033,0.176884,-1.375503,-1.892380,-0.035113,0.132459,0.167916,0.205382
0.508000,0.024561,0.056370,0.285399,0.943433,0.001441,-0.009054,-0.331436,-0.039642,0.000097,0.115845,0.216239,-0.330949,-0.118445,-0.027414,-0.835238,0.030161,0.076124,1.054027,-0.457628,0.062209,-0.958744,0.480773,-0.021302,0.757206,-0.088455,-0.000931,0.146965,-0.411261,-1.402934,-0.917529,-0.705297,-1.369286,-2.010171,0.948274,0.242401,0.234845,0.136020
0.510000,0.024484,0.056370,0.285622,0.943381,0.001585,-0.009462,-0.331571,-0.038446,0.000016,0.111465,0.269839,-0.338108,-0.145153,-0.027467,-0.835001,0.029437,0.073399,1.051895,-0.457587,0.059791,-0.962513,0.481446,-0.020683,0.757757,-0.088250,-0.026699,0.118744,-0.362211,-1.362592,-1.066127,0.020145,-1.208761,-1.884513,0.336403,0.309432,0.275531,0.102800
0.512000,0.024405,0.056365,0.285825,0.943325,0.001701,-0.009861,-0.331718,-0.039498,-0.002723,0.101712,0.240538,-0.338285,-0.157507,-0.027427,-0.834820,0.028810,0.070611,1.050071,-0.459100,0.057198,-0.966358,0.483134,-0.020127,0.758399,-0.088185,0.019998,0.090569,-0.313211,-1.394101,-0.912062,-0.756353,-1.296860,-1.922486,0.844110,0.278100,0.321027,0.032158
0.514000,0.024321,0.056347,0.286007,0.943265,0.001743,-0.010232,-0.331879,-0.041959,-0.008720,0.091027,0.161597,-0.337353,-0.171174,-0.027183,-0.834682,0.028259,0.068094,1.048564,-0.461580,0.054367,-0.970420,0.485521,-0.019744,0.759150,-0.088292,0.121897,0.069060,-0.275802,-1.258619,-0.753641,-1.240195,-1.415554,-2.031172,1.193498,0.191410,0.375700,-0.053124
0.516000,0.024236,0.056323,0.286170,0.943199,0.001768,-0.010598,-0.332056,-0.042622,-0.012297,0.081421,0.143171,-0.337613,-0.188733,-0.026860,-0.834595,0.027803,0.065771,1.047356,-0.464342,0.051597,-0.974603,0.488290,-0.019401,0.759987,-0.088516,0.161636,0.043432,-0.227998,-1.161506,-0.603752,-1.380875,-1.384701,-2.091357,1.384482,0.171423,0.418225,-0.112176
0.518000,0.024149,0.056298,0.286333,0.943123,0.001846,-0.010966,-0.332258,-0.043651,-0.012279,0.081608,0.193938,-0.322063,-0.216303,-0.026583,-0.834496,0.027426,0.063813,1.045694,-0.464037,0.049319,-0.978319,0.488364,-0.018938,0.760753,-0.088633,0.138528,0.049467,-0.188341,-0.978761,-0.830984,0.152458,-1.138895,-1.857760,0.036669,0.231574,0.383058,-0.058670
0.520000,0.024061,0.056278,0.286490,0.943044,0.002002,-0.011343,-0.332469,-0.043912,-0.010237,0.078462,0.269547,-0.305434,-0.226194,-0.026438,-0.834417,0.027164,0.061752,1.043994,-0.463402,0.047266,-0.981899,0.488138,-0.018326,0.761423,-0.088644,0.072469,0.039253,-0.130950,-1.030732,-0.849868,0.317706,-1.026657,-1.789970,-0.112966,0.305665,0.335340,-0.005313
0.522000,0.023962,0.056262,0.286663,0.942957,0.002200,-0.011689,-0.332701,-0.049569,-0.007714,0.086369,0.299943,-0.262015,-0.249465,-0.026308,-0.834222,0.026935,0.060137,1.041332,-0.459150,0.045601,-0.984466,0.484117,-0.017639,0.761836,-0.088357,0.065101,0.097647,-0.114550,-0.807296,-1.331296,2.125830,-0.832530,-1.283927,-2.010459,0.343544,0.206429,0.143254
0.524000,0.023852,0.056251,0.286831,0.942876,0.002414,-0.012007,-0.332918,-0.054643,-0.005773,0.083949,0.304920,-0.230489,-0.232486,-0.026206,-0.833994,0.026767,0.058111,1.038720,-0.457546,0.043334,-0.987089,0.482440,-0.016990,0.762057,-0.087923,0.050766,0.114055,-0.084159,-1.013149,-1.305886,0.801928,-1.133577,-1.311337,-0.838611,0.324703,0.110403,0.216924
0.526000,0.023723,0.056242,0.287022,0.942789,0.002605,-0.012267,-0.333154,-0.064663,-0.004396,0.095750,0.263517,-0.182417,-0.253508,-0.025972,-0.833571,0.026536,0.056665,1.034834,-0.452153,0.041160,-0.988407,0.477058,-0.016415,0.761996,-0.087187,0.117181,0.211215,-0.115296,-0.723114,-1.942918,2.696531,-1.087008,-0.658818,-2.690555,0.287532,-0.030735,0.368006
0.528000,0.023586,0.056239,0.287213,0.942707,0.002826,-0.012521,-0.333374,-0.068653,-0.001314,0.095348,0.290740,-0.167594,-0.236614,-0.025814,-0.833111,0.026304,0.054625,1.030865,-0.449044,0.038428,-0.989715,0.474186,-0.015824,0.761801,-0.086345,0.078969,0.230480,-0.116339,-1.019866,-1.984398,1.554590,-1.365744,-0.654070,-1.436287,0.295443,-0.097207,0.421325
0.530000,0.023433,0.056241,0.287433,0.942613,0.003039,-0.012744,-0.333631,-0.076386,0.000927,0.110033,0.272888,-0.141228,-0.275589,-0.025550,-0.832444,0.025941,0.053209,1.025358,-0.440208,0.036304,-0.989277,0.465614,-0.015219,0.761440,-0.085278,0.132135,0.333105,-0.181303,-0.707882,-2.753496,4.418183,-1.062318,0.219101,-4.285774,0.302485,-0.180747,0.533509
0.532000,0.023279,0.056249,0.287647,0.942523,0.003285,-0.012992,-0.333873,-0.077101,0.003825,0.107104,0.310917,-0.153541,-0.260882,-0.025387,-0.831780,0.025538,0.050936,1.019983,-0.434234,0.033732,-0.988941,0.459789,-0.014562,0.761101,-0.084257,0.081242,0.332002,-0.201591,-1.136380,-2.687752,2.987034,-1.285947,0.167613,-2.912724,0.328574,-0.169198,0.510354
0.534000,0.023113,0.056259,0.287885,0.942418,0.003508,-0.013228,-0.334157,-0.082756,0.005031,0.118716,0.285820,-0.149909,-0.304992,-0.025099,-0.830947,0.024981,0.049198,1.013224,-0.422748,0.031864,-0.986896,0.448514,-0.013891,0.760741,-0.083163,0.144276,0.416431,-0.278366,-0.869192,-3.379656,5.742705,-0.933785,1.022972,-5.637363,0.335307,-0.179969,0.546979
0.536000,0.022947,0.056268,0.288105,0.942319,0.003708,-0.013487,-0.334424,-0.082910,0.004664,0.110336,0.271659,-0.179830,-0.286800,-0.024808,-0.830159,0.024368,0.046583,1.006904,-0.415301,0.029286,-0.985283,0.441302,-0.013282,0.760544,-0.082290,0.145176,0.394401,-0.306432,-1.307418,-3.159597,3.723479,-1.289097,0.806430,-3.605901,0.304882,-0.098958,0.436731
0.538000,0.022769,0.056273,0.288341,0.942203,0.003821,-0.013718,-0.334739,-0.089336,0.002230,0.118071,0.180735,-0.182551,-0.335525,-0.024246,-0.829220,0.023602,0.044749,0.999318,-0.402404,0.027327,-0.981986,0.428635,-0.012790,0.760417,-0.081466,0.281068,0.469245,-0.382978,-0.916877,-3.793287,6.448499,-0.979639,1.648170,-6.333432,0.245698,-0.063340,0.411612
0.540000,0.022592,0.056274,0.288555,0.942092,0.003908,-0.013974,-0.335041,-0.088484,0.000690,0.106768,0.164038,-0.214890,-0.321840,-0.023670,-0.828364,0.022827,0.042212,0.992200,-0.393136,0.024781,-0.979145,0.419627,-0.012359,0.760494,-0.080911,0.288118,0.428222,-0.387639,-1.268581,-3.558906,4.634037,-1.272670,1.420538,-4.504472,0.215373,0.038515,0.277621
0.542000,0.022405,0.056275,0.288781,0.941963,0.003964,-0.014212,-0.335392,-0.093206,0.000175,0.112923,0.127193,-0.208746,-0.374217,-0.022932,-0.827401,0.022001,0.040514,0.983770,-0.377898,0.023166,-0.974498,0.404433,-0.011930,0.760593,-0.080346,0.369123,0.481566,-0.412919,-0.848988,-4.214949,7.619140,-0.807649,2.323602,-7.596846,0.214751,0.049537,0.282828
0.544000,0.022224,0.056276,0.288979,0.941840,0.004053,-0.014485,-0.335725,-0.090609,0.000754,0.099097,0.171357,-0.230604,-0.355443,-0.022315,-0.826574,0.021280,0.038064,0.975866,-0.366558,0.021084,-0.970419,0.393220,-0.011445,0.760828,-0.079976,0.308218,0.413358,-0.360550,-1.225151,-3.952253,5.670096,-1.041069,2.039342,-5.606453,0.242231,0.117327,0.184714
0.546000,0.022035,0.056279,0.289183,0.941702,0.004151,-0.014745,-0.336100,-0.094518,0.001565,0.102192,0.175221,-0.215216,-0.399036,-0.021634,-0.825688,0.020603,0.036373,0.966787,-0.349968,0.019870,-0.964744,0.376918,-0.010897,0.761024,-0.079544,0.340435,0.443133,-0.338405,-0.845246,-4.539582,8.294854,-0.606931,2.837730,-8.150741,0.274221,0.098257,0.216091
0.548000,0.021849,0.056281,0.289357,0.941572,0.004266,-0.015019,-0.336451,-0.093293,0.000924,0.086779,0.195571,-0.222960,-0.374819,-0.021031,-0.824942,0.020075,0.034100,0.958315,-0.337568,0.018033,-0.959737,0.364919,-0.010358,0.761300,-0.079271,0.301474,0.372992,-0.263914,-1.136661,-4.235917,6.200251,-0.918484,2.503222,-5.999971,0.269286,0.137926,0.136314
0.550000,0.021649,0.056280,0.289535,0.941428,0.004336,-0.015245,-0.336841,-0.099659,-0.000626,0.089108,0.136770,-0.193070,-0.415926,-0.020237,-0.824110,0.019594,0.032812,0.948785,-0.320254,0.016874,-0.953122,0.347605,-0.009895,0.761497,-0.078923,0.397264,0.415582,-0.240569,-0.643934,-4.764834,8.656655,-0.579336,3.307836,-8.656830,0.231944,0.098309,0.174400
0.552000,0.021452,0.056277,0.289684,0.941292,0.004426,-0.015480,-0.337209,-0.098457,-0.001445,0.074621,0.158402,-0.194678,-0.392854,-0.019522,-0.823409,0.019266,0.031078,0.939854,-0.306556,0.015188,-0.947120,0.333925,-0.009438,0.761740,-0.078693,0.357570,0.350812,-0.163974,-0.866888,-4.465526,6.848938,-0.843119,3.000676,-6.839844,0.228278,0.121611,0.114824
0.554000,0.021249,0.056275,0.289836,0.941145,0.004532,-0.015699,-0.337609,-0.101803,-0.000825,0.075877,0.168557,-0.173660,-0.426612,-0.018773,-0.822661,0.019006,0.030066,0.930063,-0.288401,0.014253,-0.939801,0.315890,-0.008924,0.761908,-0.078371,0.374575,0.373860,-0.130355,-0.506297,-4.895327,9.077601,-0.467604,3.659814,-9.017598,0.256958,0.084068,0.160712
