QPZ-918/AT_DOG_AMP/temp/gmr_data_csv/Vz-0.8.csv
time_sec,root_pos_x,root_pos_y,root_pos_z,root_quat_w,root_quat_x,root_quat_y,root_quat_z,base_lin_vel_x,base_lin_vel_y,base_lin_vel_z,base_ang_vel_x,base_ang_vel_y,base_ang_vel_z,FR_hip_joint,FR_thigh_joint,FR_calf_joint,FL_hip_joint,FL_thigh_joint,FL_calf_joint,RR_hip_joint,RR_thigh_joint,RR_calf_joint,RL_hip_joint,RL_thigh_joint,RL_calf_joint,FR_hip_joint_vel,FR_thigh_joint_vel,FR_calf_joint_vel,FL_hip_joint_vel,FL_thigh_joint_vel,FL_calf_joint_vel,RR_hip_joint_vel,RR_thigh_joint_vel,RR_calf_joint_vel,RL_hip_joint_vel,RL_thigh_joint_vel,RL_calf_joint_vel
0.002000,0.304287,0.290334,0.293837,-0.089986,-0.020780,-0.032625,-0.995192,0.117172,0.051514,0.074866,-0.236976,0.232668,-1.021640,0.078525,-0.784547,0.071237,-0.002219,0.790881,-0.078285,-0.029456,-0.871331,0.139952,0.058194,0.782256,-0.067065,1.144030,0.884104,0.140155,0.611841,0.040696,2.371761,0.497127,1.694751,-1.048433,0.573997,0.270972,-0.228673
0.004000,0.304487,0.290410,0.293970,-0.090987,-0.020553,-0.032528,-0.995108,0.100230,0.038000,0.066387,-0.135230,0.182353,-1.009673,0.080516,-0.782995,0.071536,-0.001809,0.792476,-0.079048,-0.028208,-0.868553,0.138547,0.059508,0.782993,-0.067605,0.995792,0.775952,0.149197,0.205315,0.797645,-0.381570,0.624190,1.388963,-0.702259,0.657119,0.368555,-0.269671
0.006000,0.304667,0.290463,0.294115,-0.091983,-0.020398,-0.032605,-0.995018,0.089923,0.026795,0.072406,0.045370,0.127563,-1.006018,0.082099,-0.781554,0.071729,-0.001400,0.793505,-0.076377,-0.026563,-0.866215,0.137616,0.061137,0.783707,-0.067930,0.791253,0.720463,0.096467,0.204304,0.514212,1.335295,0.822400,1.169083,-0.465587,0.814846,0.357077,-0.162566
0.008000,0.304820,0.290502,0.294238,-0.092950,-0.020292,-0.032734,-0.994926,0.076330,0.019628,0.061645,0.101927,0.083463,-0.976903,0.083484,-0.780327,0.071957,-0.001381,0.795556,-0.078377,-0.024815,-0.864467,0.137321,0.062804,0.784516,-0.068299,0.692887,0.613941,0.114135,0.009630,1.025522,-0.999658,0.874022,0.873700,-0.147388,0.833289,0.404210,-0.184429
0.010000,0.304961,0.290545,0.294366,-0.093907,-0.020228,-0.032850,-0.994833,0.070490,0.021554,0.063685,0.092549,0.041267,-0.964458,0.084873,-0.779147,0.072026,-0.000641,0.796808,-0.076900,-0.023128,-0.863006,0.137290,0.064368,0.785333,-0.068588,0.694109,0.589753,0.034331,0.370030,0.625880,0.738190,0.843528,0.730660,-0.015724,0.781794,0.408907,-0.144873
0.012000,0.305086,0.290598,0.294469,-0.094833,-0.020179,-0.032836,-0.994747,0.062339,0.026489,0.051501,-0.033992,0.015737,-0.931291,0.086464,-0.778090,0.072065,0.000384,0.798780,-0.079574,-0.021745,-0.861960,0.137656,0.065577,0.786256,-0.069022,0.795495,0.528397,0.019691,0.512249,0.986240,-1.336684,0.691319,0.523326,0.182897,0.604929,0.461244,-0.216940
0.014000,0.305202,0.290658,0.294573,-0.095740,-0.020155,-0.032806,-0.994661,0.058448,0.029551,0.051970,-0.047841,-0.011095,-0.909866,0.088062,-0.777081,0.072006,0.002086,0.799999,-0.079432,-0.020463,-0.861094,0.138174,0.066671,0.787150,-0.069375,0.799257,0.504509,-0.029694,0.851106,0.609501,0.070718,0.641240,0.432905,0.259109,0.546895,0.447083,-0.176238
0.016000,0.305307,0.290711,0.294666,-0.096608,-0.020151,-0.032827,-0.994577,0.052492,0.026581,0.046555,0.005599,-0.024118,-0.872239,0.089490,-0.776200,0.072006,0.003735,0.801343,-0.080906,-0.019154,-0.860476,0.138945,0.067786,0.787984,-0.069643,0.713997,0.440808,0.000377,0.824705,0.671974,-0.737043,0.654593,0.308850,0.385718,0.557441,0.417144,-0.134420
0.018000,0.305405,0.290753,0.294764,-0.097445,-0.020169,-0.032972,-0.994490,0.048984,0.021240,0.048924,0.132190,-0.032623,-0.843153,0.090616,-0.775397,0.072041,0.005431,0.802090,-0.080441,-0.017647,-0.859970,0.139826,0.069085,0.788665,-0.069681,0.563098,0.401322,0.017605,0.847908,0.373453,0.232480,0.753110,0.253088,0.440207,0.649481,0.340302,-0.019011
0.020000,0.305553,0.290848,0.294922,-0.098380,-0.020046,-0.032791,-0.994406,0.073838,0.047279,0.079299,-0.208088,0.071646,-0.938573,0.092613,-0.774197,0.071981,0.011223,0.798003,-0.056117,-0.016714,-0.858183,0.139339,0.069732,0.788804,-0.069184,0.998436,0.600128,-0.030432,2.896211,-2.043584,12.162286,0.466481,0.893177,-0.243355,0.323348,0.069540,0.248812
0.022000,0.305738,0.290957,0.295090,-0.099362,-0.019660,-0.032249,-0.994334,0.092287,0.054717,0.083675,-0.593898,0.297081,-0.985855,0.095261,-0.772974,0.072657,0.018301,0.793762,-0.032736,-0.016413,-0.854942,0.137406,0.069684,0.788174,-0.068167,1.324125,0.611362,0.338298,3.538787,-2.120354,11.690398,0.150843,1.620653,-0.966385,-0.023679,-0.314917,0.508546
0.024000,0.305937,0.291030,0.295216,-0.100336,-0.018940,-0.031453,-0.994276,0.099594,0.036267,0.063185,-0.880848,0.603970,-0.981503,0.098049,-0.772146,0.074834,0.023600,0.794092,-0.034265,-0.016496,-0.850298,0.134177,0.069212,0.786684,-0.066708,1.393915,0.414059,1.088635,2.649667,0.164960,-0.764367,-0.041528,2.322216,-1.614408,-0.236175,-0.745275,0.729550
0.026000,0.306122,0.291010,0.295338,-0.101303,-0.018105,-0.031058,-0.994206,0.092374,-0.009761,0.061184,-0.492854,0.759379,-0.986933,0.099676,-0.771781,0.078149,0.026119,0.797045,-0.048748,-0.015557,-0.845069,0.130484,0.070083,0.785315,-0.065584,0.813205,0.182645,1.657472,1.259261,1.476553,-7.241816,0.469372,2.614389,-1.846941,0.435324,-0.684384,0.561975
0.028000,0.306275,0.290889,0.295527,-0.102302,-0.017447,-0.031551,-0.994100,0.076642,-0.060374,0.094359,0.409355,0.670533,-1.033670,0.099451,-0.771496,0.081355,0.026955,0.797559,-0.047974,-0.012570,-0.840186,0.127141,0.073541,0.785053,-0.065369,-0.112258,0.142387,1.602772,0.417983,0.256883,0.387306,1.493453,2.441315,-1.671469,1.728921,-0.130738,0.107465
0.030000,0.306414,0.290752,0.295778,-0.103351,-0.016941,-0.032209,-0.993979,0.069373,-0.068768,0.125430,0.587626,0.535967,-1.082427,0.099025,-0.770775,0.083488,0.028282,0.795314,-0.029951,-0.009104,-0.835552,0.123818,0.077492,0.785955,-0.066012,-0.213254,0.360359,1.066609,0.663531,-1.122391,9.011217,1.732829,2.317173,-1.661110,1.975801,0.450731,-0.321480
0.032000,0.306563,0.290681,0.296032,-0.104423,-0.016345,-0.031989,-0.993884,0.074803,-0.035567,0.127180,-0.295066,0.532949,-1.091316,0.100456,-0.769368,0.084476,0.030999,0.794039,-0.015826,-0.007416,-0.830479,0.119681,0.079113,0.787578,-0.067339,0.715482,0.703565,0.493780,1.358322,-0.637741,7.062816,0.844151,2.536373,-2.068577,0.810533,0.811718,-0.663867
0.034000,0.306724,0.290670,0.296261,-0.105467,-0.015571,-0.030831,-0.993823,0.080489,-0.005533,0.114440,-1.247472,0.613870,-1.049481,0.103749,-0.767412,0.084736,0.034202,0.795882,-0.017907,-0.007706,-0.824831,0.114650,0.077574,0.788833,-0.064185,1.646794,0.977793,0.129923,1.601673,0.921840,-1.040487,-0.145145,2.824188,-2.515633,-0.769859,0.627479,1.577445
0.036000,0.306870,0.290647,0.296484,-0.106481,-0.014815,-0.029553,-0.993765,0.072968,-0.011597,0.111553,-1.363174,0.584687,-1.016647,0.107177,-0.765319,0.084555,0.036760,0.798669,-0.024761,-0.008222,-0.819360,0.109649,0.075461,0.790490,-0.060557,1.713966,1.046545,-0.090184,1.278948,1.393457,-3.427250,-0.257988,2.735369,-2.500317,-1.056287,0.828588,1.813681
0.038000,0.306974,0.290530,0.296733,-0.107473,-0.014301,-0.029134,-0.993678,0.052030,-0.058197,0.124583,-0.483556,0.435376,-1.004461,0.108617,-0.763700,0.084467,0.037637,0.799218,-0.019988,-0.006872,-0.814846,0.105671,0.075750,0.793202,-0.059856,0.719913,0.809819,-0.044044,0.438775,0.274112,2.386303,0.675291,2.257226,-1.989114,0.144436,1.355700,0.350820
0.040000,0.307039,0.290309,0.296999,-0.108425,-0.013999,-0.029696,-0.993562,0.032249,-0.110391,0.132735,0.515185,0.330922,-0.975219,0.107699,-0.762873,0.085058,0.036562,0.797647,-0.005431,-0.003444,-0.811223,0.102753,0.078535,0.796203,-0.060331,-0.458801,0.413461,0.295515,-0.537432,-0.785203,7.278879,1.713677,1.811422,-1.459038,1.392644,1.500736,-0.237937
0.042000,0.307102,0.290091,0.297233,-0.109326,-0.013645,-0.030054,-0.993458,0.031717,-0.109144,0.116890,0.308227,0.362288,-0.922506,0.107005,-0.762281,0.085910,0.035558,0.796847,0.002873,-0.000523,-0.807613,0.099807,0.080363,0.798614,-0.060142,-0.347202,0.296060,0.425813,-0.502119,-0.400204,4.152036,1.460524,1.804812,-1.473251,0.914120,1.205436,0.094553
0.044000,0.307182,0.289945,0.297415,-0.110178,-0.013108,-0.029468,-0.993388,0.040047,-0.072973,0.090963,-0.649985,0.443306,-0.861497,0.107272,-0.761087,0.077476,0.036321,0.797910,-0.000464,0.000309,-0.803579,0.096213,0.079192,0.800166,-0.058882,0.133410,0.596665,-4.216657,0.381207,0.531593,-1.668630,0.416155,2.017034,-1.796914,-0.585624,0.775702,0.630366
0.046000,0.307271,0.289826,0.297549,-0.111012,-0.012453,-0.028644,-0.993328,0.044201,-0.059592,0.067277,-0.900335,0.534087,-0.844447,0.108185,-0.761146,0.072646,0.038446,0.798538,-0.003427,0.000543,-0.799308,0.092433,0.077104,0.800936,-0.057062,0.456691,-0.029331,-2.415153,1.062558,0.314103,-1.481706,0.116991,2.135693,-1.889940,-1.044085,0.385160,0.909958
0.048000,0.307350,0.289683,0.297650,-0.111855,-0.011790,-0.028189,-0.993255,0.039671,-0.071614,0.050517,-0.533966,0.582999,-0.857885,0.108701,-0.763125,0.074576,0.041105,0.797217,0.002627,0.001505,-0.795141,0.088970,0.076118,0.801480,-0.056512,0.257730,-0.989705,0.965050,1.329650,-0.660505,3.027353,0.480972,2.083569,-1.731347,-0.492782,0.271974,0.274849
0.050000,0.307416,0.289501,0.297723,-0.112700,-0.011131,-0.028097,-0.993169,0.032878,-0.090678,0.036401,-0.172277,0.619943,-0.866938,0.108231,-0.765895,0.078389,0.043540,0.795056,0.012787,0.003227,-0.791095,0.085805,0.076387,0.801973,-0.057153,-0.234615,-1.384628,1.906256,1.217410,-1.080471,5.079881,0.861313,2.022802,-1.582821,0.134342,0.246762,-0.320619
0.052000,0.307474,0.289300,0.297768,-0.113535,-0.010435,-0.028043,-0.993083,0.029064,-0.100674,0.022418,-0.139318,0.660555,-0.857370,0.107662,-0.768569,0.082781,0.045364,0.794048,0.017489,0.005033,-0.787031,0.082673,0.076908,0.802188,-0.057023,-0.284927,-1.337072,2.196164,0.912115,-0.504060,2.350933,0.902635,2.031940,-1.565957,0.260426,0.107345,0.065229
0.054000,0.307532,0.289113,0.297798,-0.114366,-0.009716,-0.027668,-0.993006,0.028954,-0.093577,0.014992,-0.460783,0.647443,-0.850704,0.108017,-0.770377,0.086457,0.047206,0.794484,0.016099,0.006188,-0.782940,0.079390,0.076732,0.802401,-0.056084,0.177718,-0.904099,1.837870,0.920803,0.217956,-0.695154,0.577762,2.045645,-1.641130,-0.088153,0.106375,0.469426
0.056000,0.307586,0.288942,0.297835,-0.115210,-0.009063,-0.027027,-0.992932,0.027167,-0.085449,0.018800,-0.717121,0.550984,-0.858624,0.109117,-0.771388,0.089095,0.049439,0.795020,0.016048,0.006839,-0.779066,0.076139,0.076119,0.803118,-0.055446,0.550233,-0.505296,1.319265,1.116691,0.268280,-0.025384,0.325380,1.937061,-1.625514,-0.306543,0.358442,0.318859
0.058000,0.307629,0.288761,0.297898,-0.116067,-0.008550,-0.026413,-0.992853,0.021408,-0.090267,0.031395,-0.674044,0.414734,-0.868229,0.110285,-0.771782,0.090738,0.051620,0.794718,0.022021,0.007615,-0.775618,0.073168,0.075861,0.804405,-0.055130,0.583590,-0.197156,0.821540,1.090314,-0.151445,2.986620,0.387952,1.723932,-1.485858,-0.128650,0.643449,0.158055
0.060000,0.307658,0.288552,0.297981,-0.116918,-0.008163,-0.025949,-0.992769,0.014283,-0.104909,0.041199,-0.511384,0.307585,-0.861275,0.111172,-0.771714,0.091625,0.053012,0.794250,0.029813,0.008765,-0.772572,0.070509,0.076210,0.805971,-0.054528,0.443841,0.034139,0.443509,0.696140,-0.234021,3.895753,0.574813,1.522881,-1.329493,0.174477,0.783101,0.301121
0.062000,0.307678,0.288320,0.298065,-0.117751,-0.007824,-0.025470,-0.992686,0.010495,-0.115725,0.042200,-0.519241,0.257947,-0.840813,0.112058,-0.771239,0.091953,0.053587,0.794721,0.033028,0.009931,-0.769697,0.067938,0.076689,0.807536,-0.053580,0.442954,0.237078,0.163816,0.287703,0.235587,1.607595,0.583019,1.437723,-1.285188,0.239510,0.782429,0.473995
0.064000,0.307697,0.288074,0.298146,-0.118563,-0.007509,-0.024938,-0.992605,0.009085,-0.123146,0.040546,-0.569450,0.228962,-0.819465,0.113023,-0.770446,0.091872,0.053713,0.795876,0.032405,0.011011,-0.766906,0.065389,0.077137,0.808913,-0.052341,0.482576,0.396873,-0.040591,0.062633,0.577577,-0.311217,0.540467,1.395272,-1.274489,0.223656,0.688634,0.619297
0.066000,0.307714,0.287819,0.298230,-0.119367,-0.007239,-0.024386,-0.992524,0.008895,-0.127289,0.041946,-0.584040,0.181523,-0.810075,0.114033,-0.769411,0.091411,0.054034,0.796433,0.034082,0.012072,-0.764240,0.062908,0.077641,0.810190,-0.051490,0.504993,0.517248,-0.230569,0.160408,0.278315,0.838082,0.530490,1.333146,-1.240674,0.252362,0.638701,0.425611
0.068000,0.307733,0.287559,0.298314,-0.120163,-0.007010,-0.023834,-0.992443,0.009301,-0.130243,0.042013,-0.578963,0.141642,-0.802013,0.115061,-0.768233,0.090714,0.054798,0.795957,0.039860,0.013142,-0.761687,0.060508,0.078202,0.811289,-0.051030,0.513993,0.589093,-0.348445,0.382466,-0.237789,2.888994,0.535010,1.276479,-1.200164,0.280126,0.549385,0.229995
0.070000,0.307754,0.287296,0.298383,-0.120944,-0.006768,-0.023202,-0.992365,0.010426,-0.131645,0.034626,-0.660009,0.145155,-0.785764,0.116259,-0.766984,0.090002,0.055900,0.795309,0.045245,0.014042,-0.759110,0.058069,0.078551,0.812046,-0.050616,0.598683,0.624270,-0.355913,0.550908,-0.323971,2.692768,0.449805,1.288218,-1.219070,0.174937,0.378436,0.206792
0.072000,0.307778,0.287063,0.298421,-0.121796,-0.006468,-0.022117,-0.992288,0.011956,-0.116476,0.019145,-1.117215,0.145874,-0.854728,0.118814,-0.765684,0.090432,0.057949,0.794879,0.050437,0.014120,-0.756267,0.055258,0.079452,0.815078,-0.060203,1.277628,0.650068,0.214735,1.024367,-0.214979,2.596013,0.038746,1.421477,-1.405719,0.450139,1.516150,-4.793253
0.074000,0.307803,0.286805,0.298451,-0.122647,-0.006066,-0.021171,-0.992206,0.012441,-0.128715,0.014671,-0.990894,0.264262,-0.856276,0.120979,-0.764435,0.092303,0.059278,0.794799,0.053122,0.014475,-0.752997,0.052085,0.080877,0.817151,-0.065824,1.082651,0.624784,0.935791,0.664446,-0.039814,1.342648,0.177710,1.635180,-1.586597,0.712910,1.036617,-2.810490
0.076000,0.307814,0.286510,0.298464,-0.123475,-0.005613,-0.020568,-0.992119,0.005406,-0.147456,0.006573,-0.657339,0.357807,-0.838934,0.122369,-0.764028,0.097403,0.059481,0.794792,0.054886,0.015503,-0.749597,0.048907,0.082924,0.818271,-0.065974,0.694657,0.203484,2.549700,0.101689,-0.003618,0.881720,0.513805,1.700085,-1.588730,1.023203,0.559736,-0.075145
0.078000,0.307812,0.286215,0.298468,-0.124287,-0.005155,-0.019935,-0.992033,-0.000587,-0.147608,0.001939,-0.687585,0.358635,-0.821790,0.123427,-0.763538,0.099609,0.059582,0.794531,0.058148,0.016444,-0.746263,0.045742,0.084683,0.819187,-0.063353,0.529353,0.244683,1.103220,0.050461,-0.130363,1.631279,0.470706,1.667097,-1.582882,0.879362,0.458214,1.310403
0.080000,0.307780,0.285953,0.298402,-0.125138,-0.004764,-0.018944,-0.991947,-0.015969,-0.131138,-0.032684,-1.034344,0.247776,-0.857639,0.125826,-0.764798,0.106103,0.060438,0.794427,0.062908,0.016740,-0.743481,0.043077,0.086736,0.823700,-0.073420,1.199209,-0.629868,3.247129,0.427760,-0.052231,2.379967,0.147925,1.390653,-1.332341,1.026484,2.256453,-5.033202
0.082000,0.307731,0.285703,0.298303,-0.125961,-0.004379,-0.017778,-0.991866,-0.024687,-0.124682,-0.049620,-1.206729,0.220168,-0.828131,0.128203,-0.766460,0.110637,0.061393,0.794551,0.066979,0.016646,-0.740954,0.040607,0.088075,0.828726,-0.083471,1.188772,-0.830715,2.266720,0.477753,0.061869,2.035216,-0.046708,1.263700,-1.234812,0.669543,2.512841,-5.025731
0.084000,0.307651,0.285449,0.298134,-0.126765,-0.004001,-0.016654,-0.991785,-0.039807,-0.127100,-0.084466,-1.164781,0.218034,-0.809658,0.130788,-0.770407,0.122173,0.061998,0.795113,0.069267,0.016633,-0.738808,0.038632,0.089548,0.835147,-0.097104,1.292112,-1.973903,5.767941,0.302288,0.280922,1.144118,-0.006797,1.073262,-0.987460,0.736586,3.210542,-6.816263
0.086000,0.307559,0.285171,0.297958,-0.127492,-0.003605,-0.015741,-0.991708,-0.046054,-0.139261,-0.088324,-0.957234,0.264825,-0.733676,0.131802,-0.774226,0.129411,0.061899,0.795348,0.071656,0.016950,-0.736733,0.036758,0.090106,0.839761,-0.101002,0.507434,-1.909434,3.619099,-0.049466,0.117823,1.194652,0.158760,1.037426,-0.936939,0.278974,2.307235,-1.949102
0.088000,0.307439,0.284887,0.297712,-0.128225,-0.003252,-0.014840,-0.991629,-0.060293,-0.141695,-0.122977,-0.939600,0.223819,-0.739547,0.132948,-0.780047,0.142772,0.061847,0.795362,0.075448,0.017354,-0.735099,0.035437,0.091244,0.846754,-0.113231,0.572822,-2.910218,6.680630,-0.025818,0.006710,1.895701,0.201676,0.817004,-0.660804,0.568987,3.496433,-6.114639
0.090000,0.307314,0.284610,0.297445,-0.128926,-0.002873,-0.013766,-0.991554,-0.062183,-0.138589,-0.133452,-1.114724,0.226915,-0.706649,0.133431,-0.785392,0.151123,0.062153,0.795111,0.079563,0.017382,-0.733480,0.034073,0.091463,0.853734,-0.124242,0.241376,-2.672545,4.175588,0.152914,-0.125073,2.057595,0.013912,0.809429,-0.682077,0.109566,3.489592,-5.505560
0.092000,0.307177,0.284349,0.297099,-0.129652,-0.002460,-0.012442,-0.991478,-0.068923,-0.130445,-0.173090,-1.367618,0.228749,-0.731835,0.134827,-0.792681,0.167087,0.063130,0.795126,0.082424,0.016969,-0.731987,0.032918,0.091937,0.863317,-0.145610,0.698328,-3.644818,7.982156,0.488707,0.007169,1.430288,-0.206294,0.746536,-0.577370,0.237155,4.791837,-10.683919
0.094000,0.307043,0.284074,0.296743,-0.130330,-0.001935,-0.011152,-0.991406,-0.066541,-0.137371,-0.177894,-1.347574,0.344531,-0.684640,0.134975,-0.799355,0.178988,0.064326,0.795737,0.083301,0.016559,-0.730116,0.031413,0.091371,0.871067,-0.158410,0.073579,-3.336843,5.950339,0.597846,0.305413,0.438474,-0.205041,0.935302,-0.752465,-0.283251,3.874899,-6.399809
0.096000,0.306895,0.283778,0.296333,-0.131023,-0.001382,-0.010018,-0.991328,-0.074063,-0.148453,-0.205123,-1.196861,0.393038,-0.701130,0.134930,-0.807658,0.197673,0.065513,0.797061,0.082531,0.016535,-0.728272,0.030115,0.091681,0.880089,-0.175971,-0.022526,-4.151246,9.342597,0.593530,0.662268,-0.384507,-0.012141,0.921945,-0.648975,0.155217,4.511194,-8.780579
0.098000,0.306746,0.283456,0.295934,-0.131692,-0.000818,-0.009049,-0.991249,-0.074619,-0.160936,-0.199259,-1.035083,0.425182,-0.677446,0.133438,-0.815111,0.210557,0.066550,0.798663,0.080843,0.016846,-0.726314,0.028708,0.091762,0.888158,-0.188434,-0.745846,-3.726657,6.441650,0.518467,0.800996,-0.844287,0.155508,0.978934,-0.703687,0.040644,4.034090,-6.231565
0.100000,0.306581,0.283122,0.295502,-0.132404,-0.000334,-0.008196,-0.991162,-0.082411,-0.166689,-0.216077,-0.909177,0.360743,-0.721271,0.132291,-0.824117,0.229327,0.067585,0.800678,0.078548,0.017511,-0.724691,0.027739,0.093148,0.898603,-0.210437,-0.573466,-4.503058,9.385129,0.517615,1.007298,-1.147674,0.332836,0.811764,-0.484136,0.692658,5.222473,-11.001457
0.102000,0.306421,0.282788,0.295104,-0.133106,0.000099,-0.007414,-0.991074,-0.079915,-0.167028,-0.198974,-0.831847,0.319626,-0.711063,0.130662,-0.832617,0.243873,0.068632,0.802696,0.076140,0.018299,-0.723121,0.026749,0.093951,0.908299,-0.228073,-0.814239,-4.250058,7.273058,0.523410,1.008897,-1.203915,0.393860,0.784897,-0.495124,0.401614,4.848252,-8.817994
0.104000,0.306262,0.282474,0.294707,-0.133841,0.000445,-0.006599,-0.990981,-0.079579,-0.157014,-0.198344,-0.853012,0.228866,-0.743215,0.130221,-0.842595,0.264186,0.069958,0.804841,0.073709,0.019044,-0.721829,0.026020,0.094814,0.919212,-0.250449,-0.220773,-4.988719,10.156649,0.662994,1.072650,-1.215445,0.372668,0.645828,-0.364386,0.431299,5.456396,-11.188024
0.106000,0.306118,0.282174,0.294370,-0.134562,0.000719,-0.005807,-0.990888,-0.072270,-0.150158,-0.168514,-0.820074,0.161261,-0.728619,0.129687,-0.852023,0.280282,0.071360,0.806754,0.071671,0.019771,-0.720578,0.025184,0.094460,0.928796,-0.266392,-0.266923,-4.714376,8.047836,0.700801,0.956490,-1.019023,0.363544,0.625889,-0.418115,-0.176635,4.792083,-7.971507
0.108000,0.305979,0.281883,0.294052,-0.135308,0.000884,-0.005072,-0.990790,-0.069263,-0.145508,-0.159319,-0.749779,0.060204,-0.754301,0.129895,-0.862471,0.300456,0.072789,0.808597,0.069977,0.020636,-0.719598,0.024603,0.094280,0.939239,-0.286989,0.103948,-5.223661,10.087091,0.714718,0.921625,-0.847071,0.432379,0.489963,-0.290686,-0.090124,5.221367,-10.298364
0.110000,0.305855,0.281587,0.293789,-0.136049,0.000960,-0.004472,-0.990692,-0.062106,-0.148012,-0.131202,-0.603474,-0.009747,-0.748483,0.129557,-0.872270,0.316818,0.074007,0.810145,0.068825,0.021754,-0.718681,0.023999,0.093662,0.948868,-0.305051,-0.169012,-4.899631,8.180794,0.608796,0.773760,-0.575960,0.559013,0.458392,-0.301717,-0.309017,4.814737,-9.031164
0.112000,0.305740,0.281281,0.293552,-0.136808,0.000936,-0.004067,-0.990589,-0.057420,-0.152971,-0.118617,-0.396953,-0.081840,-0.766419,0.129226,-0.882687,0.336423,0.074914,0.811503,0.068119,0.023290,-0.717939,0.023603,0.093519,0.958886,-0.327128,-0.165636,-5.208623,9.802397,0.453718,0.678989,-0.352766,0.768073,0.371092,-0.198046,-0.071629,5.008802,-11.038453
0.114000,0.305644,0.280968,0.293371,-0.137561,0.000852,-0.003810,-0.990486,-0.048280,-0.156238,-0.090269,-0.241806,-0.121340,-0.759468,0.128242,-0.892467,0.353333,0.075568,0.812538,0.067923,0.025087,-0.717138,0.023085,0.092844,0.967780,-0.345712,-0.491720,-4.889865,8.455427,0.326851,0.517664,-0.098115,0.898472,0.400301,-0.259272,-0.337282,4.447332,-9.291727
0.116000,0.305565,0.280662,0.293224,-0.138321,0.000712,-0.003599,-0.990381,-0.039537,-0.153145,-0.073544,-0.188484,-0.170980,-0.766875,0.127366,-0.902519,0.372177,0.076200,0.813394,0.068081,0.026948,-0.716351,0.022548,0.091800,0.976398,-0.365322,-0.438193,-5.025820,9.421888,0.316020,0.428135,0.079193,0.930528,0.393473,-0.268187,-0.521982,4.308843,-9.805394
0.118000,0.305506,0.280370,0.293129,-0.139084,0.000529,-0.003336,-0.990275,-0.029228,-0.146151,-0.047794,-0.234118,-0.219527,-0.770313,0.126364,-0.912019,0.388754,0.076990,0.814039,0.068645,0.028659,-0.715475,0.021803,0.089910,0.984330,-0.382800,-0.500967,-4.750231,8.288497,0.395066,0.322445,0.281841,0.855492,0.438095,-0.372722,-0.945226,3.966123,-8.739021
0.120000,0.305463,0.280085,0.293065,-0.139853,0.000301,-0.003076,-0.990167,-0.021283,-0.142313,-0.031906,-0.225515,-0.265113,-0.775696,0.125268,-0.921593,0.405889,0.077819,0.814545,0.069509,0.030345,-0.714601,0.021014,0.087611,0.992029,-0.401175,-0.547733,-4.786847,8.567638,0.414503,0.252923,0.432141,0.842573,0.436738,-0.394359,-1.149617,3.849082,-9.187303
0.122000,0.305435,0.279803,0.293039,-0.140632,0.000036,-0.002840,-0.990058,-0.014427,-0.140970,-0.012959,-0.196272,-0.297210,-0.785188,0.123800,-0.930856,0.421813,0.078629,0.814897,0.070679,0.032060,-0.713664,0.020104,0.085085,0.999447,-0.418840,-0.734034,-4.631808,7.961785,0.405133,0.175927,0.584623,0.857885,0.468834,-0.455115,-1.262958,3.709229,-8.832243
0.124000,0.305417,0.279514,0.293040,-0.141401,-0.000251,-0.002722,-0.989949,-0.008729,-0.144672,0.000468,-0.075338,-0.303585,-0.776507,0.121567,-0.940070,0.437334,0.079202,0.815105,0.072031,0.033973,-0.712683,0.019158,0.082297,1.006165,-0.435185,-1.116779,-4.606841,7.760711,0.286406,0.104214,0.675970,0.956563,0.490429,-0.472838,-1.393779,3.358907,-8.172903
0.126000,0.305411,0.279228,0.293066,-0.142178,-0.000550,-0.002611,-0.989837,-0.003162,-0.143189,0.013133,-0.068060,-0.313448,-0.784132,0.118987,-0.949148,0.452301,0.079783,0.815245,0.073498,0.035873,-0.711615,0.018096,0.079380,1.012656,-0.450921,-1.290057,-4.539072,7.483173,0.290625,0.069710,0.733819,0.949852,0.534211,-0.531393,-1.458474,3.245644,-7.867962
0.128000,0.305417,0.278942,0.293114,-0.142934,-0.000841,-0.002521,-0.989729,0.003306,-0.142758,0.023964,-0.048022,-0.302962,-0.762621,0.115621,-0.957977,0.465425,0.080306,0.815314,0.074963,0.037740,-0.710457,0.016930,0.075746,1.018089,-0.464031,-1.682753,-4.414197,6.562339,0.261390,0.034839,0.732261,0.933609,0.578552,-0.583007,-1.817124,2.716653,-6.554906
0.130000,0.305436,0.278670,0.293174,-0.143700,-0.001125,-0.002318,-0.989618,0.009208,-0.135820,0.030151,-0.160556,-0.311806,-0.772972,0.112327,-0.966799,0.478686,0.081080,0.815428,0.076371,0.039351,-0.709221,0.015648,0.071945,1.023541,-0.478165,-1.646847,-4.411088,6.630132,0.386924,0.056782,0.703967,0.805261,0.618419,-0.640513,-1.900668,2.725599,-7.066947
0.132000,0.305468,0.278402,0.293252,-0.144434,-0.001387,-0.002099,-0.989511,0.016048,-0.134241,0.038853,-0.179523,-0.292431,-0.741100,0.108148,-0.975159,0.489006,0.081854,0.815500,0.077686,0.040836,-0.707891,0.014257,0.067220,1.027629,-0.489116,-2.089781,-4.180063,5.160340,0.386838,0.036114,0.657658,0.742365,0.664637,-0.695709,-2.362407,2.043993,-5.475707
0.134000,0.305509,0.278139,0.293334,-0.145178,-0.001642,-0.001843,-0.989402,0.020553,-0.131264,0.040963,-0.216776,-0.291501,-0.750915,0.103963,-0.983598,0.500460,0.082718,0.815609,0.078932,0.042226,-0.706517,0.012836,0.062702,1.031708,-0.501612,-2.092525,-4.219338,5.726747,0.432303,0.054468,0.623247,0.695128,0.687183,-0.710386,-2.258809,2.039661,-6.247955
0.136000,0.305561,0.277868,0.293434,-0.145878,-0.001880,-0.001696,-0.989299,0.025989,-0.135899,0.049713,-0.111942,-0.257981,-0.706535,0.098400,-0.991340,0.508237,0.083308,0.815604,0.080142,0.043733,-0.705077,0.011374,0.057364,1.033936,-0.509117,-2.781584,-3.871015,3.888647,0.295011,-0.002341,0.605036,0.753739,0.719878,-0.731151,-2.668866,1.114051,-3.752479
0.138000,0.305621,0.277603,0.293532,-0.146589,-0.002118,-0.001507,-0.989194,0.029784,-0.132149,0.049348,-0.153533,-0.264813,-0.718156,0.093020,-0.999163,0.517703,0.084002,0.815646,0.081303,0.045141,-0.703645,0.009944,0.052383,1.036253,-0.518786,-2.689643,-3.911970,4.733136,0.346767,0.020651,0.580280,0.703753,0.715867,-0.714825,-2.490867,1.158685,-4.834385
0.140000,0.305692,0.277339,0.293648,-0.147252,-0.002341,-0.001338,-0.989095,0.035659,-0.131929,0.058063,-0.135763,-0.246018,-0.670077,0.086470,-1.006042,0.522525,0.084597,0.815597,0.082432,0.046477,-0.702186,0.008472,0.046300,1.036672,-0.523162,-3.275061,-3.439483,2.410769,0.297398,-0.024410,0.564589,0.667866,0.729772,-0.736377,-3.041161,0.209112,-2.187791
0.142000,0.305771,0.277092,0.293760,-0.147933,-0.002571,-0.001048,-0.988993,0.039353,-0.123587,0.055645,-0.254352,-0.271499,-0.687759,0.080570,-1.013019,0.529607,0.085464,0.815635,0.083521,0.047561,-0.700786,0.007060,0.040591,1.037452,-0.530786,-2.950253,-3.488202,3.540944,0.433616,0.018884,0.544552,0.542108,0.700104,-0.705712,-2.854641,0.390289,-3.811971
0.144000,0.305860,0.276847,0.293889,-0.148563,-0.002792,-0.000770,-0.988899,0.044621,-0.122679,0.064895,-0.244338,-0.260920,-0.635965,0.073508,-1.018845,0.531344,0.086243,0.815570,0.084623,0.048554,-0.699392,0.005624,0.033715,1.036263,-0.532466,-3.530988,-2.913302,0.868345,0.389349,-0.032255,0.550994,0.496800,0.696959,-0.718071,-3.437884,-0.594721,-0.840393
0.146000,0.305953,0.276611,0.294012,-0.149212,-0.003033,-0.000446,-0.988800,0.046626,-0.117846,0.061440,-0.286052,-0.287477,-0.655343,0.067067,-1.024797,0.536015,0.087137,0.815559,0.085752,0.049465,-0.698095,0.004314,0.027535,1.035486,-0.537423,-3.220611,-2.976004,2.335572,0.447160,-0.005409,0.564532,0.455521,0.648222,-0.654781,-3.090265,-0.388199,-2.478127
0.148000,0.306054,0.276368,0.294154,-0.149807,-0.003276,-0.000226,-0.988710,0.050183,-0.121575,0.070805,-0.182710,-0.273196,-0.600644,0.059225,-1.029481,0.535291,0.087745,0.815397,0.086963,0.050483,-0.696829,0.003030,0.020443,1.032663,-0.535660,-3.920588,-2.341997,-0.361649,0.303953,-0.080964,0.605334,0.508743,0.632969,-0.642324,-3.545885,-1.411665,0.881361
0.150000,0.306157,0.276136,0.294286,-0.150423,-0.003543,0.000057,-0.988615,0.051622,-0.115885,0.065901,-0.242475,-0.307045,-0.622612,0.052200,-1.034316,0.537837,0.088508,0.815307,0.088204,0.051389,-0.695682,0.001888,0.014136,1.030405,-0.537797,-3.512839,-2.417464,1.272909,0.381457,-0.045389,0.620419,0.453255,0.573483,-0.571047,-3.153249,-1.128879,-1.068352
0.152000,0.306269,0.275908,0.294435,-0.150991,-0.003802,0.000359,-0.988528,0.056150,-0.114243,0.074626,-0.261212,-0.301569,-0.573422,0.044192,-1.037824,0.534748,0.089240,0.815125,0.089464,0.052163,-0.694531,0.000688,0.006787,1.026351,-0.534101,-4.004067,-1.754059,-1.544435,0.365984,-0.090540,0.630243,0.386614,0.575595,-0.599825,-3.674637,-2.027147,1.847864
0.154000,0.306385,0.275694,0.294573,-0.151583,-0.004077,0.000772,-0.988436,0.057895,-0.106714,0.068937,-0.369405,-0.334174,-0.597893,0.037222,-1.041524,0.535025,0.090227,0.815044,0.090709,0.052734,-0.693463,-0.000423,0.000158,1.022943,-0.534564,-3.484556,-1.849618,0.138311,0.493683,-0.040583,0.622401,0.285935,0.534271,-0.555761,-3.314836,-1.704003,-0.231714
0.156000,0.306507,0.275477,0.294727,-0.152125,-0.004342,0.001146,-0.988351,0.061198,-0.108546,0.077259,-0.331554,-0.319047,-0.547283,0.029130,-1.043900,0.529681,0.091061,0.814853,0.091977,0.053300,-0.692371,-0.001596,-0.007350,1.017728,-0.528655,-4.046110,-1.188288,-2.671885,0.416811,-0.095513,0.633954,0.282600,0.545803,-0.586461,-3.753747,-2.607254,2.954582
0.158000,0.306630,0.275266,0.294869,-0.152689,-0.004625,0.001547,-0.988262,0.061505,-0.105810,0.070638,-0.355654,-0.339725,-0.569268,0.021856,-1.046535,0.527898,0.091970,0.814733,0.093238,0.053845,-0.691352,-0.002661,-0.013959,1.013091,-0.526399,-3.637055,-1.317250,-0.891811,0.454442,-0.059907,0.630430,0.272848,0.509433,-0.532310,-3.304530,-2.318938,1.127950
0.160000,0.306757,0.275047,0.295020,-0.153211,-0.004903,0.001883,-0.988180,0.063169,-0.109309,0.075574,-0.291839,-0.326067,-0.527128,0.013624,-1.048095,0.521795,0.092680,0.814527,0.094512,0.054461,-0.690332,-0.003742,-0.021095,1.007051,-0.519017,-4.115964,-0.780117,-3.051457,0.355016,-0.103181,0.636849,0.307628,0.510204,-0.540606,-3.567781,-3.019927,3.691033
0.162000,0.306882,0.274838,0.295154,-0.153755,-0.005197,0.002300,-0.988093,0.062880,-0.104385,0.067166,-0.370246,-0.354241,-0.549645,0.006374,-1.049996,0.519076,0.093574,0.814435,0.095738,0.054951,-0.689402,-0.004716,-0.027479,1.001775,-0.515696,-3.625274,-0.950415,-1.359282,0.447121,-0.045945,0.613285,0.244956,0.465074,-0.487048,-3.192122,-2.638076,1.660313
0.164000,0.307010,0.274632,0.295292,-0.154264,-0.005490,0.002756,-0.988011,0.063680,-0.103162,0.068887,-0.408440,-0.358375,-0.513601,-0.001413,-1.051035,0.512360,0.094483,0.814338,0.096923,0.055314,-0.688512,-0.005696,-0.034502,0.995576,-0.508615,-3.893135,-0.519484,-3.358260,0.454762,-0.048653,0.592160,0.181708,0.444749,-0.489665,-3.511733,-3.099288,3.540641
0.166000,0.307134,0.274433,0.295412,-0.154787,-0.005798,0.003276,-0.987925,0.062180,-0.099504,0.060122,-0.468735,-0.383873,-0.528426,-0.008421,-1.052412,0.508256,0.095527,0.814350,0.098052,0.055585,-0.687726,-0.006557,-0.040982,0.990045,-0.504461,-3.504000,-0.688524,-2.051744,0.521672,0.006177,0.564566,0.135366,0.393251,-0.430498,-3.240054,-2.765371,2.076997
0.168000,0.307255,0.274228,0.295526,-0.155285,-0.006115,0.003748,-0.987844,0.060407,-0.102356,0.056985,-0.420883,-0.384608,-0.502339,-0.015925,-1.053384,0.502279,0.096422,0.814364,0.099144,0.055932,-0.687017,-0.007329,-0.047667,0.984031,-0.497720,-3.752330,-0.485837,-2.988404,0.447740,0.007021,0.546360,0.173404,0.354180,-0.386400,-3.342188,-3.006945,3.370373
0.170000,0.307370,0.274024,0.295621,-0.155792,-0.006449,0.004220,-0.987760,0.057415,-0.102324,0.047214,-0.417496,-0.402360,-0.512576,-0.022979,-1.054746,0.498631,0.097313,0.814466,0.100188,0.056319,-0.686419,-0.007954,-0.053815,0.978651,-0.493183,-3.526664,-0.681383,-1.824227,0.445183,0.051016,0.522010,0.193556,0.299314,-0.312494,-3.074088,-2.690153,2.268675
0.172000,0.307478,0.273819,0.295697,-0.156289,-0.006800,0.004702,-0.987677,0.054071,-0.102534,0.038001,-0.425394,-0.419668,-0.502078,-0.030105,-1.056224,0.494918,0.098189,0.814653,0.101150,0.056698,-0.685954,-0.008427,-0.060011,0.973532,-0.488898,-3.563377,-0.738678,-1.856265,0.438435,0.093433,0.480743,0.189643,0.232176,-0.236326,-3.097767,-2.559738,2.142415
0.174000,0.307579,0.273617,0.295754,-0.156787,-0.007164,0.005229,-0.987593,0.050727,-0.100892,0.028592,-0.467453,-0.439966,-0.503272,-0.036973,-1.058024,0.491972,0.099140,0.814942,0.102033,0.057015,-0.685601,-0.008780,-0.066119,0.968973,-0.485815,-3.434077,-0.900283,-1.473402,0.475397,0.144625,0.441648,0.158334,0.176476,-0.176447,-3.054201,-2.279483,1.541515
0.176000,0.307680,0.273410,0.295815,-0.157258,-0.007518,0.005753,-0.987512,0.050492,-0.103321,0.030544,-0.465254,-0.429801,-0.476249,-0.044428,-1.059160,0.485336,0.100033,0.815195,0.102892,0.057315,-0.685210,-0.009208,-0.072634,0.963820,-0.479128,-3.727143,-0.568039,-3.317825,0.446113,0.126201,0.429558,0.150383,0.195884,-0.213925,-3.257583,-2.576371,3.343437
0.178000,0.307783,0.273202,0.295871,-0.157733,-0.007859,0.006294,-0.987430,0.051270,-0.104160,0.027928,-0.484518,-0.420137,-0.479601,-0.051665,-1.060244,0.479189,0.100958,0.815458,0.103699,0.057597,-0.684745,-0.009707,-0.078951,0.958745,-0.472591,-3.618603,-0.542077,-3.073697,0.462799,0.131800,0.403268,0.141065,0.232461,-0.249575,-3.158569,-2.537204,3.268637
0.180000,0.307895,0.272984,0.295946,-0.158186,-0.008165,0.006811,-0.987352,0.055982,-0.109128,0.037467,-0.466872,-0.381265,-0.457868,-0.059479,-1.060111,0.469208,0.101803,0.815591,0.104517,0.057896,-0.684047,-0.010482,-0.085443,0.952613,-0.461763,-3.906946,0.066846,-4.990503,0.422231,0.066051,0.408920,0.149144,0.348622,-0.387507,-3.245879,-3.066233,5.414116
0.182000,0.308017,0.272766,0.296018,-0.158669,-0.008446,0.007394,-0.987268,0.060857,-0.108593,0.036040,-0.535763,-0.366940,-0.486387,-0.066384,-1.059937,0.462284,0.102818,0.815734,0.105283,0.058103,-0.683172,-0.011426,-0.091229,0.946813,-0.454150,-3.452658,0.087070,-3.461908,0.507794,0.071739,0.383064,0.103596,0.437893,-0.472089,-2.892932,-2.900225,3.806236
0.184000,0.308152,0.272542,0.296118,-0.159134,-0.008692,0.008006,-0.987186,0.067726,-0.112142,0.050309,-0.570044,-0.337305,-0.469047,-0.073552,-1.058186,0.450999,0.103858,0.815724,0.106118,0.058221,-0.682040,-0.012705,-0.097072,0.939909,-0.442891,-3.584122,0.875432,-5.642217,0.520156,-0.004954,0.417574,0.058977,0.565688,-0.639225,-2.921650,-3.451627,5.629791
0.186000,0.308296,0.272317,0.296222,-0.159624,-0.008928,0.008664,-0.987099,0.072088,-0.112403,0.051666,-0.616033,-0.335090,-0.493979,-0.079697,-1.056285,0.442364,0.105014,0.815692,0.106990,0.058285,-0.680794,-0.014096,-0.102137,0.933239,-0.434421,-3.072297,0.950422,-4.317793,0.577980,-0.015917,0.435846,0.032122,0.623390,-0.695760,-2.532228,-3.335388,4.235019
0.188000,0.308449,0.272078,0.296360,-0.160082,-0.009154,0.009252,-0.987018,0.076523,-0.119863,0.069334,-0.549898,-0.313594,-0.461714,-0.086318,-1.052639,0.428241,0.105966,0.815438,0.108056,0.058442,-0.679395,-0.015710,-0.107195,0.925153,-0.419992,-3.310506,1.823165,-7.061241,0.475790,-0.127224,0.533136,0.078222,0.699197,-0.806761,-2.529287,-4.042836,7.214328
0.190000,0.308605,0.271837,0.296498,-0.160562,-0.009397,0.009853,-0.986932,0.078153,-0.120488,0.068720,-0.558907,-0.331756,-0.484570,-0.091720,-1.049071,0.417408,0.106954,0.815175,0.109217,0.058615,-0.678024,-0.017277,-0.111365,0.917452,-0.408447,-2.700833,1.783617,-5.416814,0.493933,-0.131486,0.580324,0.086567,0.685715,-0.783762,-2.084939,-3.850339,5.772360
0.192000,0.308766,0.271587,0.296664,-0.161012,-0.009651,0.010443,-0.986850,0.080301,-0.124704,0.083164,-0.546673,-0.342240,-0.453508,-0.097189,-1.043931,0.401399,0.107844,0.814761,0.110577,0.058772,-0.676649,-0.018933,-0.115540,0.908704,-0.392175,-2.734816,2.570368,-8.004432,0.445121,-0.206915,0.680112,0.078534,0.687421,-0.827814,-2.087249,-4.374143,8.136375
0.194000,0.308925,0.271340,0.296819,-0.161485,-0.009940,0.011076,-0.986763,0.079629,-0.123512,0.077530,-0.583837,-0.383160,-0.478096,-0.101221,-1.039095,0.389275,0.108827,0.814414,0.112001,0.058894,-0.675428,-0.020408,-0.118830,0.900688,-0.380137,-2.015759,2.417987,-6.061946,0.491299,-0.173635,0.711930,0.061208,0.610641,-0.737653,-1.645400,-4.007736,6.018911
0.196000,0.309085,0.271083,0.296996,-0.161921,-0.010250,0.011677,-0.986681,0.079886,-0.128789,0.088282,-0.547659,-0.399130,-0.440536,-0.105420,-1.032761,0.371989,0.109652,0.813950,0.113584,0.059046,-0.674278,-0.021876,-0.122150,0.891661,-0.363216,-2.099348,3.166597,-8.642666,0.412603,-0.231950,0.791866,0.075807,0.574622,-0.733999,-1.659890,-4.513949,8.460482
0.198000,0.309241,0.270821,0.297155,-0.162369,-0.010595,0.012256,-0.986597,0.077796,-0.130709,0.079516,-0.521429,-0.429917,-0.454210,-0.108571,-1.026735,0.358302,0.110421,0.813563,0.115165,0.059283,-0.673309,-0.023103,-0.124661,0.883176,-0.349401,-1.575874,3.013142,-6.843932,0.384784,-0.193306,0.790411,0.118672,0.484787,-0.613507,-1.255364,-4.242489,6.907514
0.200000,0.309396,0.270543,0.297329,-0.162773,-0.010956,0.012750,-0.986520,0.077430,-0.138912,0.087392,-0.434012,-0.431370,-0.410343,-0.112199,-1.019205,0.339453,0.110911,0.813078,0.116812,0.059652,-0.672397,-0.024305,-0.127185,0.873538,-0.329903,-1.813767,3.765198,-9.424149,0.244710,-0.242661,0.823437,0.184468,0.456055,-0.600842,-1.262136,-4.818612,9.749135
0.202000,0.309547,0.270266,0.297479,-0.163194,-0.011336,0.013282,-0.986439,0.075919,-0.138748,0.074975,-0.468275,-0.457228,-0.427252,-0.114756,-1.012018,0.324358,0.111467,0.812743,0.118322,0.059992,-0.671627,-0.025305,-0.129037,0.864590,-0.314237,-1.278552,3.593520,-7.547630,0.278106,-0.167709,0.754759,0.169915,0.384750,-0.500059,-0.925860,-4.473948,7.832790
0.204000,0.309701,0.269984,0.297637,-0.163583,-0.011714,0.013866,-0.986363,0.076873,-0.141129,0.078645,-0.519755,-0.464209,-0.394863,-0.117384,-1.003488,0.304729,0.112039,0.812425,0.119746,0.060198,-0.670876,-0.026347,-0.131082,0.854882,-0.294886,-1.313856,4.265104,-9.814619,0.286074,-0.158821,0.712322,0.102961,0.375799,-0.520929,-1.022726,-4.854446,9.675337
0.206000,0.309852,0.269702,0.297766,-0.163991,-0.012101,0.014495,-0.986281,0.075597,-0.140911,0.064636,-0.563240,-0.479505,-0.413648,-0.119050,-0.995371,0.288857,0.112688,0.812311,0.120930,0.060362,-0.670217,-0.027232,-0.132520,0.845884,-0.279366,-0.833290,4.058269,-7.935926,0.324379,-0.056706,0.591880,0.082213,0.329188,-0.442415,-0.718635,-4.498588,7.760338
0.208000,0.310004,0.269405,0.297900,-0.164366,-0.012483,0.015059,-0.986205,0.075801,-0.148481,0.067138,-0.499295,-0.465035,-0.380750,-0.121140,-0.986114,0.269086,0.113138,0.812133,0.122092,0.060633,-0.669537,-0.028146,-0.133913,0.835990,-0.259311,-1.045114,4.628541,-9.885364,0.224957,-0.089426,0.580815,0.135299,0.339922,-0.457006,-0.696816,-4.947014,10.027112
0.210000,0.310152,0.269103,0.298008,-0.164755,-0.012871,0.015606,-0.986127,0.074046,-0.151088,0.053744,-0.481775,-0.467944,-0.395323,-0.122613,-0.977294,0.252567,0.113569,0.812052,0.123128,0.060984,-0.668922,-0.028914,-0.134676,0.826656,-0.242022,-0.736362,4.409922,-8.259596,0.215413,-0.040512,0.518314,0.175322,0.307488,-0.384232,-0.381359,-4.667367,8.644926
0.212000,0.310300,0.268792,0.298117,-0.165121,-0.013256,0.016159,-0.986052,0.074119,-0.155156,0.054427,-0.487394,-0.465593,-0.372331,-0.124255,-0.967565,0.232525,0.113969,0.811940,0.124155,0.061313,-0.668297,-0.029719,-0.135462,0.816789,-0.221664,-0.820780,4.864669,-10.021232,0.199979,-0.055926,0.513512,0.164711,0.312438,-0.402279,-0.392958,-4.933069,10.178978
0.214000,0.310446,0.268484,0.298198,-0.165506,-0.013644,0.016772,-0.985972,0.072613,-0.153902,0.040845,-0.547472,-0.478643,-0.391480,-0.125117,-0.958355,0.215439,0.114525,0.811951,0.125066,0.061568,-0.667738,-0.030408,-0.135828,0.807693,-0.204731,-0.430992,4.605101,-8.542911,0.278161,0.005774,0.455508,0.127725,0.279611,-0.344824,-0.182881,-4.548431,8.466148
0.216000,0.310591,0.268173,0.298278,-0.165877,-0.014027,0.017418,-0.985893,0.072697,-0.155900,0.040024,-0.579591,-0.479357,-0.375843,-0.125966,-0.948530,0.195735,0.115122,0.811952,0.125964,0.061756,-0.667169,-0.031135,-0.136266,0.798265,-0.185437,-0.424835,4.912416,-9.851796,0.298647,0.000219,0.448758,0.093761,0.284848,-0.363136,-0.219169,-4.713830,9.647060
0.218000,0.310732,0.267857,0.298334,-0.166259,-0.014415,0.018048,-0.985812,0.070736,-0.157812,0.027952,-0.564054,-0.481439,-0.388495,-0.126367,-0.939246,0.178694,0.115712,0.812024,0.126779,0.062015,-0.666651,-0.031740,-0.136287,0.789356,-0.168176,-0.200359,4.641994,-8.520698,0.294654,0.036256,0.407800,0.129472,0.258594,-0.302830,-0.010612,-4.454366,8.630715
0.220000,0.310871,0.267529,0.298384,-0.166631,-0.014808,0.018608,-0.985732,0.069196,-0.163972,0.025086,-0.493151,-0.474800,-0.378929,-0.126960,-0.929684,0.160378,0.116139,0.812057,0.127618,0.062429,-0.666140,-0.032314,-0.136083,0.780249,-0.148981,-0.296212,4.781065,-9.157906,0.213557,0.016560,0.419222,0.207226,0.255629,-0.286779,0.102307,-4.553734,9.597468
0.222000,0.311005,0.267198,0.298413,-0.167014,-0.015208,0.019170,-0.985651,0.066895,-0.165516,0.014053,-0.494130,-0.482778,-0.390207,-0.127241,-0.920558,0.143848,0.116583,0.812165,0.128385,0.062882,-0.665692,-0.032773,-0.135574,0.771715,-0.131822,-0.140631,4.562616,-8.264870,0.222241,0.053991,0.383777,0.226259,0.224295,-0.229864,0.254080,-4.266707,8.579185
0.224000,0.311136,0.266868,0.298431,-0.167400,-0.015612,0.019794,-0.985567,0.065622,-0.165176,0.008997,-0.555371,-0.495902,-0.392886,-0.127305,-0.911358,0.126545,0.117149,0.812325,0.129117,0.063235,-0.665270,-0.033218,-0.135075,0.763501,-0.114866,-0.031862,4.599958,-8.651388,0.283038,0.079746,0.365694,0.176360,0.210554,-0.222435,0.249768,-4.106964,8.478393
0.226000,0.311264,0.266537,0.298430,-0.167792,-0.016017,0.020446,-0.985480,0.064136,-0.165308,-0.000087,-0.582767,-0.502385,-0.398424,-0.127123,-0.902520,0.110367,0.117779,0.812554,0.129767,0.063558,-0.664891,-0.033591,-0.134528,0.755697,-0.098996,0.090658,4.418993,-8.089456,0.315054,0.114328,0.325294,0.161942,0.189456,-0.186431,0.273312,-3.902147,7.934804
0.228000,0.311388,0.266202,0.298416,-0.168191,-0.016426,0.021079,-0.985392,0.062033,-0.167511,-0.007067,-0.563434,-0.502334,-0.406683,-0.126815,-0.894036,0.095272,0.118380,0.812814,0.130386,0.063953,-0.664527,-0.033915,-0.133798,0.748278,-0.083441,0.154049,4.242008,-7.547269,0.300306,0.130084,0.309363,0.197346,0.182029,-0.161782,0.365130,-3.709505,7.777500
0.230000,0.311508,0.265860,0.298388,-0.168589,-0.016840,0.021677,-0.985304,0.060144,-0.170846,-0.013946,-0.528301,-0.500945,-0.405592,-0.126598,-0.885826,0.080636,0.118905,0.813094,0.130965,0.064440,-0.664193,-0.034170,-0.132999,0.741058,-0.067856,0.108721,4.105042,-7.318173,0.262533,0.139950,0.289399,0.243250,0.167183,-0.127568,0.399306,-3.610097,7.792383
0.232000,0.311622,0.265519,0.298342,-0.169008,-0.017263,0.022302,-0.985211,0.056791,-0.170863,-0.023021,-0.552948,-0.515143,-0.426756,-0.126087,-0.878218,0.067791,0.119503,0.813455,0.131507,0.064930,-0.663908,-0.034350,-0.131967,0.734776,-0.054812,0.255186,3.804255,-6.422141,0.298729,0.180907,0.271254,0.244955,0.142783,-0.089956,0.516025,-3.140838,6.522343
0.234000,0.311733,0.265173,0.298288,-0.169421,-0.017691,0.022932,-0.985118,0.055266,-0.172859,-0.027205,-0.557359,-0.519899,-0.421566,-0.125729,-0.870701,0.054151,0.120095,0.813834,0.132024,0.065424,-0.663647,-0.034501,-0.131064,0.728657,-0.041353,0.179141,3.758548,-6.819932,0.296170,0.189347,0.258523,0.247314,0.130373,-0.075342,0.451483,-3.059788,6.729262
0.236000,0.311836,0.264831,0.298212,-0.169864,-0.018124,0.023605,-0.985018,0.051674,-0.170807,-0.037851,-0.600393,-0.532739,-0.451771,-0.124880,-0.864192,0.043868,0.120815,0.814323,0.132479,0.065892,-0.663424,-0.034581,-0.129929,0.723745,-0.031380,0.424460,3.254610,-5.141633,0.359938,0.244235,0.227051,0.233921,0.111429,-0.040212,0.567441,-2.455700,4.986369
0.238000,0.311938,0.264482,0.298135,-0.170293,-0.018556,0.024244,-0.984920,0.050851,-0.174491,-0.038776,-0.565488,-0.525935,-0.437323,-0.124386,-0.857714,0.032266,0.121439,0.814776,0.132932,0.066427,-0.663188,-0.034671,-0.129018,0.718624,-0.019210,0.247165,3.238834,-5.800900,0.312280,0.226814,0.226825,0.267511,0.117706,-0.045223,0.455654,-2.560374,6.084942
0.240000,0.312029,0.264137,0.298031,-0.170760,-0.019003,0.024906,-0.984815,0.045707,-0.172726,-0.051607,-0.587123,-0.542911,-0.476267,-0.123377,-0.852576,0.025270,0.122159,0.815356,0.133334,0.066993,-0.663031,-0.034629,-0.127837,0.715443,-0.012583,0.504526,2.569173,-3.498390,0.359733,0.290084,0.200809,0.283151,0.078893,0.021407,0.590539,-1.590884,3.313598
0.242000,0.312118,0.263780,0.297932,-0.171215,-0.019451,0.025523,-0.984711,0.044303,-0.178440,-0.049912,-0.542323,-0.537190,-0.465389,-0.122939,-0.847221,0.015615,0.122755,0.815882,0.133776,0.067659,-0.662845,-0.034623,-0.126744,0.713570,-0.008366,0.218900,2.677239,-4.827105,0.298282,0.262960,0.221062,0.332845,0.093053,0.002773,0.546547,-0.936344,2.108486
0.244000,0.312204,0.263416,0.297818,-0.171677,-0.019879,0.025994,-0.984610,0.043122,-0.182026,-0.056648,-0.402116,-0.493112,-0.474609,-0.122371,-0.843427,0.011495,0.123107,0.816376,0.134155,0.068616,-0.662568,-0.034604,-0.125502,0.712713,-0.006070,0.283738,1.896932,-2.060171,0.175891,0.246683,0.189744,0.478294,0.138338,0.009509,0.621221,-0.428371,1.148253
0.246000,0.312302,0.263031,0.297731,-0.172097,-0.020255,0.026295,-0.984521,0.048867,-0.192477,-0.043644,-0.242547,-0.412378,-0.431939,-0.122743,-0.839255,0.004084,0.123089,0.816628,0.134546,0.069824,-0.661980,-0.034893,-0.124111,0.712140,-0.004711,-0.185702,2.086176,-3.705702,-0.009179,0.126109,0.195404,0.604295,0.293779,-0.144612,0.695393,-0.286445,0.679544
0.248000,0.312411,0.262649,0.297645,-0.172506,-0.020552,0.026479,-0.984438,0.054557,-0.191068,-0.043255,-0.140830,-0.315029,-0.421079,-0.122691,-0.836868,0.003189,0.122918,0.816784,0.134756,0.071165,-0.661085,-0.035407,-0.122664,0.711862,-0.004228,0.026074,1.193484,-0.447261,-0.085303,0.078022,0.104988,0.670349,0.447461,-0.256919,0.723431,-0.139200,0.241361
0.250000,0.312543,0.262269,0.297599,-0.172861,-0.020750,0.026675,-0.984366,0.066145,-0.189963,-0.022665,-0.167603,-0.221063,-0.363308,-0.123000,-0.833963,-0.001945,0.122767,0.816714,0.134880,0.072307,-0.659765,-0.036438,-0.121469,0.711470,-0.004043,-0.154887,1.452486,-2.566837,-0.075636,-0.034781,0.061771,0.570855,0.660402,-0.515634,0.597205,-0.195849,0.092262
0.252000,0.312691,0.261922,0.297559,-0.173206,-0.020854,0.026993,-0.984295,0.074040,-0.173453,-0.019837,-0.304526,-0.149095,-0.348089,-0.122081,-0.832885,-0.000892,0.122965,0.816651,0.134749,0.073047,-0.658191,-0.037739,-0.120720,0.711296,-0.004494,0.459857,0.538997,0.526147,0.099215,-0.031544,-0.065332,0.370313,0.786764,-0.650434,0.374525,-0.086924,-0.225084
0.254000,0.312854,0.261585,0.297558,-0.173493,-0.020900,0.027348,-0.984233,0.081712,-0.168413,-0.000900,-0.349121,-0.100074,-0.287084,-0.121377,-0.831335,-0.004322,0.123215,0.816401,0.134639,0.073543,-0.656434,-0.039328,-0.120247,0.711020,-0.005074,0.351644,0.775103,-1.714696,0.124844,-0.125051,-0.055239,0.247689,0.878545,-0.794317,0.236520,-0.138182,-0.290320
0.256000,0.313015,0.261265,0.297549,-0.173764,-0.020942,0.027616,-0.984177,0.080036,-0.160019,-0.004277,-0.263505,-0.081825,-0.271798,-0.119965,-0.831782,-0.000964,0.123343,0.816125,0.134538,0.074120,-0.654810,-0.040711,-0.119718,0.711022,-0.006152,0.706176,-0.223497,1.678574,0.063977,-0.138080,-0.050291,0.288795,0.811811,-0.691459,0.264784,0.000996,-0.538674
0.258000,0.313170,0.260941,0.297565,-0.173977,-0.021019,0.027758,-0.984134,0.077934,-0.162224,0.007719,-0.131796,-0.095770,-0.216734,-0.119269,-0.831741,-0.002124,0.123145,0.815664,0.134703,0.074858,-0.653386,-0.041929,-0.119049,0.711087,-0.007370,0.347990,0.020572,-0.579781,-0.098988,-0.230327,0.082697,0.368953,0.712437,-0.608990,0.334179,0.032265,-0.608963
0.260000,0.313310,0.260628,0.297564,-0.174182,-0.021155,0.027781,-0.984094,0.070008,-0.156461,-0.000358,-0.004587,-0.132844,-0.211499,-0.118154,-0.833332,0.002400,0.122728,0.815225,0.135019,0.075808,-0.652345,-0.042675,-0.118188,0.711618,-0.009174,0.557564,-0.795840,2.261861,-0.208405,-0.219505,0.157931,0.475102,0.520016,-0.373173,0.430817,0.265545,-0.902215
0.262000,0.313442,0.260323,0.297577,-0.174352,-0.021342,0.027827,-0.984059,0.066001,-0.152431,0.006685,-0.016996,-0.188237,-0.178091,-0.117428,-0.834220,0.002366,0.122296,0.814742,0.135560,0.076668,-0.651596,-0.043204,-0.117436,0.712454,-0.011342,0.362817,-0.443998,-0.016864,-0.216287,-0.241772,0.270428,0.430011,0.374597,-0.264662,0.376068,0.418019,-1.084118
0.264000,0.313566,0.260050,0.297574,-0.174540,-0.021554,0.028032,-0.984015,0.061915,-0.136536,-0.001479,-0.170043,-0.239540,-0.193932,-0.115771,-0.836098,0.006553,0.122232,0.814436,0.136069,0.077203,-0.651096,-0.043504,-0.117066,0.714030,-0.014384,0.828790,-0.939102,2.093666,-0.031776,-0.152957,0.254597,0.267323,0.250398,-0.150018,0.184896,0.788332,-1.520704
0.266000,0.313688,0.259786,0.297579,-0.174717,-0.021786,0.028319,-0.983970,0.060643,-0.131825,0.002380,-0.247371,-0.274493,-0.181818,-0.114341,-0.837216,0.007588,0.122308,0.814154,0.136648,0.077557,-0.650713,-0.043757,-0.116875,0.715818,-0.017696,0.714945,-0.558716,0.517419,0.037934,-0.140735,0.289103,0.177001,0.191431,-0.126055,0.095387,0.893999,-1.656069
0.268000,0.313805,0.259527,0.297573,-0.174907,-0.022027,0.028595,-0.983923,0.058877,-0.129386,-0.002787,-0.234882,-0.280968,-0.195918,-0.112806,-0.838635,0.011376,0.122390,0.813938,0.137190,0.077953,-0.650376,-0.043929,-0.116627,0.717806,-0.021275,0.767497,-0.709346,1.893731,0.040940,-0.108311,0.271279,0.197972,0.168193,-0.086276,0.123940,0.994031,-1.789838
0.270000,0.313923,0.259256,0.297575,-0.175087,-0.022273,0.028784,-0.983880,0.058930,-0.135548,0.000624,-0.148499,-0.271386,-0.188102,-0.112000,-0.839220,0.012901,0.122273,0.813664,0.137773,0.078530,-0.649993,-0.044144,-0.116182,0.719706,-0.024765,0.402868,-0.292680,0.762533,-0.058238,-0.136723,0.291364,0.288383,0.191751,-0.107239,0.222747,0.949935,-1.744609
0.272000,0.314044,0.259005,0.297596,-0.175341,-0.022530,0.029158,-0.983818,0.060503,-0.125794,0.010456,-0.329730,-0.311738,-0.260023,-0.109139,-0.839383,0.014624,0.122612,0.813465,0.138509,0.078829,-0.649511,-0.044543,-0.115845,0.722134,-0.028832,1.430781,-0.081324,0.861666,0.169440,-0.099588,0.368044,0.149725,0.241007,-0.199565,0.168467,1.213991,-2.033454
0.274000,0.314166,0.258742,0.297638,-0.175639,-0.022809,0.029434,-0.983750,0.060878,-0.131188,0.021019,-0.232120,-0.315987,-0.307000,-0.105313,-0.838895,0.015505,0.122797,0.813177,0.139484,0.079402,-0.648914,-0.045047,-0.115184,0.724521,-0.032720,1.912744,0.243536,0.440539,0.092448,-0.144120,0.487628,0.286244,0.298351,-0.252030,0.330244,1.193390,-1.944469
0.276000,0.314284,0.258439,0.297696,-0.175955,-0.023120,0.029319,-0.983690,0.059076,-0.151652,0.029296,0.158902,-0.277654,-0.333207,-0.101628,-0.837751,0.015559,0.122200,0.812665,0.140735,0.080832,-0.648192,-0.045544,-0.113612,0.726526,-0.036026,1.842391,0.572314,0.026799,-0.298552,-0.255777,0.625192,0.714941,0.360914,-0.248741,0.786109,1.002458,-1.652763
0.278000,0.314400,0.258094,0.297764,-0.176279,-0.023437,0.028777,-0.983640,0.058140,-0.172297,0.033810,0.580294,-0.208273,-0.348962,-0.098267,-0.836264,0.016056,0.120764,0.811941,0.142126,0.083150,-0.647292,-0.046049,-0.111100,0.728008,-0.038623,1.680883,0.743354,0.248683,-0.717772,-0.362102,0.695803,1.159168,0.450325,-0.252429,1.256133,0.741010,-1.298501
0.280000,0.314521,0.257734,0.297834,-0.176612,-0.023707,0.028024,-0.983596,0.060555,-0.180100,0.034961,0.779423,-0.124587,-0.360567,-0.094710,-0.834724,0.017758,0.118990,0.811220,0.143328,0.085860,-0.646128,-0.046702,-0.108154,0.729014,-0.040641,1.778390,0.770308,0.851080,-0.887211,-0.360518,0.600833,1.355209,0.581937,-0.326600,1.472837,0.502826,-1.008987
0.282000,0.314655,0.257392,0.297901,-0.176956,-0.023881,0.027387,-0.983548,0.066532,-0.170912,0.033712,0.647076,-0.050309,-0.367376,-0.090342,-0.833007,0.019312,0.117784,0.810699,0.143851,0.088235,-0.644681,-0.047625,-0.105504,0.729732,-0.042381,2.183810,0.858053,0.776994,-0.602965,-0.260682,0.261496,1.187580,0.723221,-0.461196,1.325112,0.359142,-0.869865
0.284000,0.314800,0.257089,0.297961,-0.177314,-0.023944,0.027062,-0.983491,0.072690,-0.151649,0.029921,0.321480,0.004719,-0.371316,-0.084916,-0.831049,0.019502,0.117655,0.810496,0.143471,0.089853,-0.643017,-0.048811,-0.103570,0.730357,-0.044103,2.713170,0.979381,0.095118,-0.064384,-0.101291,-0.189817,0.808844,0.832009,-0.593067,0.966988,0.312460,-0.861064
0.286000,0.314941,0.256796,0.298007,-0.177665,-0.023970,0.026717,-0.983436,0.070560,-0.146574,0.022817,0.333352,0.042986,-0.364105,-0.079404,-0.829201,0.019374,0.117690,0.810433,0.142719,0.091395,-0.641545,-0.049706,-0.101655,0.730850,-0.045670,2.755882,0.923661,-0.064258,0.017478,-0.031584,-0.376204,0.770717,0.735962,-0.447712,0.957449,0.246596,-0.783582
0.288000,0.315065,0.256488,0.298035,-0.177999,-0.024027,0.026075,-0.983392,0.061951,-0.153898,0.013938,0.632737,0.066299,-0.353588,-0.074586,-0.827809,0.020187,0.117084,0.810290,0.142155,0.093473,-0.640479,-0.050002,-0.099155,0.731186,-0.046968,2.408822,0.696081,0.406659,-0.303055,-0.071488,-0.281790,1.039062,0.533397,-0.147688,1.249914,0.167854,-0.648749
0.290000,0.315171,0.256168,0.298046,-0.178319,-0.024124,0.025157,-0.983355,0.052840,-0.160128,0.005591,0.910846,0.075425,-0.344776,-0.070535,-0.826810,0.021569,0.115842,0.809996,0.141956,0.096058,-0.639799,-0.049745,-0.096115,0.731436,-0.048067,2.025739,0.499730,0.690777,-0.621226,-0.147028,-0.099479,1.292559,0.339960,0.128235,1.519969,0.124974,-0.549584
0.292000,0.315266,0.255857,0.298044,-0.178640,-0.024229,0.024202,-0.983318,0.047930,-0.155464,-0.000665,0.949762,0.074151,-0.348075,-0.066733,-0.825986,0.022678,0.114517,0.809646,0.141999,0.098696,-0.639175,-0.049402,-0.093027,0.731743,-0.049172,1.900802,0.411622,0.554805,-0.662164,-0.175067,0.021389,1.319097,0.311571,0.171712,1.544017,0.153655,-0.552698
0.294000,0.315363,0.255581,0.298032,-0.178978,-0.024294,0.023476,-0.983273,0.048091,-0.138213,-0.005978,0.715783,0.072525,-0.359653,-0.062566,-0.825129,0.022873,0.113799,0.809383,0.141957,0.100828,-0.638441,-0.049249,-0.090459,0.732220,-0.050479,2.083905,0.428557,0.097312,-0.359072,-0.131643,-0.020912,1.066051,0.367026,0.076399,1.284045,0.238624,-0.653548
0.296000,0.315468,0.255355,0.298004,-0.179345,-0.024275,0.023111,-0.983215,0.052580,-0.112948,-0.014070,0.345891,0.091564,-0.380106,-0.057707,-0.824279,0.022805,0.114962,0.808191,0.147486,0.102177,-0.637458,-0.049452,-0.088695,0.732869,-0.052055,2.429235,0.425092,-0.033768,0.581110,-0.595581,2.764385,0.674444,0.491780,-0.101519,0.882238,0.324372,-0.787688
0.298000,0.315572,0.255146,0.297939,-0.179717,-0.024153,0.022883,-0.983155,0.052141,-0.104438,-0.032637,0.191999,0.167673,-0.379334,-0.052953,-0.823574,0.023585,0.116636,0.807719,0.150468,0.103213,-0.636200,-0.049910,-0.087256,0.733439,-0.053683,2.377030,0.352642,0.390001,0.837454,-0.235986,1.491104,0.517838,0.629022,-0.228779,0.719434,0.284824,-0.814434
0.300000,0.315662,0.254919,0.297830,-0.180073,-0.023970,0.022500,-0.983104,0.044910,-0.113621,-0.054438,0.333733,0.256325,-0.364384,-0.049236,-0.823013,0.025182,0.117653,0.808568,0.147940,0.104576,-0.634774,-0.050412,-0.085505,0.733779,-0.055158,1.858629,0.280510,0.798247,0.508210,0.424070,-1.264352,0.681816,0.712866,-0.251012,0.875193,0.170269,-0.737067
0.302000,0.315729,0.254660,0.297696,-0.180408,-0.023819,0.021773,-0.983062,0.033343,-0.129483,-0.067073,0.677819,0.285359,-0.350311,-0.047009,-0.822403,0.026188,0.117774,0.809539,0.145355,0.106682,-0.633446,-0.050678,-0.083034,0.733971,-0.056410,1.113595,0.304964,0.502834,0.060457,0.485666,-1.292357,1.053046,0.663927,-0.133111,1.235965,0.095717,-0.626004
0.304000,0.315777,0.254389,0.297553,-0.180735,-0.023729,0.020819,-0.983025,0.024279,-0.135480,-0.071624,0.913643,0.266842,-0.349597,-0.045704,-0.821713,0.026266,0.117770,0.809391,0.148729,0.109286,-0.632302,-0.050696,-0.080086,0.734192,-0.057573,0.652035,0.345049,0.039246,-0.002101,-0.074125,1.687168,1.301676,0.572319,-0.009031,1.473533,0.110888,-0.581622
0.306000,0.315823,0.254145,0.297393,-0.181069,-0.023597,0.020070,-0.982982,0.022861,-0.122020,-0.079802,0.703037,0.270859,-0.350181,-0.043956,-0.821082,0.026347,0.118031,0.809525,0.150764,0.111424,-0.631145,-0.050779,-0.077603,0.734560,-0.058938,0.874435,0.315304,0.040282,0.130569,0.067393,1.017488,1.069237,0.578183,-0.041381,1.241884,0.183664,-0.682725
0.308000,0.315876,0.253954,0.297214,-0.181420,-0.023362,0.019802,-0.982929,0.026741,-0.095061,-0.089415,0.211486,0.286027,-0.356569,-0.040912,-0.820539,0.026688,0.119356,0.810115,0.151159,0.112504,-0.629834,-0.051155,-0.076169,0.735163,-0.060698,1.521940,0.271546,0.170465,0.662669,0.294960,0.197452,0.540118,0.655451,-0.188211,0.716982,0.301791,-0.879750
0.310000,0.315928,0.253790,0.297019,-0.181775,-0.023079,0.019727,-0.982871,0.025680,-0.082266,-0.097600,0.012910,0.296710,-0.355882,-0.037310,-0.820151,0.027589,0.120945,0.810959,0.150574,0.113153,-0.628492,-0.051614,-0.075169,0.735868,-0.062617,1.800990,0.194265,0.450605,0.794717,0.421864,-0.292262,0.324099,0.671143,-0.229314,0.499794,0.352179,-0.959837
0.312000,0.315964,0.253613,0.296815,-0.182118,-0.022831,0.019477,-0.982819,0.018349,-0.088385,-0.102226,0.192026,0.295021,-0.346898,-0.034243,-0.819793,0.028355,0.121863,0.811782,0.149728,0.114186,-0.627265,-0.051914,-0.073806,0.736527,-0.064416,1.533196,0.178848,0.383236,0.458597,0.411504,-0.423052,0.516783,0.613602,-0.149921,0.681609,0.329572,-0.899098
0.314000,0.315983,0.253411,0.296606,-0.182441,-0.022650,0.018910,-0.982774,0.009166,-0.101205,-0.104513,0.515815,0.286927,-0.335290,-0.032113,-0.819397,0.028701,0.121867,0.812466,0.148890,0.115907,-0.626220,-0.051946,-0.071779,0.737081,-0.065973,1.065004,0.198114,0.172641,0.002297,0.341877,-0.418999,0.860268,0.522649,-0.016297,1.013612,0.276882,-0.778761
0.316000,0.315987,0.253192,0.296398,-0.182754,-0.022528,0.018096,-0.982734,0.002359,-0.109250,-0.103891,0.770074,0.272808,-0.331752,-0.030603,-0.819005,0.029072,0.121177,0.812992,0.148173,0.118161,-0.625320,-0.051776,-0.069237,0.737563,-0.067322,0.754946,0.195838,0.185476,-0.345000,0.263048,-0.358894,1.127344,0.449788,0.084900,1.270687,0.241338,-0.674651
0.318000,0.315991,0.252992,0.296197,-0.183078,-0.022417,0.017350,-0.982690,0.001909,-0.100284,-0.100291,0.704619,0.250183,-0.341121,-0.028727,-0.818591,0.029535,0.120526,0.813478,0.147472,0.120267,-0.624443,-0.051645,-0.066858,0.738126,-0.068688,0.938378,0.207111,0.231573,-0.325443,0.242911,-0.350388,1.052626,0.438390,0.065535,1.189819,0.281171,-0.682608
0.320000,0.316004,0.252795,0.296033,-0.183450,-0.022299,0.016614,-0.982636,0.006331,-0.098277,-0.081991,0.692993,0.256631,-0.389712,-0.026836,-0.817251,0.024546,0.119913,0.813766,0.147040,0.122436,-0.623186,-0.051991,-0.064447,0.738543,-0.069739,0.945392,0.670060,-2.494560,-0.306860,0.144236,-0.215984,1.084544,0.628715,-0.172788,1.205472,0.208622,-0.525539
0.322000,0.316030,0.252615,0.295889,-0.183885,-0.022135,0.015893,-0.982570,0.013208,-0.090060,-0.072228,0.667260,0.299185,-0.452692,-0.024173,-0.816278,0.021232,0.119454,0.813943,0.146686,0.124607,-0.621494,-0.052785,-0.062048,0.738773,-0.070487,1.331578,0.486443,-1.656965,-0.229089,0.088310,-0.177060,1.085574,0.845800,-0.396936,1.199116,0.115270,-0.374179
0.324000,0.316066,0.252469,0.295727,-0.184374,-0.021891,0.015284,-0.982494,0.018021,-0.073244,-0.080939,0.541787,0.357827,-0.504047,-0.020338,-0.816313,0.022917,0.119775,0.814337,0.145540,0.126530,-0.619547,-0.053758,-0.059913,0.738936,-0.071184,1.917182,-0.017798,0.842684,0.160471,0.197208,-0.572853,0.961477,0.973776,-0.486783,1.067688,0.081303,-0.348208
0.326000,0.316101,0.252340,0.295555,-0.184900,-0.021637,0.014667,-0.982410,0.017369,-0.064156,-0.085899,0.545801,0.369515,-0.542197,-0.016151,-0.816648,0.025791,0.120393,0.814819,0.144126,0.128477,-0.617582,-0.054673,-0.057773,0.739133,-0.071864,2.093952,-0.167315,1.437057,0.308551,0.240757,-0.707039,0.973317,0.982120,-0.457291,1.070202,0.098436,-0.340010
0.328000,0.316109,0.252238,0.295334,-0.185385,-0.021387,0.014107,-0.982332,0.003802,-0.051337,-0.110691,0.492272,0.354061,-0.498686,-0.012334,-0.816568,0.024965,0.121519,0.816668,0.139554,0.129391,-0.618047,-0.048368,-0.055860,0.739568,-0.072848,1.908358,0.039936,-0.413272,0.563293,0.924498,-2.285833,0.457186,-0.232169,3.152302,0.956287,0.217315,-0.492432
0.330000,0.316096,0.252131,0.295088,-0.185879,-0.021146,0.013399,-0.982254,-0.006379,-0.053220,-0.122862,0.639972,0.373073,-0.511479,-0.009373,-0.815979,0.021550,0.123144,0.818513,0.137749,0.130670,-0.618828,-0.044104,-0.053634,0.740018,-0.073806,1.480421,0.294360,-1.707122,0.812493,0.922769,-0.902777,0.639467,-0.390644,2.131937,1.113183,0.225121,-0.478906
0.332000,0.316039,0.252011,0.294753,-0.186310,-0.020876,0.012451,-0.982190,-0.028463,-0.060044,-0.167723,0.870614,0.445763,-0.452097,-0.007426,-0.815868,0.019996,0.123530,0.824308,0.121890,0.131765,-0.622036,-0.033190,-0.051008,0.740418,-0.074852,0.973307,0.055619,-0.777230,0.192740,2.897266,-7.929527,0.547371,-1.604106,5.456946,1.312866,0.200157,-0.522740
0.334000,0.315967,0.251881,0.294399,-0.186791,-0.020612,0.011239,-0.982119,-0.036282,-0.064773,-0.177039,1.130829,0.489909,-0.508090,-0.005974,-0.816054,0.021181,0.124602,0.829226,0.113669,0.134023,-0.624554,-0.028908,-0.047788,0.740733,-0.075710,0.726212,-0.093004,0.592336,0.536221,2.458937,-4.110369,1.129039,-1.258738,2.141040,1.609921,0.157218,-0.429224
0.336000,0.315861,0.251774,0.293978,-0.187225,-0.020337,0.010044,-0.982055,-0.052867,-0.053698,-0.210370,1.112472,0.496801,-0.459014,-0.004681,-0.816345,0.022270,0.125570,0.836727,0.098477,0.135396,-0.629726,-0.017051,-0.044732,0.741259,-0.076890,0.646562,-0.145630,0.544595,0.484119,3.750411,-7.596083,0.686774,-2.586224,5.928643,1.528350,0.263182,-0.590103
0.338000,0.315755,0.251698,0.293557,-0.187706,-0.020036,0.008994,-0.981980,-0.053058,-0.038150,-0.210336,0.964020,0.495534,-0.505078,-0.003037,-0.815985,0.021067,0.128215,0.843113,0.092128,0.136706,-0.634489,-0.009953,-0.041976,0.741925,-0.078176,0.821780,0.180254,-0.601201,1.322597,3.193157,-3.174212,0.654741,-2.381511,3.548953,1.377538,0.332969,-0.642675
0.340000,0.315624,0.251652,0.293061,-0.188117,-0.019658,0.008151,-0.981916,-0.065127,-0.022823,-0.248318,0.747618,0.531791,-0.428955,-0.001155,-0.815507,0.018624,0.130411,0.853432,0.071502,0.136431,-0.641995,0.006513,-0.039816,0.742745,-0.079861,0.941327,0.239021,-1.221484,1.097823,5.159775,-10.312989,-0.137521,-3.753081,8.232871,1.080434,0.410265,-0.842485
0.342000,0.315492,0.251598,0.292558,-0.188576,-0.019272,0.007104,-0.981844,-0.066276,-0.026878,-0.251193,0.945874,0.578360,-0.481865,0.000562,-0.815056,0.017710,0.133160,0.862728,0.057899,0.137259,-0.648388,0.016607,-0.037198,0.743395,-0.081290,0.858399,0.225589,-0.457285,1.374433,4.647649,-6.801905,0.414124,-3.196281,5.047161,1.308686,0.324944,-0.714618
0.344000,0.315328,0.251523,0.291992,-0.188970,-0.018920,0.005698,-0.981784,-0.081949,-0.037860,-0.283135,1.306428,0.612201,-0.422289,0.001493,-0.815083,0.018696,0.134338,0.874455,0.035457,0.138277,-0.656896,0.034524,-0.033949,0.743931,-0.082644,0.465377,-0.013800,0.493299,0.589217,5.863657,-11.220617,0.508945,-4.253944,8.958594,1.624520,0.267771,-0.677041
0.346000,0.315170,0.251444,0.291438,-0.189415,-0.018576,0.004130,-0.981713,-0.079105,-0.039527,-0.276819,1.465983,0.635728,-0.478610,0.002353,-0.814756,0.019084,0.136352,0.884297,0.022961,0.140360,-0.664049,0.045821,-0.030336,0.744313,-0.083721,0.430077,0.163603,0.193909,1.006565,4.920864,-6.248179,1.041790,-3.576439,5.648524,1.806563,0.191035,-0.538437
0.348000,0.315004,0.251388,0.290833,-0.189791,-0.018170,0.002722,-0.981653,-0.082942,-0.027565,-0.302534,1.298001,0.665280,-0.404423,0.003563,-0.814178,0.017518,0.137844,0.896671,-0.000291,0.141051,-0.673212,0.065320,-0.027227,0.744716,-0.085011,0.605142,0.288870,-0.783230,0.746181,6.187295,-11.625992,0.345461,-4.581897,9.749249,1.554311,0.201363,-0.645272
0.350000,0.314857,0.251356,0.290234,-0.190205,-0.017693,0.001438,-0.981584,-0.073677,-0.016150,-0.299663,1.161934,0.712445,-0.441984,0.005514,-0.813327,0.015612,0.140535,0.907785,-0.017704,0.141793,-0.681172,0.079484,-0.024404,0.744979,-0.086178,0.975505,0.425767,-0.953080,1.345664,5.556898,-8.706532,0.370616,-3.979878,7.082256,1.411550,0.131961,-0.583225
0.352000,0.314700,0.251331,0.289585,-0.190553,-0.017184,0.000111,-0.981527,-0.078132,-0.012574,-0.324602,1.199034,0.750878,-0.374636,0.007628,-0.812840,0.014880,0.142330,0.920715,-0.043657,0.141748,-0.690826,0.100528,-0.021651,0.745154,-0.087387,1.056973,0.243478,-0.365848,0.897277,6.464975,-12.976601,-0.022345,-4.827126,10.521999,1.376596,0.087381,-0.604691
0.354000,0.314546,0.251286,0.288931,-0.190933,-0.016681,-0.001557,-0.981460,-0.077241,-0.022370,-0.326598,1.535557,0.810504,-0.415020,0.008769,-0.813608,0.017507,0.144332,0.931815,-0.061611,0.143061,-0.699283,0.115938,-0.018186,0.745019,-0.088182,0.570331,-0.384187,1.313719,1.001066,5.550163,-8.976812,0.656606,-4.228407,7.705010,1.732426,-0.067606,-0.397523
0.356000,0.314381,0.251235,0.288235,-0.191252,-0.016182,-0.003374,-0.981402,-0.082590,-0.025826,-0.347986,1.682302,0.835522,-0.354986,0.008837,-0.815235,0.021923,0.145232,0.944137,-0.085755,0.143936,-0.709273,0.137269,-0.014541,0.744797,-0.088973,0.033809,-0.813536,2.207947,0.450102,6.160898,-12.072038,0.437587,-4.995025,10.665187,1.822583,-0.111029,-0.395146
0.358000,0.314238,0.251216,0.287553,-0.191606,-0.015610,-0.004880,-0.981336,-0.071204,-0.009289,-0.341098,1.363660,0.847176,-0.386448,0.009077,-0.817091,0.027155,0.147411,0.955356,-0.105113,0.144325,-0.718315,0.153662,-0.011552,0.744623,-0.089868,0.120150,-0.927977,2.615706,1.089446,5.609612,-9.679135,0.194389,-4.520982,8.196850,1.494775,-0.086748,-0.447569
0.360000,0.314109,0.251245,0.286864,-0.191917,-0.014991,-0.005869,-0.981279,-0.064779,0.014504,-0.344464,0.846677,0.794421,-0.334180,0.009852,-0.819115,0.032632,0.149741,0.967843,-0.130701,0.142668,-0.728698,0.174506,-0.009760,0.744807,-0.091298,0.387737,-1.011832,2.738453,1.165150,6.243055,-12.794057,-0.828458,-5.191333,10.421844,0.895524,0.091654,-0.715060
0.362000,0.313992,0.251295,0.286222,-0.192256,-0.014428,-0.006596,-0.981217,-0.058454,0.024756,-0.321407,0.600562,0.689263,-0.359181,0.010800,-0.821070,0.037927,0.152547,0.979303,-0.151332,0.140890,-0.738556,0.191588,-0.008443,0.745334,-0.092987,0.473707,-0.977660,2.647877,1.402625,5.730444,-10.315271,-0.889058,-4.929124,8.541129,0.658536,0.263749,-0.844421
0.364000,0.313860,0.251323,0.285610,-0.192551,-0.014056,-0.007463,-0.981158,-0.065986,0.014138,-0.305582,0.775567,0.528872,-0.315563,0.010986,-0.823189,0.043066,0.153428,0.991251,-0.174560,0.139335,-0.749721,0.212668,-0.006804,0.746216,-0.094853,0.093212,-1.059275,2.569558,0.440782,5.973999,-11.613834,-0.777470,-5.582672,10.539742,0.819742,0.440940,-0.933242
0.366000,0.313728,0.251329,0.285060,-0.192867,-0.013837,-0.008442,-0.981091,-0.065768,0.003063,-0.275210,0.914397,0.399647,-0.338044,0.010649,-0.825254,0.047922,0.153342,1.002324,-0.194254,0.138902,-0.760272,0.230233,-0.004812,0.747308,-0.096690,-0.168676,-1.032624,2.428030,-0.043036,5.536486,-9.847252,-0.216469,-5.275187,8.782573,0.995973,0.545772,-0.918391
0.368000,0.313604,0.251329,0.284555,-0.193158,-0.013724,-0.009364,-0.981027,-0.062115,0.000110,-0.252306,0.879206,0.285883,-0.311516,0.010131,-0.827241,0.052393,0.152038,1.013536,-0.216511,0.138298,-0.771315,0.249696,-0.002914,0.748572,-0.098585,-0.258968,-0.993400,2.235084,-0.652076,5.605818,-11.128392,-0.301978,-5.521372,9.731649,0.948941,0.632371,-0.947774
0.370000,0.313514,0.251354,0.284112,-0.193475,-0.013603,-0.009912,-0.980961,-0.045155,0.012453,-0.221898,0.510499,0.220038,-0.333053,0.010255,-0.828873,0.056278,0.151313,1.023885,-0.236951,0.137191,-0.781491,0.266442,-0.001746,0.749933,-0.100542,0.061967,-0.815876,1.942431,-0.362664,5.174312,-10.219881,-0.553499,-5.088042,8.373090,0.584240,0.680226,-0.978106
0.372000,0.313456,0.251407,0.283721,-0.193782,-0.013480,-0.010086,-0.980900,-0.028896,0.026401,-0.195063,0.143763,0.150692,-0.316408,0.010999,-0.830186,0.059532,0.150851,1.033679,-0.258089,0.134880,-0.791793,0.284456,-0.001368,0.751364,-0.102565,0.371918,-0.656888,1.627165,-0.230519,4.897050,-10.569416,-1.155393,-5.151383,9.006899,0.188929,0.715584,-1.011771
0.374000,0.313425,0.251466,0.283392,-0.194104,-0.013397,-0.010098,-0.980837,-0.015636,0.029421,-0.164724,-0.007767,0.079405,-0.329063,0.011977,-0.831210,0.062250,0.150518,1.042458,-0.277224,0.132480,-0.801555,0.301359,-0.001273,0.752816,-0.104517,0.488980,-0.511887,1.359167,-0.166745,4.389730,-9.567185,-1.200133,-4.880722,8.451491,0.047309,0.726092,-0.975706
0.376000,0.313401,0.251500,0.283125,-0.194412,-0.013447,-0.010284,-0.980774,-0.011566,0.016885,-0.133497,0.188598,-0.016746,-0.316463,0.012441,-0.832100,0.064542,0.149042,1.050310,-0.295269,0.130568,-0.811468,0.318872,-0.000764,0.754227,-0.106215,0.232147,-0.445153,1.145972,-0.738085,3.925947,-9.022631,-0.955926,-4.956699,8.756549,0.254461,0.705613,-0.849267
0.378000,0.313392,0.251513,0.282917,-0.194724,-0.013581,-0.010547,-0.980707,-0.004892,0.006564,-0.103985,0.279659,-0.084179,-0.320735,0.012638,-0.832792,0.066420,0.146753,1.057564,-0.313183,0.129222,-0.820961,0.335015,-0.000021,0.755570,-0.107690,0.098657,-0.345704,0.938911,-1.144171,3.626892,-8.957124,-0.673314,-4.746520,8.071359,0.371693,0.671305,-0.737374
0.380000,0.313399,0.251520,0.282774,-0.195028,-0.013775,-0.010785,-0.980642,0.003597,0.003701,-0.071309,0.268029,-0.148315,-0.312505,0.012793,-0.833227,0.067750,0.144033,1.063863,-0.329784,0.127748,-0.830392,0.349958,0.000707,0.756833,-0.108939,0.077551,-0.217803,0.665034,-1.360295,3.149309,-8.300238,-0.736696,-4.715510,7.471528,0.363994,0.631554,-0.624382
0.382000,0.313431,0.251541,0.282686,-0.195331,-0.013964,-0.010785,-0.980579,0.016265,0.010409,-0.044386,0.033841,-0.189212,-0.307580,0.013382,-0.833343,0.068495,0.141486,1.069735,-0.346755,0.125544,-0.839665,0.364370,0.000960,0.758061,-0.110116,0.294301,-0.057995,0.372286,-1.273522,2.936264,-8.485414,-1.102271,-4.636311,7.206096,0.126556,0.613887,-0.588881
0.384000,0.313486,0.251576,0.282663,-0.195631,-0.014168,-0.010604,-0.980518,0.027390,0.017525,-0.011244,-0.141324,-0.239506,-0.300928,0.014304,-0.833133,0.068583,0.139276,1.074441,-0.360897,0.122542,-0.848944,0.377314,0.000846,0.759232,-0.111131,0.461138,0.105152,0.044151,-1.105020,2.352755,-7.071125,-1.500758,-4.639657,6.472103,-0.057029,0.585614,-0.507350
0.386000,0.313553,0.251604,0.282686,-0.195920,-0.014413,-0.010424,-0.980459,0.033252,0.014183,0.011650,-0.132134,-0.279502,-0.289227,0.015162,-0.832764,0.068313,0.136539,1.078887,-0.375654,0.119267,-0.858346,0.390803,0.000757,0.760319,-0.111964,0.428947,0.184656,-0.134786,-1.368461,2.223414,-7.378693,-1.637382,-4.700680,6.744545,-0.044746,0.543412,-0.416440
0.388000,0.313623,0.251612,0.282767,-0.196208,-0.014741,-0.010448,-0.980396,0.035390,0.003911,0.040426,0.084282,-0.320377,-0.291922,0.015572,-0.832301,0.067802,0.133199,1.082071,-0.386712,0.116375,-0.867622,0.402085,0.001138,0.761247,-0.112427,0.204703,0.231634,-0.255902,-1.669916,1.591811,-5.528799,-1.446390,-4.638064,5.640805,0.190796,0.463921,-0.231634
0.390000,0.313701,0.251605,0.282877,-0.196489,-0.015099,-0.010565,-0.980333,0.038955,-0.003623,0.054871,0.181208,-0.332370,-0.285473,0.015759,-0.831801,0.067220,0.129055,1.085220,-0.399557,0.113443,-0.876872,0.413752,0.001738,0.762047,-0.112695,0.093619,0.249694,-0.290545,-2.072145,1.574598,-6.422562,-1.465636,-4.625096,5.833245,0.300072,0.399884,-0.133829
0.392000,0.313793,0.251597,0.283029,-0.196785,-0.015462,-0.010700,-0.980266,0.045899,-0.003757,0.076243,0.199599,-0.332959,-0.301818,0.015957,-0.831183,0.066500,0.125130,1.087036,-0.408634,0.110359,-0.885654,0.422445,0.002406,0.762698,-0.112716,0.099280,0.308862,-0.360266,-1.962238,0.907705,-4.538305,-1.541958,-4.390772,4.346763,0.333549,0.325457,-0.010549
0.394000,0.313901,0.251598,0.283194,-0.197083,-0.015788,-0.010723,-0.980201,0.053885,0.000482,0.082133,0.083690,-0.319733,-0.301628,0.016413,-0.830509,0.065754,0.121172,1.088821,-0.419753,0.106473,-0.894361,0.432327,0.002839,0.763288,-0.112726,0.227893,0.337046,-0.373039,-1.979279,0.892596,-5.559875,-1.943231,-4.353843,4.941068,0.216714,0.295408,-0.005101
0.396000,0.314024,0.251609,0.283390,-0.197408,-0.016097,-0.010694,-0.980131,0.061564,0.005484,0.097873,0.027822,-0.312951,-0.329208,0.017068,-0.829729,0.064913,0.117861,1.089123,-0.426323,0.102251,-0.902486,0.439085,0.003191,0.763807,-0.112613,0.327445,0.390218,-0.420337,-1.655145,0.150904,-3.284621,-2.111006,-4.062299,3.378810,0.176184,0.259227,0.056760
0.398000,0.314152,0.251614,0.283586,-0.197736,-0.016419,-0.010723,-0.980059,0.063735,0.002386,0.098486,0.087048,-0.314869,-0.332652,0.017622,-0.829013,0.064185,0.113925,1.089469,-0.435091,0.097742,-0.910628,0.447483,0.003682,0.764325,-0.112508,0.276973,0.358206,-0.364012,-1.968177,0.173058,-4.384055,-2.254543,-4.071253,4.199284,0.245337,0.259103,0.052470
0.400000,0.314281,0.251608,0.283807,-0.198093,-0.016784,-0.010915,-0.979979,0.064627,-0.002786,0.110475,0.255268,-0.324871,-0.365296,0.017912,-0.828314,0.063508,0.109904,1.088400,-0.439268,0.093676,-0.918190,0.452589,0.004570,0.764805,-0.112248,0.144814,0.349448,-0.338497,-2.010561,-0.534548,-2.088598,-2.032982,-3.780844,2.552801,0.444235,0.239909,0.130106
0.402000,0.314411,0.251597,0.284022,-0.198454,-0.017167,-0.011170,-0.979896,0.065145,-0.005983,0.107141,0.320707,-0.330317,-0.370179,0.018089,-0.827703,0.062964,0.105095,1.087507,-0.446224,0.089368,-0.925792,0.459286,0.005609,0.765334,-0.112056,0.088563,0.305457,-0.272195,-2.404568,-0.446425,-3.478135,-2.153694,-3.801014,3.348628,0.519279,0.264563,0.095650
0.404000,0.314550,0.251594,0.284252,-0.198850,-0.017545,-0.011395,-0.979807,0.069525,-0.001251,0.115090,0.289887,-0.331147,-0.404637,0.018424,-0.827039,0.062377,0.100761,1.085299,-0.448937,0.084952,-0.932783,0.462617,0.006619,0.765890,-0.111855,0.167444,0.332038,-0.293117,-2.167155,-1.103898,-1.356514,-2.208270,-3.495242,1.665600,0.505176,0.278214,0.100754
0.406000,0.314695,0.251601,0.284469,-0.199252,-0.017908,-0.011537,-0.979717,0.072629,0.003717,0.108762,0.205386,-0.333665,-0.410310,0.018965,-0.826408,0.061836,0.096110,1.083270,-0.454263,0.079826,-0.939862,0.467779,0.007453,0.766555,-0.111836,0.270841,0.315510,-0.270787,-2.325091,-1.014403,-2.662744,-2.562898,-3.539804,2.580674,0.416978,0.332449,0.009501
0.408000,0.314847,0.251619,0.284696,-0.199687,-0.018269,-0.011643,-0.979620,0.075966,0.009005,0.113116,0.168529,-0.339202,-0.442971,0.019669,-0.825737,0.061249,0.091915,1.080100,-0.455759,0.074618,-0.946426,0.469962,0.008239,0.767286,-0.111858,0.351643,0.335528,-0.293299,-2.097812,-1.585069,-0.748182,-2.603960,-3.281983,1.091734,0.393075,0.365178,-0.010927
0.410000,0.314997,0.251635,0.284906,-0.200126,-0.018655,-0.011800,-0.979521,0.074981,0.007560,0.105083,0.224626,-0.353657,-0.448814,0.020277,-0.825163,0.060772,0.087008,1.077165,-0.459662,0.069221,-0.953137,0.473989,0.009143,0.768126,-0.112016,0.304310,0.286972,-0.238660,-2.453242,-1.467493,-1.951231,-2.698554,-3.355558,2.013543,0.451665,0.420012,-0.079331
0.412000,0.315146,0.251646,0.285117,-0.200591,-0.019076,-0.012066,-0.979415,0.074249,0.005739,0.105807,0.337170,-0.366492,-0.476326,0.020720,-0.824633,0.060359,0.082052,1.073390,-0.460501,0.064227,-0.959496,0.475992,0.010301,0.769008,-0.112159,0.221403,0.264670,-0.206567,-2.478280,-1.887408,-0.419935,-2.497014,-3.179587,1.001218,0.578847,0.441324,-0.071147
0.414000,0.315294,0.251659,0.285310,-0.201063,-0.019503,-0.012347,-0.979306,0.074338,0.006286,0.096329,0.353107,-0.370436,-0.484565,0.021155,-0.824179,0.060060,0.076646,1.069904,-0.463508,0.059072,-0.965916,0.479445,0.011488,0.769972,-0.112426,0.217274,0.227376,-0.149318,-2.702652,-1.743196,-1.503213,-2.577325,-3.209612,1.726569,0.593634,0.481609,-0.133591
0.416000,0.315449,0.251685,0.285493,-0.201558,-0.019913,-0.012549,-0.979194,0.077212,0.013137,0.091648,0.271844,-0.368357,-0.506062,0.021814,-0.823709,0.059766,0.071653,1.066091,-0.465312,0.053756,-0.972141,0.481823,0.012509,0.771006,-0.112799,0.329627,0.234868,-0.147046,-2.496557,-1.906325,-0.901987,-2.658293,-3.112945,1.188831,0.510744,0.517293,-0.186691
0.418000,0.315607,0.251722,0.285656,-0.202067,-0.020304,-0.012681,-0.979079,0.079024,0.018388,0.081313,0.200138,-0.365215,-0.519511,0.022655,-0.823267,0.059541,0.066709,1.062616,-0.468558,0.048214,-0.978380,0.485121,0.013378,0.772129,-0.113330,0.420762,0.220820,-0.112797,-2.472323,-1.737527,-1.623281,-2.770842,-3.119498,1.649228,0.434467,0.561414,-0.265187
0.420000,0.315765,0.251768,0.285798,-0.202588,-0.020694,-0.012775,-0.978962,0.078874,0.023280,0.070891,0.161144,-0.371497,-0.530688,0.023608,-0.822873,0.059369,0.061891,1.059459,-0.472517,0.042572,-0.984908,0.489127,0.014155,0.773363,-0.114017,0.476318,0.197228,-0.085602,-2.408734,-1.578713,-1.979567,-2.820857,-3.263729,2.002861,0.388414,0.616882,-0.343610
0.422000,0.315918,0.251815,0.285920,-0.203127,-0.021101,-0.012925,-0.978840,0.076784,0.023130,0.061062,0.219472,-0.378239,-0.549981,0.024476,-0.822554,0.059318,0.057032,1.056670,-0.476598,0.037356,-0.991507,0.493349,0.015060,0.774678,-0.114795,0.433846,0.159321,-0.025649,-2.429548,-1.394167,-2.040034,-2.608021,-3.299463,2.111264,0.452468,0.657621,-0.388909
0.424000,0.316072,0.251857,0.286043,-0.203688,-0.021521,-0.013175,-0.978711,0.076947,0.021148,0.061608,0.320182,-0.369719,-0.575328,0.025184,-0.822231,0.059334,0.052396,1.053434,-0.477463,0.032829,-0.997668,0.494936,0.016186,0.775917,-0.115442,0.354173,0.161670,0.007955,-2.318186,-1.618215,-0.432541,-2.263535,-3.080743,0.793297,0.563005,0.619403,-0.323523
0.426000,0.316231,0.251900,0.286159,-0.204258,-0.021924,-0.013451,-0.978579,0.079569,0.021493,0.057929,0.341809,-0.349100,-0.585481,0.025870,-0.821894,0.059430,0.047833,1.050221,-0.478184,0.028459,-1.003604,0.496161,0.017346,0.777059,-0.116006,0.343187,0.168216,0.048256,-2.281375,-1.606335,-0.360433,-2.185036,-2.967674,0.612529,0.580081,0.571177,-0.282325
0.428000,0.316410,0.251952,0.286289,-0.204851,-0.022260,-0.013659,-0.978445,0.089207,0.025930,0.065158,0.261251,-0.296996,-0.607388,0.026771,-0.821384,0.059496,0.044111,1.046035,-0.475437,0.024220,-1.008438,0.493407,0.018341,0.777940,-0.116315,0.450433,0.255043,0.032793,-1.860877,-2.092929,1.373086,-2.119866,-2.417143,-1.376977,0.497597,0.440245,-0.154535
0.430000,0.316601,0.252004,0.286413,-0.205427,-0.022560,-0.013858,-0.978314,0.095821,0.026362,0.062029,0.244719,-0.263008,-0.590659,0.027687,-0.820828,0.059619,0.040125,1.041892,-0.475272,0.019393,-1.013249,0.492992,0.019251,0.778625,-0.116489,0.457814,0.278193,0.061349,-1.992891,-2.071940,0.082581,-2.413230,-2.405264,-0.207466,0.454785,0.342562,-0.087060
0.432000,0.316812,0.252055,0.286561,-0.206022,-0.022817,-0.014081,-0.978180,0.105561,0.025331,0.073793,0.259895,-0.216944,-0.611393,0.028613,-0.820093,0.059703,0.036714,1.036373,-0.470782,0.014967,-1.016645,0.488662,0.020200,0.779002,-0.116321,0.463225,0.367269,0.041895,-1.705949,-2.759506,2.245317,-2.212820,-1.698342,-2.164898,0.474543,0.188850,0.084019
0.434000,0.317031,0.252095,0.286707,-0.206596,-0.023083,-0.014405,-0.978048,0.109102,0.019773,0.072814,0.359549,-0.204808,-0.592478,0.029304,-0.819353,0.059834,0.032560,1.030774,-0.468531,0.010267,-1.019989,0.486951,0.021313,0.779228,-0.116013,0.345510,0.370117,0.065912,-2.076677,-2.799280,1.125081,-2.350138,-1.672094,-0.855491,0.556446,0.112858,0.154398
0.436000,0.317265,0.252131,0.286880,-0.207206,-0.023324,-0.014747,-0.977908,0.117313,0.018400,0.086861,0.372709,-0.177339,-0.630093,0.030032,-0.818422,0.059858,0.029075,1.023614,-0.460257,0.006435,-1.021424,0.479375,0.022500,0.779263,-0.115452,0.363730,0.465286,0.011739,-1.742443,-3.580030,4.137050,-1.916011,-0.717152,-3.787920,0.593335,0.017301,0.280129
0.438000,0.317506,0.252167,0.287045,-0.207799,-0.023569,-0.015073,-0.977771,0.120296,0.018010,0.082565,0.357653,-0.183577,-0.612102,0.030761,-0.817482,0.059836,0.024911,1.016671,-0.455217,0.002033,-1.022888,0.474641,0.023622,0.779320,-0.114969,0.364457,0.470234,-0.011108,-2.082341,-3.471384,2.520278,-2.201012,-0.732125,-2.367396,0.561007,0.028827,0.241752
0.440000,0.317764,0.252215,0.287230,-0.208436,-0.023769,-0.015264,-0.977628,0.129065,0.023807,0.092206,0.215570,-0.168864,-0.654180,0.031854,-0.816335,0.059616,0.021690,1.008475,-0.445058,-0.001818,-1.022423,0.464095,0.024508,0.779362,-0.114470,0.546373,0.573357,-0.109689,-1.610536,-4.098069,5.079559,-1.925696,0.232296,-5.273025,0.443366,0.020661,0.249652
0.442000,0.318021,0.252264,0.287395,-0.209054,-0.023997,-0.015428,-0.977488,0.128722,0.024635,0.082506,0.195199,-0.201713,-0.633188,0.032953,-0.815248,0.059344,0.017677,1.000793,-0.438866,-0.006366,-1.022391,0.457779,0.025319,0.779591,-0.114224,0.549926,0.543419,-0.136170,-2.006403,-3.841104,3.095769,-2.274098,0.016078,-3.157888,0.405399,0.114606,0.122755
0.444000,0.318287,0.252315,0.287575,-0.209720,-0.024226,-0.015577,-0.977337,0.132838,0.025460,0.090242,0.179830,-0.206924,-0.682867,0.034164,-0.814045,0.058953,0.014456,0.991830,-0.426274,-0.009792,-1.020431,0.445580,0.026173,0.779866,-0.113976,0.605486,0.601639,-0.195269,-1.610391,-4.481588,6.296180,-1.712586,0.980243,-6.099369,0.426820,0.137725,0.123849
0.446000,0.318547,0.252362,0.287732,-0.210368,-0.024502,-0.015765,-0.977188,0.129693,0.023507,0.078382,0.228766,-0.243345,-0.665158,0.035242,-0.812964,0.058595,0.010422,0.983398,-0.417164,-0.013578,-1.018922,0.437273,0.027101,0.780338,-0.113971,0.538923,0.540748,-0.179239,-2.016722,-4.215722,4.555036,-1.892999,0.754275,-4.153305,0.464042,0.235901,0.002876
0.448000,0.318816,0.252414,0.287899,-0.211068,-0.024752,-0.015901,-0.977029,0.134771,0.025888,0.083278,0.170585,-0.230577,-0.716427,0.036521,-0.811771,0.058188,0.007400,0.973813,-0.402236,-0.016227,-1.015330,0.422531,0.027984,0.780813,-0.113952,0.639591,0.596160,-0.203220,-1.511224,-4.792608,7.463652,-1.324526,1.796135,-7.371351,0.441615,0.237464,0.009228
0.450000,0.319083,0.252468,0.288035,-0.211745,-0.025015,-0.016014,-0.976874,0.133383,0.027173,0.068081,0.151676,-0.247578,-0.692859,0.037802,-0.810701,0.057869,0.003824,0.964910,-0.391801,-0.019530,-1.012285,0.412039,0.028785,0.781435,-0.114172,0.640412,0.535280,-0.159620,-1.788115,-4.451578,5.217539,-1.651752,1.522430,-5.245913,0.400672,0.310710,-0.109740
0.452000,0.319361,0.252529,0.288176,-0.212467,-0.025241,-0.016074,-0.976710,0.139056,0.030169,0.070664,0.090630,-0.224331,-0.738138,0.039285,-0.809538,0.057561,0.001370,0.954933,-0.375921,-0.021842,-1.007303,0.395891,0.029519,0.782009,-0.114346,0.741443,0.581329,-0.153984,-1.226692,-4.988169,7.939967,-1.155731,2.491069,-8.073847,0.366706,0.287271,-0.087157
0.454000,0.319634,0.252587,0.288287,-0.213162,-0.025492,-0.016176,-0.976550,0.136441,0.029243,0.055234,0.137873,-0.238246,-0.710719,0.040630,-0.808532,0.057403,-0.001615,0.945578,-0.363891,-0.024689,-1.003019,0.384296,0.030295,0.782677,-0.114684,0.672402,0.503302,-0.079063,-1.492926,-4.677550,6.015262,-1.423710,2.142104,-5.797445,0.388202,0.334035,-0.168844
0.456000,0.319914,0.252645,0.288402,-0.213895,-0.025720,-0.016297,-0.976382,0.140286,0.029034,0.057466,0.150904,-0.213709,-0.751626,0.042015,-0.807469,0.057315,-0.003632,0.935234,-0.346408,-0.026386,-0.996929,0.367302,0.031149,0.783254,-0.114909,0.692733,0.531217,-0.044260,-1.008174,-5.172388,8.741409,-0.848268,3.044942,-8.497303,0.426813,0.288540,-0.112868
0.458000,0.320189,0.252701,0.288487,-0.214599,-0.025966,-0.016465,-0.976218,0.137394,0.027835,0.042595,0.201222,-0.219292,-0.722679,0.043252,-0.806556,0.057391,-0.006136,0.925595,-0.332845,-0.028545,-0.991514,0.354255,0.032049,0.783882,-0.115252,0.618424,0.456338,0.038005,-1.251992,-4.819094,6.781641,-1.079873,2.707431,-6.523592,0.450084,0.314005,-0.171426
0.460000,0.320472,0.252760,0.288574,-0.215336,-0.026176,-0.016610,-0.976048,0.141563,0.029328,0.043538,0.170828,-0.190211,-0.756734,0.044607,-0.805576,0.057518,-0.007694,0.915268,-0.315120,-0.029791,-0.984475,0.336218,0.032926,0.784417,-0.115504,0.677302,0.490331,0.063878,-0.779081,-5.163461,8.862503,-0.622662,3.519383,-9.018519,0.438609,0.267336,-0.125930
0.462000,0.320750,0.252819,0.288633,-0.216043,-0.026401,-0.016782,-0.975883,0.138731,0.029550,0.029440,0.200516,-0.198851,-0.726203,0.045855,-0.804727,0.057767,-0.009626,0.905703,-0.301108,-0.031570,-0.978221,0.322161,0.033802,0.785016,-0.115884,0.623897,0.424151,0.124395,-0.966268,-4.782785,7.005596,-0.889818,3.127173,-7.028496,0.438016,0.299423,-0.190097
0.464000,0.321032,0.252880,0.288692,-0.216777,-0.026613,-0.016953,-0.975711,0.141181,0.030573,0.029817,0.196244,-0.186814,-0.754319,0.047158,-0.803831,0.058029,-0.010749,0.895611,-0.283194,-0.032532,-0.970722,0.304325,0.034699,0.785579,-0.116217,0.651519,0.448104,0.131050,-0.561140,-5.046049,8.957085,-0.481031,3.749241,-8.917764,0.448327,0.281514,-0.166448
0.466000,0.321307,0.252940,0.288728,-0.217484,-0.026852,-0.017164,-0.975544,0.137604,0.030332,0.017841,0.241709,-0.203998,-0.727212,0.048326,-0.803055,0.058367,-0.012188,0.886229,-0.268206,-0.033858,-0.963988,0.289985,0.035633,0.786227,-0.116676,0.584050,0.388380,0.169006,-0.719693,-4.690892,7.493935,-0.663028,3.367033,-7.170047,0.467225,0.324327,-0.229483
0.468000,0.321586,0.253004,0.288763,-0.218213,-0.027080,-0.017361,-0.975371,0.139338,0.031556,0.017368,0.225055,-0.196795,-0.750394,0.049563,-0.802232,0.058695,-0.012950,0.876601,-0.250545,-0.034463,-0.956212,0.272382,0.036559,0.786868,-0.117123,0.618700,0.411285,0.163823,-0.380886,-4.814203,8.830701,-0.302205,3.888201,-8.801317,0.462675,0.320256,-0.223347
0.470000,0.321858,0.253067,0.288777,-0.218918,-0.027330,-0.017581,-0.975202,0.136180,0.031790,0.007207,0.252940,-0.213202,-0.726453,0.050705,-0.801502,0.059064,-0.013940,0.867690,-0.235672,-0.035328,-0.949081,0.257542,0.037492,0.787590,-0.117687,0.570945,0.365052,0.184428,-0.495252,-4.455075,7.436343,-0.432811,3.565517,-7.420233,0.466856,0.361162,-0.281921
0.472000,0.322132,0.253132,0.288788,-0.219638,-0.027585,-0.017805,-0.975029,0.136608,0.032365,0.005446,0.256969,-0.216297,-0.740901,0.051860,-0.800753,0.059416,-0.014445,0.858771,-0.219177,-0.035608,-0.941309,0.240860,0.038446,0.788335,-0.118267,0.577615,0.374565,0.175981,-0.252367,-4.459829,8.247742,-0.139965,3.886136,-8.341096,0.476635,0.372224,-0.290073
0.474000,0.322399,0.253197,0.288784,-0.220335,-0.027868,-0.018061,-0.974859,0.133689,0.032553,-0.002142,0.295538,-0.236881,-0.719756,0.052906,-0.800080,0.059776,-0.015068,0.850424,-0.204485,-0.036028,-0.934142,0.226549,0.039431,0.789155,-0.118938,0.522689,0.336440,0.180144,-0.311306,-4.173635,7.345964,-0.209874,3.583218,-7.155461,0.492507,0.410185,-0.335438
0.476000,0.322662,0.253261,0.288769,-0.221029,-0.028192,-0.018379,-0.974686,0.131658,0.031896,-0.007304,0.365564,-0.263739,-0.716881,0.053810,-0.799463,0.060134,-0.015497,0.842297,-0.189160,-0.036017,-0.928431,0.215572,0.040535,0.790062,-0.119680,0.452248,0.308213,0.178892,-0.214632,-4.063399,7.662724,0.005589,2.855447,-5.488097,0.552285,0.453691,-0.371395
0.478000,0.322932,0.253333,0.288749,-0.221721,-0.028481,-0.018606,-0.974517,0.134883,0.036173,-0.010260,0.268614,-0.248808,-0.713266,0.054910,-0.798797,0.060460,-0.015561,0.834653,-0.175222,-0.035960,-0.923735,0.207074,0.041422,0.790934,-0.120439,0.550020,0.333384,0.163188,-0.031830,-3.821882,6.968657,0.028323,2.348004,-4.249059,0.443133,0.435865,-0.379397
0.480000,0.323225,0.253426,0.288734,-0.222440,-0.028623,-0.018560,-0.974349,0.146253,0.046287,-0.007274,-0.030714,-0.166652,-0.734303,0.056655,-0.797906,0.060751,-0.014586,0.827525,-0.162508,-0.036251,-0.919374,0.200073,0.041720,0.791570,-0.121076,0.872305,0.445331,0.145626,0.487234,-3.564008,6.357010,-0.145334,2.180403,-3.500846,0.149449,0.317775,-0.318292
0.482000,0.323540,0.253523,0.288744,-0.223188,-0.028606,-0.018342,-0.974183,0.157676,0.048692,0.004925,-0.233973,-0.050404,-0.759240,0.058833,-0.796745,0.061069,-0.012879,0.820636,-0.150025,-0.036696,-0.914992,0.193988,0.041658,0.791741,-0.121310,1.088960,0.580522,0.158784,0.853636,-3.444527,6.241377,-0.222364,2.191223,-3.042409,-0.031159,0.085835,-0.116831
0.484000,0.323868,0.253606,0.288782,-0.223967,-0.028435,-0.018086,-0.974014,0.163812,0.041327,0.019187,-0.306777,0.090614,-0.792218,0.061155,-0.795356,0.061577,-0.011000,0.814422,-0.139093,-0.037000,-0.910387,0.188462,0.041554,0.791341,-0.120991,1.161359,0.694403,0.253922,0.939428,-3.106862,5.466432,-0.152065,2.302573,-2.762834,-0.051832,-0.200414,0.159133
0.486000,0.324195,0.253651,0.288863,-0.224769,-0.028181,-0.018017,-0.973838,0.163726,0.022485,0.040283,-0.144197,0.211985,-0.824123,0.063123,-0.793801,0.062303,-0.009518,0.808386,-0.127248,-0.036698,-0.905593,0.183397,0.041911,0.790330,-0.119969,0.983590,0.777477,0.363188,0.740918,-3.018314,5.922265,0.150684,2.396948,-2.532662,0.178375,-0.505283,0.511289
0.488000,0.324509,0.253657,0.288970,-0.225598,-0.027851,-0.018107,-0.973654,0.157078,0.003115,0.053521,-0.006288,0.321806,-0.856927,0.064763,-0.792161,0.063291,-0.008839,0.803567,-0.118549,-0.035839,-0.900661,0.178711,0.042707,0.788888,-0.118452,0.820336,0.820195,0.494018,0.339730,-2.409127,4.349554,0.429722,2.465807,-2.342755,0.398138,-0.721031,0.758519
0.490000,0.324811,0.253636,0.289110,-0.226462,-0.027486,-0.018300,-0.973460,0.150812,-0.010594,0.070001,0.085182,0.377594,-0.896960,0.066203,-0.790407,0.064303,-0.008442,0.799102,-0.108649,-0.034554,-0.895694,0.174353,0.043840,0.787244,-0.116632,0.720093,0.876823,0.505942,0.198529,-2.232602,4.949926,0.642685,2.483474,-2.178954,0.566231,-0.822073,0.909564
0.492000,0.325100,0.253617,0.289258,-0.227376,-0.027020,-0.018260,-0.973261,0.144688,-0.009226,0.073973,-0.165731,0.422270,-0.941955,0.068145,-0.788516,0.065200,-0.007939,0.796300,-0.103147,-0.033546,-0.890662,0.170123,0.044638,0.785791,-0.115046,0.970935,0.945398,0.448362,0.251419,-1.400839,2.750905,0.503652,2.516337,-2.115428,0.398810,-0.726431,0.793054
0.494000,0.325375,0.253603,0.289428,-0.228344,-0.026535,-0.018065,-0.973051,0.137605,-0.007260,0.084832,-0.322620,0.404869,-0.993550,0.070429,-0.786495,0.065786,-0.006861,0.793661,-0.094915,-0.032658,-0.885742,0.166103,0.045276,0.784957,-0.114017,1.141812,1.010464,0.293234,0.539121,-1.319492,4.116057,0.444265,2.459692,-2.009896,0.318979,-0.416962,0.514479
0.496000,0.325628,0.253597,0.289595,-0.229356,-0.025991,-0.017616,-0.972836,0.126143,-0.003036,0.083639,-0.584122,0.402068,-1.031909,0.073224,-0.784422,0.066172,-0.005638,0.792681,-0.091334,-0.032114,-0.880951,0.162242,0.045523,0.784938,-0.113824,1.397454,1.036571,0.192884,0.611446,-0.490348,1.790688,0.271691,2.395550,-1.930236,0.123807,-0.009391,0.096518
0.498000,0.325849,0.253570,0.289784,-0.230394,-0.025514,-0.017288,-0.972609,0.110442,-0.013277,0.094374,-0.451252,0.364772,-1.061547,0.075722,-0.782384,0.066407,-0.004512,0.791536,-0.084582,-0.031148,-0.876464,0.158737,0.046219,0.785412,-0.113991,1.248951,1.019331,0.117505,0.562731,-0.572611,3.376049,0.483345,2.243494,-1.752649,0.348046,0.236738,-0.083368
0.500000,0.326022,0.253513,0.289962,-0.231419,-0.025112,-0.017160,-0.972379,0.086680,-0.028744,0.089288,-0.239959,0.338325,-1.054178,0.077680,-0.780589,0.066778,-0.004496,0.791907,-0.083298,-0.029660,-0.872496,0.155841,0.047385,0.786119,-0.114251,0.979075,0.897306,0.185516,0.008391,0.185718,0.641734,0.743914,1.984272,-1.448008,0.583074,0.353659,-0.129860
0.502000,0.326164,0.253430,0.290157,-0.232439,-0.024798,-0.017252,-0.972142,0.070839,-0.041217,0.097577,-0.004351,0.303362,-1.053875,0.079102,-0.778918,0.067119,-0.004644,0.791801,-0.078836,-0.027634,-0.868892,0.153344,0.049069,0.786717,-0.114212,0.711023,0.835416,0.170343,-0.074369,-0.052741,2.231019,1.012871,1.801977,-1.248698,0.841782,0.298769,0.019513
0.504000,0.326273,0.253345,0.290330,-0.233433,-0.024516,-0.017345,-0.971909,0.054638,-0.042789,0.086513,0.004498,0.272362,-1.027240,0.080415,-0.777462,0.067509,-0.005089,0.792979,-0.079841,-0.025612,-0.865797,0.151381,0.050751,0.787330,-0.114180,0.656699,0.728006,0.194860,-0.222577,0.588829,-0.502291,1.011083,1.547282,-0.981271,0.840911,0.306589,0.016098
0.506000,0.326370,0.253273,0.290507,-0.234420,-0.024263,-0.017353,-0.971678,0.048517,-0.035806,0.088450,-0.071943,0.225195,-1.018076,0.081871,-0.776039,0.067671,-0.004563,0.793446,-0.077076,-0.023783,-0.863021,0.149680,0.052236,0.787966,-0.114109,0.728004,0.711398,0.081338,0.263327,0.233468,1.382432,0.914358,1.388153,-0.850569,0.742742,0.318044,0.035503
0.508000,0.326447,0.253226,0.290652,-0.235376,-0.024009,-0.017155,-0.971456,0.038604,-0.023454,0.072448,-0.271233,0.177958,-0.980415,0.083668,-0.774779,0.067729,-0.003599,0.795015,-0.079223,-0.022504,-0.861067,0.148719,0.053227,0.788832,-0.114330,0.898078,0.630382,0.029101,0.481687,0.784309,-1.073802,0.639674,0.976960,-0.480588,0.495425,0.432832,-0.110700
0.510000,0.326509,0.253189,0.290794,-0.236310,-0.023814,-0.016948,-0.971238,0.030928,-0.018444,0.071159,-0.265386,0.119930,-0.956968,0.085423,-0.773622,0.067628,-0.001920,0.795903,-0.077889,-0.021265,-0.859484,0.148078,0.054163,0.789774,-0.114551,0.877518,0.578226,-0.050501,0.839927,0.444002,0.667143,0.619315,0.791409,-0.320355,0.468077,0.471284,-0.110299
0.512000,0.326539,0.253149,0.290911,-0.237187,-0.023696,-0.016847,-0.971029,0.015237,-0.020178,0.058075,-0.144062,0.071063,-0.901444,0.086826,-0.772751,0.067625,-0.000637,0.797560,-0.080146,-0.019978,-0.859111,0.148607,0.055254,0.790798,-0.114809,0.701821,0.435521,-0.001716,0.641352,0.828748,-1.128450,0.643554,0.186671,0.264288,0.545507,0.512024,-0.128960
0.514000,0.326550,0.253098,0.291027,-0.238030,-0.023660,-0.016920,-0.970822,0.005434,-0.025262,0.058071,0.046173,0.032899,-0.869177,0.087790,-0.772032,0.067640,0.000686,0.798633,-0.079658,-0.018313,-0.858943,0.149346,0.056666,0.791747,-0.114874,0.481897,0.359746,0.007516,0.661617,0.536264,0.244207,0.832616,0.083705,0.369827,0.705994,0.474272,-0.032601
0.516000,0.326544,0.253041,0.291130,-0.238827,-0.023660,-0.017092,-0.970623,-0.003204,-0.028770,0.051883,0.151439,0.022834,-0.825911,0.088466,-0.771463,0.067762,0.001734,0.800044,-0.081213,-0.016518,-0.859041,0.150352,0.058218,0.792591,-0.114803,0.337805,0.284430,0.060959,0.523827,0.705537,-0.777446,0.897320,-0.048742,0.502958,0.775852,0.422302,0.035430
0.518000,0.326537,0.252988,0.291237,-0.239602,-0.023652,-0.017244,-0.970430,-0.003503,-0.026617,0.053469,0.130657,0.026082,-0.801775,0.089161,-0.770876,0.067831,0.003215,0.801002,-0.081045,-0.014805,-0.858949,0.151141,0.059663,0.793290,-0.114575,0.347829,0.293458,0.034734,0.740517,0.478967,0.083753,0.856458,0.045710,0.394371,0.722356,0.349209,0.113906
0.520000,0.326539,0.252945,0.291350,-0.240358,-0.023589,-0.017271,-0.970244,0.001116,-0.021516,0.056467,-0.003198,0.050414,-0.779503,0.090108,-0.770185,0.067800,0.005215,0.801614,-0.080271,-0.013405,-0.858517,0.151534,0.060778,0.793803,-0.114209,0.473325,0.345342,-0.015744,0.999886,0.305925,0.387276,0.700194,0.216053,0.196467,0.557804,0.256803,0.182970
0.522000,0.326550,0.252906,0.291472,-0.241096,-0.023470,-0.017205,-0.970065,0.005287,-0.019107,0.061048,-0.107033,0.082280,-0.759701,0.091239,-0.769387,0.067695,0.007539,0.801917,-0.079075,-0.012239,-0.857719,0.151501,0.061646,0.794108,-0.113678,0.565582,0.399134,-0.052422,1.162229,0.151703,0.597523,0.583147,0.399406,-0.016339,0.433776,0.152219,0.265735
0.524000,0.326627,0.252914,0.291657,-0.241945,-0.023135,-0.016685,-0.969871,0.038591,0.003657,0.092394,-0.601713,0.180883,-0.864526,0.093619,-0.768002,0.067226,0.013961,0.797983,-0.054803,-0.011917,-0.855450,0.149848,0.061593,0.794038,-0.112847,1.189726,0.692292,-0.234293,3.210701,-1.966885,12.136108,0.160704,1.134289,-0.826817,-0.026528,-0.034754,0.415545
0.526000,0.326736,0.252916,0.291843,-0.242842,-0.022479,-0.015856,-0.969676,0.054773,0.001250,0.092953,-0.981002,0.416214,-0.908626,0.096516,-0.766588,0.067604,0.020981,0.794933,-0.035341,-0.012168,-0.851636,0.146659,0.060915,0.793259,-0.111616,1.448778,0.707126,0.188931,3.510377,-1.524981,9.731216,-0.125380,1.906753,-1.594326,-0.338695,-0.389488,0.615465
0.528000,0.326831,0.252854,0.291989,-0.243729,-0.021536,-0.015080,-0.969487,0.047193,-0.031267,0.072780,-0.997863,0.707856,-0.902938,0.098775,-0.765712,0.069793,0.025347,0.796557,-0.040147,-0.012206,-0.846544,0.142345,0.060534,0.791831,-0.110168,1.129306,0.438161,1.094317,2.182891,0.811963,-2.402970,-0.019066,2.546216,-2.157172,-0.190568,-0.714014,0.723775
0.530000,0.326873,0.252693,0.292141,-0.244612,-0.020632,-0.014933,-0.969287,0.021177,-0.080525,0.075904,-0.379134,0.822195,-0.915746,0.099289,-0.765369,0.073189,0.026714,0.799894,-0.052328,-0.010727,-0.841040,0.137747,0.062185,0.790669,-0.109285,0.257253,0.171494,1.698140,0.683213,1.668384,-6.090690,0.739398,2.751819,-2.298539,0.825536,-0.581268,0.441580
0.532000,0.326862,0.252458,0.292352,-0.245520,-0.020038,-0.015524,-0.969060,-0.005780,-0.117198,0.105888,0.412529,0.702699,-0.956979,0.098211,-0.765075,0.076259,0.026799,0.800559,-0.047786,-0.007461,-0.835975,0.133557,0.066015,0.790593,-0.109298,-0.539273,0.146619,1.534748,0.042790,0.332549,2.270884,1.633417,2.532919,-2.095468,1.914919,-0.037652,-0.006402
0.534000,0.326845,0.252241,0.292603,-0.246460,-0.019548,-0.015946,-0.968824,-0.008286,-0.108428,0.125139,0.273922,0.558710,-0.984984,0.097612,-0.764306,0.078018,0.027887,0.799130,-0.030015,-0.004441,-0.831208,0.129404,0.069235,0.791647,-0.109962,-0.299353,0.384679,0.879491,0.544080,-0.714485,8.885910,1.510039,2.383290,-2.076349,1.610128,0.526846,-0.331974
0.536000,0.326863,0.252106,0.292833,-0.247400,-0.018827,-0.015350,-0.968609,0.009106,-0.067783,0.115431,-0.770180,0.532621,-0.963297,0.099223,-0.762909,0.078518,0.030581,0.799169,-0.019465,-0.003624,-0.826225,0.124669,0.069044,0.793169,-0.107801,0.805321,0.698598,0.250252,1.346622,0.019710,5.274649,0.408212,2.491353,-2.367195,-0.095924,0.760941,1.080222
0.538000,0.326885,0.252008,0.293025,-0.248305,-0.017919,-0.014033,-0.968415,0.011088,-0.049013,0.095536,-1.514779,0.535526,-0.913664,0.100786,-0.760029,0.065238,0.033434,0.801902,-0.023155,-0.004356,-0.821187,0.119630,0.066890,0.795425,-0.107573,0.781679,1.440178,-6.640266,1.426888,1.366192,-1.844674,-0.365921,2.518932,-2.519540,-1.077033,1.127830,0.114180
0.540000,0.326863,0.251854,0.293167,-0.249164,-0.017104,-0.013331,-0.968219,-0.011305,-0.076915,0.071428,-0.895200,0.599527,-0.879240,0.100841,-0.759034,0.057200,0.034646,0.804594,-0.028235,-0.003849,-0.816484,0.115204,0.065899,0.797404,-0.105080,0.027458,0.497354,-4.019083,0.605957,1.346132,-2.540201,0.253551,2.351712,-2.213281,-0.495215,0.989693,1.246638
0.542000,0.326786,0.251623,0.293266,-0.250003,-0.016536,-0.013692,-0.968007,-0.038627,-0.115278,0.049476,0.197290,0.625093,-0.879520,0.099289,-0.761309,0.062508,0.034476,0.804771,-0.022132,-0.001027,-0.812476,0.111950,0.067501,0.799293,-0.103241,-0.775894,-1.137500,2.654391,-0.085051,0.088425,3.051736,1.410930,2.004108,-1.626672,0.801025,0.944445,0.919208
0.544000,0.326696,0.251381,0.293333,-0.250834,-0.016040,-0.014301,-0.967792,-0.044756,-0.121260,0.033209,0.454463,0.617610,-0.874213,0.097361,-0.764733,0.071377,0.034570,0.803250,-0.009069,0.002239,-0.808775,0.109152,0.069587,0.801200,-0.102080,-0.963827,-1.712145,4.434137,0.046622,-0.760403,6.531434,1.632907,1.850272,-1.399269,1.043015,0.953479,0.580573
0.546000,0.326659,0.251220,0.293362,-0.251662,-0.015294,-0.013884,-0.967595,-0.018327,-0.080224,0.014672,-0.601718,0.602820,-0.855187,0.097907,-0.767010,0.078255,0.036816,0.802766,-0.002805,0.003231,-0.804834,0.105850,0.068798,0.803257,-0.102684,0.272662,-1.138195,3.439372,1.123168,-0.242244,3.131731,0.495930,1.970457,-1.650774,-0.394432,1.028448,-0.301991
0.548000,0.326676,0.251134,0.293373,-0.252474,-0.014308,-0.012417,-0.967418,0.008085,-0.043282,0.005379,-1.677214,0.571090,-0.821206,0.100805,-0.768066,0.082988,0.040782,0.803928,-0.006009,0.001928,-0.800641,0.101960,0.064956,0.805083,-0.102996,1.449024,-0.528379,2.366074,1.983241,0.581355,-1.602086,-0.651445,2.096671,-1.945330,-1.921114,0.912882,-0.156042
0.550000,0.326678,0.251014,0.293419,-0.253252,-0.013482,-0.011111,-0.967243,0.001057,-0.060161,0.022890,-1.480761,0.456728,-0.788815,0.103272,-0.768266,0.085903,0.043920,0.804534,-0.007041,0.001027,-0.796859,0.098362,0.061509,0.806463,-0.101300,1.233830,-0.100014,1.457912,1.568852,0.302766,-0.515630,-0.450270,1.890802,-1.798633,-1.723585,0.690373,0.848003
0.552000,0.326599,0.250763,0.293517,-0.253988,-0.013112,-0.010909,-0.967057,-0.039103,-0.125066,0.049186,-0.296654,0.296342,-0.760193,0.100221,-0.764859,0.066334,0.044094,0.803387,0.000680,0.002970,-0.794230,0.096090,0.061398,0.807647,-0.098502,-1.525505,1.703476,-9.784528,0.086931,-0.573484,3.860377,0.971198,1.314609,-1.136447,-0.055379,0.591906,1.399036
0.554000,0.326477,0.250436,0.293579,-0.254725,-0.012879,-0.011496,-0.966859,-0.061075,-0.163499,0.030792,0.500156,0.363382,-0.773117,0.095796,-0.762890,0.053393,0.042455,0.801982,0.009179,0.006650,-0.791793,0.094372,0.063873,0.808708,-0.097333,-2.212949,0.984516,-6.470475,-0.819326,-0.702489,4.249278,1.840226,1.218776,-0.858537,1.237568,0.530639,0.584758
