QPZ-918/AT_DOG_AMP/temp/gmr_data_csv/Vz0.4.csv
time_sec,root_pos_x,root_pos_y,root_pos_z,root_quat_w,root_quat_x,root_quat_y,root_quat_z,base_lin_vel_x,base_lin_vel_y,base_lin_vel_z,base_ang_vel_x,base_ang_vel_y,base_ang_vel_z,FR_hip_joint,FR_thigh_joint,FR_calf_joint,FL_hip_joint,FL_thigh_joint,FL_calf_joint,RR_hip_joint,RR_thigh_joint,RR_calf_joint,RL_hip_joint,RL_thigh_joint,RL_calf_joint,FR_hip_joint_vel,FR_thigh_joint_vel,FR_calf_joint_vel,FL_hip_joint_vel,FL_thigh_joint_vel,FL_calf_joint_vel,RR_hip_joint_vel,RR_thigh_joint_vel,RR_calf_joint_vel,RL_hip_joint_vel,RL_thigh_joint_vel,RL_calf_joint_vel
0.002000,0.041577,-0.120161,0.288345,0.846821,0.008494,0.001284,0.531809,0.056856,-0.046549,0.056973,0.127057,-0.197034,0.427792,-0.061966,-0.841360,0.007216,-0.021731,0.986632,-0.418024,-0.013491,-0.968855,0.441212,-0.049802,0.731939,-0.026961,-0.263892,-0.024882,-0.451519,1.390783,4.139812,-6.578258,1.136185,-2.920093,6.232246,-0.418099,-0.438284,0.604491
0.004000,0.041688,-0.120260,0.288465,0.846590,0.008698,0.001173,0.532174,0.055068,-0.049448,0.060054,0.114782,-0.198797,0.433134,-0.062466,-0.841397,0.006299,-0.018866,0.994772,-0.431589,-0.011467,-0.974598,0.454274,-0.050654,0.731051,-0.025762,-0.249763,-0.018546,-0.458527,1.432802,4.069852,-6.782409,1.012308,-2.871315,6.531293,-0.425774,-0.443878,0.599358
0.006000,0.041785,-0.120363,0.288599,0.846370,0.008952,0.001099,0.532519,0.048916,-0.051575,0.067093,0.177237,-0.194546,0.410701,-0.063059,-0.841402,0.005416,-0.015716,1.002275,-0.442791,-0.008801,-0.979385,0.464617,-0.051313,0.730124,-0.024496,-0.296439,-0.002478,-0.441541,1.574940,3.751466,-5.601376,1.332905,-2.393358,5.171206,-0.329830,-0.463544,0.633455
0.008000,0.041867,-0.120463,0.288737,0.846145,0.009310,0.001078,0.532870,0.040803,-0.050248,0.068688,0.292814,-0.205362,0.416848,-0.063901,-0.841454,0.004581,-0.013073,1.009711,-0.455019,-0.006033,-0.984099,0.475589,-0.051716,0.729190,-0.023206,-0.421410,-0.026424,-0.417349,1.321522,3.718226,-6.113732,1.384040,-2.357088,5.486330,-0.201355,-0.466701,0.644738
0.010000,0.041943,-0.120570,0.288890,0.845937,0.009677,0.001065,0.533194,0.037725,-0.053543,0.076912,0.306076,-0.203326,0.385325,-0.064715,-0.841436,0.003722,-0.009871,1.016225,-0.463503,-0.002649,-0.987634,0.482890,-0.052024,0.728252,-0.021881,-0.406568,0.009321,-0.429395,1.600844,3.256760,-4.242185,1.691969,-1.767776,3.650363,-0.154007,-0.469215,0.662478
0.012000,0.042017,-0.120681,0.289043,0.845724,0.010032,0.001028,0.533525,0.037375,-0.055257,0.076239,0.281592,-0.217219,0.394473,-0.065478,-0.841421,0.002818,-0.006876,1.022678,-0.473394,0.000184,-0.991277,0.491954,-0.052388,0.727379,-0.020655,-0.381559,0.007357,-0.452121,1.497499,3.226665,-4.945641,1.416346,-1.821123,4.532030,-0.182039,-0.436608,0.613207
0.014000,0.042098,-0.120804,0.289211,0.845532,0.010301,0.000942,0.533825,0.040205,-0.061330,0.084140,0.183284,-0.213269,0.357950,-0.065964,-0.841282,0.001817,-0.002945,1.028043,-0.479045,0.003319,-0.993629,0.497081,-0.052893,0.726541,-0.019464,-0.242963,0.069396,-0.500654,1.965769,2.682535,-2.825068,1.567480,-1.176359,2.563268,-0.252472,-0.418787,0.595318
0.016000,0.042174,-0.120927,0.289374,0.845333,0.010592,0.000848,0.534135,0.037952,-0.061530,0.081333,0.197714,-0.231064,0.369156,-0.066490,-0.841177,0.000800,0.000477,1.033443,-0.486999,0.005946,-0.996159,0.504428,-0.053376,0.725779,-0.018379,-0.262967,0.052551,-0.508635,1.710930,2.700034,-3.977425,1.313470,-1.264959,3.673562,-0.241147,-0.380951,0.542663
0.018000,0.042242,-0.121055,0.289553,0.845155,0.010915,0.000778,0.534409,0.034240,-0.064317,0.089629,0.237619,-0.228759,0.327561,-0.067028,-0.840999,-0.000226,0.004477,1.037619,-0.490163,0.009441,-0.997230,0.506979,-0.053698,0.725008,-0.017233,-0.269191,0.089279,-0.513034,1.999777,2.087521,-1.581718,1.747405,-0.535451,1.275736,-0.161448,-0.385729,0.573079
0.020000,0.042300,-0.121180,0.289724,0.844970,0.011323,0.000738,0.534693,0.028861,-0.062562,0.085495,0.325723,-0.248472,0.340002,-0.067765,-0.840895,-0.001211,0.007675,1.041857,-0.495898,0.012608,-0.998527,0.511951,-0.053849,0.724293,-0.016152,-0.368541,0.051747,-0.492180,1.598839,2.119218,-2.867519,1.583646,-0.648528,2.485782,-0.075241,-0.357612,0.540389
0.022000,0.042357,-0.121314,0.289911,0.844806,0.011720,0.000703,0.534943,0.028401,-0.066967,0.093339,0.317860,-0.239142,0.299174,-0.068408,-0.840701,-0.002212,0.011638,1.044801,-0.496559,0.016430,-0.998392,0.512199,-0.053954,0.723546,-0.015000,-0.321741,0.097214,-0.500728,1.981835,1.472262,-0.330757,1.911070,0.067384,0.124023,-0.052439,-0.373313,0.575915
0.024000,0.042414,-0.121450,0.290086,0.844634,0.012110,0.000649,0.535207,0.028821,-0.067898,0.087549,0.302523,-0.250313,0.315638,-0.069032,-0.840551,-0.003205,0.015049,1.047880,-0.500198,0.019460,-0.998612,0.515431,-0.054122,0.722854,-0.013951,-0.311790,0.074888,-0.496277,1.705404,1.539230,-1.819063,1.515058,-0.109528,1.616112,-0.084116,-0.345862,0.524627
0.026000,0.042478,-0.121597,0.290275,0.844485,0.012436,0.000575,0.535434,0.031769,-0.073587,0.094728,0.237244,-0.235040,0.273209,-0.069436,-0.840290,-0.004230,0.019422,1.049658,-0.498592,0.022987,-0.997399,0.513625,-0.054370,0.722132,-0.012847,-0.202056,0.130625,-0.512632,2.186483,0.889205,0.802603,1.763244,0.606053,-0.903234,-0.123844,-0.361141,0.551694
0.028000,0.042538,-0.121743,0.290451,0.844327,0.012801,0.000508,0.535675,0.030133,-0.072782,0.087828,0.274154,-0.247920,0.289562,-0.069933,-0.840104,-0.005205,0.023038,1.051653,-0.500109,0.025903,-0.996594,0.514737,-0.054572,0.721459,-0.011825,-0.248294,0.092653,-0.487253,1.808073,0.997264,-0.758459,1.458249,0.402545,0.556424,-0.101272,-0.336568,0.511283
0.030000,0.042596,-0.121893,0.290637,0.844189,0.013191,0.000469,0.535883,0.028893,-0.075227,0.093185,0.310757,-0.239626,0.249788,-0.070431,-0.839870,-0.006143,0.027228,1.052482,-0.496778,0.029574,-0.994540,0.511213,-0.054646,0.720754,-0.010717,-0.249283,0.117235,-0.469441,2.094726,0.414456,1.665755,1.835411,1.027398,-1.762283,-0.036639,-0.352527,0.553647
0.032000,0.042649,-0.122040,0.290807,0.844041,0.013644,0.000451,0.536104,0.026688,-0.073305,0.084783,0.373571,-0.255167,0.266526,-0.071077,-0.839736,-0.007005,0.030565,1.053615,-0.496685,0.032713,-0.992992,0.510805,-0.054624,0.720108,-0.009696,-0.322900,0.066953,-0.430927,1.668593,0.566473,0.046513,1.569414,0.773878,-0.204007,0.010846,-0.322729,0.510915
0.034000,0.042707,-0.122193,0.290982,0.843913,0.014072,0.000426,0.536295,0.029154,-0.076426,0.087447,0.349978,-0.248221,0.230178,-0.071600,-0.839552,-0.007852,0.034573,1.053766,-0.492368,0.036320,-0.990427,0.506503,-0.054612,0.719472,-0.008658,-0.261486,0.092128,-0.423291,2.003999,0.075722,2.158437,1.803598,1.282580,-2.151138,0.005790,-0.318285,0.518639
0.036000,0.042770,-0.122345,0.291138,0.843778,0.014494,0.000382,0.536497,0.031291,-0.076102,0.078152,0.334282,-0.259997,0.243185,-0.072097,-0.839439,-0.008654,0.038047,1.054245,-0.490968,0.039257,-0.988351,0.504962,-0.054671,0.718921,-0.007757,-0.248319,0.056158,-0.400872,1.736963,0.239275,0.700036,1.468428,1.037748,-0.770163,-0.029352,-0.275383,0.450597
0.038000,0.042842,-0.122503,0.291295,0.843661,0.014857,0.000306,0.536671,0.036031,-0.079233,0.078179,0.267098,-0.255768,0.211613,-0.072389,-0.839276,-0.009464,0.042173,1.054024,-0.486435,0.042463,-0.985509,0.500220,-0.054841,0.718417,-0.006904,-0.146206,0.081507,-0.405095,2.063235,-0.110174,2.266179,1.603088,1.421043,-2.371052,-0.084901,-0.251987,0.426651
0.040000,0.042914,-0.122658,0.291432,0.843537,0.015257,0.000235,0.536854,0.036098,-0.077268,0.068929,0.301513,-0.272400,0.221192,-0.072759,-0.839202,-0.010213,0.045707,1.054157,-0.484367,0.045302,-0.983156,0.497816,-0.054970,0.718004,-0.006169,-0.185085,0.037432,-0.374628,1.766923,0.066062,1.034029,1.419517,1.176756,-1.201901,-0.064657,-0.206657,0.367345
0.042000,0.042985,-0.122810,0.291563,0.843424,0.015714,0.000186,0.537019,0.035478,-0.075923,0.065424,0.360930,-0.284565,0.200916,-0.073215,-0.839164,-0.010908,0.049339,1.053971,-0.480474,0.048598,-0.980526,0.494014,-0.054963,0.717660,-0.005479,-0.227655,0.018996,-0.347552,1.815877,-0.092860,1.946665,1.647963,1.314620,-1.901257,0.003616,-0.171788,0.345088
0.044000,0.043057,-0.122957,0.291676,0.843307,0.016212,0.000143,0.537188,0.035746,-0.073683,0.056545,0.398877,-0.300516,0.206633,-0.073751,-0.839207,-0.011544,0.052547,1.054135,-0.478326,0.051711,-0.978347,0.491942,-0.054904,0.717404,-0.004895,-0.268193,-0.021953,-0.318001,1.604120,0.082176,1.073906,1.556531,1.089399,-1.036053,0.029284,-0.128202,0.291869
0.046000,0.043137,-0.123104,0.291772,0.843194,0.016678,0.000069,0.537351,0.040143,-0.073404,0.048002,0.354401,-0.309910,0.198904,-0.074175,-0.839287,-0.012152,0.055924,1.054542,-0.476611,0.054779,-0.976359,0.490125,-0.054951,0.717258,-0.004459,-0.211947,-0.039801,-0.303713,1.688313,0.203617,0.857760,1.533766,0.994049,-0.908353,-0.023381,-0.072723,0.218109
0.048000,0.043226,-0.123250,0.291852,0.843083,0.017108,-0.000035,0.537511,0.044694,-0.073071,0.039848,0.308376,-0.316587,0.196917,-0.074491,-0.839401,-0.012736,0.059397,1.055283,-0.475618,0.057684,-0.974683,0.488805,-0.055114,0.717200,-0.004146,-0.158235,-0.056990,-0.292187,1.736683,0.370319,0.496092,1.452674,0.838203,-0.659773,-0.081688,-0.029367,0.156464
0.050000,0.043322,-0.123402,0.291936,0.842984,0.017499,-0.000146,0.537654,0.048003,-0.076074,0.041898,0.272245,-0.300721,0.175430,-0.074691,-0.839450,-0.013327,0.063458,1.055517,-0.471578,0.060889,-0.972422,0.484248,-0.055339,0.717080,-0.003756,-0.099712,-0.024280,-0.295363,2.030255,0.117231,2.020404,1.602329,1.130455,-2.278770,-0.112213,-0.059892,0.195294
0.052000,0.043415,-0.123555,0.292016,0.842881,0.017940,-0.000215,0.537801,0.046345,-0.076594,0.040108,0.336656,-0.293401,0.179893,-0.075025,-0.839516,-0.013859,0.067303,1.055691,-0.467541,0.064095,-0.970216,0.479914,-0.055451,0.716874,-0.003265,-0.167295,-0.033307,-0.266330,1.922738,0.086799,2.018569,1.603213,1.102979,-2.167156,-0.056314,-0.102928,0.245470
0.054000,0.043501,-0.123718,0.292115,0.842786,0.018438,-0.000214,0.537933,0.042819,-0.081224,0.049703,0.421751,-0.264285,0.162729,-0.075502,-0.839493,-0.014366,0.071430,1.054754,-0.459384,0.067786,-0.967046,0.472056,-0.055371,0.716427,-0.002459,-0.238299,0.011420,-0.253341,2.063335,-0.468584,4.078243,1.845570,1.585280,-3.928654,0.040070,-0.223404,0.402710
0.056000,0.043580,-0.123888,0.292213,0.842675,0.018971,-0.000168,0.538089,0.039737,-0.084918,0.048648,0.475718,-0.245121,0.190414,-0.076127,-0.839470,-0.014822,0.074851,1.053819,-0.454016,0.070868,-0.964088,0.466878,-0.055230,0.715795,-0.001487,-0.312316,0.011933,-0.228065,1.710675,-0.467463,2.684130,1.540784,1.478876,-2.589062,0.070531,-0.316195,0.486071
0.058000,0.043663,-0.124078,0.292336,0.842572,0.019425,-0.000119,0.538233,0.041539,-0.095222,0.061852,0.411013,-0.200702,0.175445,-0.076580,-0.839250,-0.015362,0.078784,1.051540,-0.445089,0.073869,-0.959864,0.457668,-0.055207,0.714890,-0.000219,-0.226521,0.109676,-0.269986,1.966443,-1.139563,4.463535,1.500525,2.112133,-4.605286,0.011691,-0.452214,0.634168
0.060000,0.043745,-0.124278,0.292462,0.842456,0.019866,-0.000067,0.538399,0.041032,-0.100085,0.062628,0.402167,-0.190402,0.201359,-0.077043,-0.838990,-0.015943,0.082029,1.049166,-0.438859,0.076039,-0.955769,0.450883,-0.055246,0.713867,0.001136,-0.231898,0.130148,-0.290485,1.622614,-1.186788,3.114623,1.085251,2.047456,-3.392537,-0.019632,-0.511427,0.677464
0.062000,0.043828,-0.124493,0.292620,0.842356,0.020296,-0.000010,0.538539,0.041357,-0.107119,0.078906,0.394241,-0.180158,0.170384,-0.077426,-0.838546,-0.016685,0.085708,1.045114,-0.426694,0.078522,-0.950241,0.438790,-0.055256,0.712724,0.002690,-0.191148,0.222092,-0.370677,1.839512,-2.026329,6.082725,1.241128,2.763846,-6.046294,-0.005135,-0.571750,0.776841
0.064000,0.043904,-0.124707,0.292775,0.842242,0.020797,0.000060,0.538698,0.038096,-0.106992,0.077578,0.462262,-0.207673,0.193616,-0.077976,-0.838131,-0.017491,0.088245,1.041117,-0.417305,0.080403,-0.945083,0.429733,-0.055160,0.711635,0.004185,-0.275171,0.207432,-0.403044,1.268276,-1.998285,4.694618,0.940928,2.578862,-4.528639,0.048114,-0.544535,0.747751
0.066000,0.043981,-0.124929,0.292955,0.842146,0.021304,0.000120,0.538829,0.038323,-0.111217,0.090375,0.461744,-0.220189,0.161595,-0.078461,-0.837581,-0.018467,0.090919,1.035682,-0.402890,0.082603,-0.938680,0.415845,-0.055014,0.710563,0.005734,-0.242279,0.274952,-0.488400,1.337155,-2.717765,7.207531,1.099567,3.201533,-6.943631,0.072867,-0.536103,0.774526
0.068000,0.044059,-0.125151,0.293123,0.842036,0.021813,0.000138,0.538980,0.039224,-0.110935,0.083704,0.440621,-0.255782,0.186056,-0.078929,-0.837080,-0.019523,0.092486,1.030648,-0.392762,0.083918,-0.932843,0.405632,-0.054951,0.709662,0.007055,-0.234316,0.250509,-0.527600,0.783408,-2.516978,5.063802,0.657634,2.918808,-5.106798,0.031799,-0.450510,0.660218
0.070000,0.044149,-0.125385,0.293311,0.841949,0.022239,0.000095,0.539098,0.044695,-0.116936,0.093944,0.337199,-0.263201,0.147162,-0.079103,-0.836428,-0.020754,0.094585,1.024179,-0.377425,0.085363,-0.925676,0.389919,-0.055048,0.708825,0.008341,-0.087043,0.325778,-0.615634,1.049675,-3.234506,7.668765,0.722491,3.583366,-7.856332,-0.048563,-0.418393,0.643174
0.072000,0.044241,-0.125617,0.293481,0.841852,0.022680,0.000019,0.539231,0.046064,-0.116028,0.085095,0.332225,-0.298721,0.165682,-0.079283,-0.835862,-0.022001,0.095794,1.018002,-0.365403,0.086077,-0.919069,0.377617,-0.055192,0.708171,0.009390,-0.089694,0.283338,-0.623349,0.604432,-3.088408,6.010576,0.356985,3.303489,-6.150880,-0.072212,-0.326766,0.524547
0.074000,0.044334,-0.125855,0.293667,0.841776,0.023150,-0.000052,0.539330,0.046761,-0.119166,0.092926,0.359582,-0.310628,0.126207,-0.079439,-0.835233,-0.023295,0.097349,1.010312,-0.347510,0.087284,-0.911252,0.360351,-0.055231,0.707556,0.010469,-0.078211,0.314523,-0.647050,0.777368,-3.844826,8.946634,0.603450,3.908590,-8.632953,-0.019213,-0.307756,0.539318
0.076000,0.044425,-0.126090,0.293828,0.841686,0.023678,-0.000115,0.539448,0.045503,-0.117299,0.080680,0.412905,-0.335363,0.148992,-0.079733,-0.834746,-0.024482,0.097903,1.003052,-0.333616,0.087903,-0.904088,0.346987,-0.055205,0.707062,0.011370,-0.146887,0.243216,-0.593623,0.276905,-3.630127,6.946966,0.309788,3.581684,-6.682454,0.013138,-0.246738,0.450275
0.078000,0.044523,-0.126335,0.293998,0.841615,0.024162,-0.000193,0.539537,0.048851,-0.122693,0.084744,0.366405,-0.324337,0.115479,-0.079863,-0.834192,-0.025660,0.098942,0.994562,-0.315436,0.088751,-0.895743,0.328847,-0.055238,0.706547,0.012306,-0.065033,0.276967,-0.588810,0.519568,-4.244669,9.090031,0.424041,4.172747,-9.069546,-0.016654,-0.257698,0.468325
0.080000,0.044624,-0.126580,0.294140,0.841532,0.024641,-0.000283,0.539645,0.050592,-0.122708,0.070954,0.356924,-0.331999,0.138054,-0.079999,-0.833762,-0.026705,0.099301,0.986573,-0.301301,0.088891,-0.888002,0.314212,-0.055342,0.706110,0.013079,-0.067988,0.214911,-0.522843,0.179703,-3.994582,7.067643,0.069705,3.870332,-7.317939,-0.052304,-0.218322,0.386243
0.082000,0.044731,-0.126835,0.294288,0.841465,0.025111,-0.000369,0.539727,0.053261,-0.127108,0.074026,0.349960,-0.323972,0.106441,-0.080054,-0.833291,-0.027714,0.100170,0.977364,-0.282273,0.089329,-0.879242,0.295304,-0.055435,0.705643,0.013910,-0.027427,0.235750,-0.504477,0.434396,-4.604574,9.513803,0.219132,4.379988,-9.453852,-0.046229,-0.233411,0.415783
0.084000,0.044837,-0.127086,0.294409,0.841386,0.025629,-0.000438,0.539827,0.053052,-0.125466,0.060485,0.401524,-0.335529,0.128374,-0.080241,-0.832967,-0.028567,0.100353,0.968621,-0.266398,0.089289,-0.871165,0.279880,-0.055474,0.705243,0.014619,-0.093502,0.162121,-0.426371,0.091555,-4.371402,7.937686,-0.020068,4.038319,-7.711728,-0.019771,-0.200478,0.354583
0.086000,0.044946,-0.127343,0.294532,0.841319,0.026157,-0.000491,0.539906,0.054410,-0.128677,0.061793,0.417300,-0.327751,0.103792,-0.080410,-0.832621,-0.029366,0.100863,0.958951,-0.246622,0.089557,-0.862266,0.260816,-0.055464,0.704803,0.015393,-0.084753,0.173005,-0.399486,0.254906,-4.835427,9.887907,0.134242,4.449822,-9.532432,0.005228,-0.219910,0.386870
0.088000,0.045057,-0.127598,0.294628,0.841239,0.026696,-0.000543,0.540004,0.055377,-0.127638,0.048023,0.427613,-0.331751,0.126620,-0.080633,-0.832396,-0.030028,0.100774,0.949943,-0.230579,0.089324,-0.854016,0.244808,-0.055485,0.704415,0.016042,-0.111294,0.112399,-0.331224,-0.044215,-4.503913,8.021506,-0.116718,4.125059,-8.003655,-0.010547,-0.194034,0.324329
0.090000,0.045175,-0.127861,0.294723,0.841169,0.027190,-0.000612,0.540087,0.059293,-0.131401,0.047331,0.380205,-0.322810,0.109438,-0.080720,-0.832132,-0.030678,0.101056,0.940347,-0.211938,0.089158,-0.845155,0.225847,-0.055599,0.704010,0.016700,-0.043656,0.131744,-0.324920,0.141036,-4.797887,9.320340,-0.083079,4.430594,-9.480442,-0.057020,-0.202451,0.328965
0.092000,0.045297,-0.128121,0.294793,0.841089,0.027703,-0.000683,0.540187,0.060758,-0.130023,0.035291,0.395069,-0.334006,0.128645,-0.080862,-0.831973,-0.031236,0.100915,0.931294,-0.195871,0.088613,-0.836948,0.209607,-0.055733,0.703676,0.017232,-0.070916,0.079555,-0.279040,-0.070536,-4.526525,8.033666,-0.272465,4.103118,-8.120176,-0.066854,-0.166725,0.265955
0.094000,0.045420,-0.128383,0.294862,0.841013,0.028248,-0.000742,0.540276,0.061807,-0.131036,0.034092,0.428336,-0.341510,0.117352,-0.081045,-0.831818,-0.031780,0.100935,0.921747,-0.177126,0.088298,-0.828456,0.191578,-0.055803,0.703355,0.017774,-0.091510,0.077599,-0.271797,0.009680,-4.773682,9.372353,-0.157632,4.245957,-9.014324,-0.034876,-0.160832,0.271256
0.096000,0.045545,-0.128642,0.294909,0.840928,0.028818,-0.000798,0.540378,0.062509,-0.129549,0.023701,0.451977,-0.352056,0.133173,-0.081299,-0.831751,-0.032247,0.100597,0.912721,-0.160563,0.087780,-0.820516,0.175614,-0.055866,0.703092,0.018216,-0.126887,0.033711,-0.233681,-0.169067,-4.512717,8.281875,-0.258878,3.970246,-7.982024,-0.031606,-0.131536,0.220936
0.098000,0.045677,-0.128905,0.294949,0.840845,0.029356,-0.000873,0.540479,0.065641,-0.131353,0.019956,0.414635,-0.350820,0.131097,-0.081467,-0.831674,-0.032714,0.100405,0.903677,-0.143553,0.087243,-0.812473,0.158538,-0.056021,0.702838,0.018626,-0.084120,0.038480,-0.233272,-0.095934,-4.521824,8.504646,-0.268379,4.021551,-8.538072,-0.077779,-0.127002,0.204992
0.100000,0.045812,-0.129167,0.294971,0.840755,0.029889,-0.000958,0.540589,0.067678,-0.130957,0.011248,0.404944,-0.357064,0.143492,-0.081631,-0.831651,-0.033136,0.100060,0.895116,-0.128323,0.086534,-0.804867,0.142857,-0.056234,0.702629,0.018947,-0.082077,0.011403,-0.210993,-0.172214,-4.280548,7.614938,-0.354687,3.802703,-7.840403,-0.106270,-0.104162,0.160314
0.102000,0.045949,-0.129427,0.294984,0.840660,0.030456,-0.001038,0.540705,0.068752,-0.130218,0.006363,0.435673,-0.369972,0.150582,-0.081862,-0.831668,-0.033545,0.099670,0.886690,-0.112941,0.085861,-0.797598,0.127735,-0.056415,0.702454,0.019233,-0.115400,-0.008640,-0.204658,-0.195189,-4.213229,7.691367,-0.336562,3.634538,-7.561297,-0.090358,-0.087699,0.143002
0.104000,0.046089,-0.129687,0.294986,0.840561,0.031045,-0.001115,0.540826,0.069885,-0.129609,0.000695,0.457036,-0.379692,0.157002,-0.082141,-0.831728,-0.033926,0.099245,0.878525,-0.097895,0.085236,-0.790658,0.113304,-0.056580,0.702311,0.019474,-0.139491,-0.029727,-0.190631,-0.212636,-4.082226,7.522986,-0.312020,3.470125,-7.215554,-0.082682,-0.071162,0.120551
0.106000,0.046232,-0.129943,0.294973,0.840453,0.031645,-0.001196,0.540959,0.071461,-0.128297,-0.006168,0.464159,-0.388268,0.172041,-0.082454,-0.831838,-0.034286,0.098685,0.870918,-0.084422,0.084518,-0.784303,0.100307,-0.056770,0.702205,0.019651,-0.156408,-0.054965,-0.179687,-0.279887,-3.803830,6.736426,-0.359204,3.177685,-6.498554,-0.094967,-0.053009,0.088816
0.108000,0.046380,-0.130202,0.294954,0.840345,0.032222,-0.001290,0.541092,0.074027,-0.129231,-0.009692,0.437903,-0.387209,0.172445,-0.082709,-0.831946,-0.034640,0.098287,0.863580,-0.071094,0.083871,-0.778039,0.086834,-0.057030,0.702107,0.019801,-0.127502,-0.054070,-0.176917,-0.199160,-3.669015,6.664011,-0.323306,3.131653,-6.736376,-0.129861,-0.049438,0.074834
0.110000,0.046531,-0.130451,0.294913,0.840221,0.032848,-0.001383,0.541247,0.075184,-0.124749,-0.020453,0.479632,-0.411719,0.199580,-0.083085,-0.832169,-0.034957,0.097552,0.857178,-0.060724,0.083366,-0.773680,0.077226,-0.057266,0.702109,0.019820,-0.188112,-0.111703,-0.158596,-0.367119,-3.200977,5.185047,-0.252674,2.179577,-4.803655,-0.117966,0.001335,0.009569
0.112000,0.046692,-0.130707,0.294871,0.840099,0.033413,-0.001506,0.541402,0.080810,-0.128087,-0.020852,0.412350,-0.404713,0.199448,-0.083305,-0.832349,-0.035311,0.097305,0.850778,-0.048984,0.082783,-0.770642,0.070347,-0.057664,0.702079,0.019857,-0.109916,-0.089793,-0.177249,-0.123447,-3.199935,5.870086,-0.291323,1.519251,-3.439934,-0.199088,-0.015126,0.018450
0.114000,0.046866,-0.130972,0.294820,0.839980,0.033794,-0.001693,0.541561,0.087064,-0.132529,-0.025514,0.223180,-0.357978,0.203848,-0.083156,-0.832452,-0.035643,0.097280,0.845565,-0.041259,0.081872,-0.768531,0.065529,-0.058455,0.701948,0.019891,0.074675,-0.051545,-0.165927,-0.012633,-2.606671,3.862314,-0.455755,1.055328,-2.408720,-0.395822,-0.065654,0.016916
0.116000,0.047047,-0.131260,0.294792,0.839885,0.033993,-0.001894,0.541696,0.090305,-0.143754,-0.014057,0.062418,-0.272228,0.171758,-0.082642,-0.832323,-0.035963,0.098056,0.840180,-0.031363,0.080744,-0.766718,0.061887,-0.059513,0.701473,0.020247,0.256854,0.064209,-0.160124,0.388010,-2.692239,4.948035,-0.563910,0.906713,-1.821093,-0.528637,-0.237420,0.177835
0.118000,0.047213,-0.131554,0.294771,0.839799,0.034089,-0.002032,0.541822,0.083101,-0.147218,-0.010741,0.008534,-0.164198,0.156596,-0.082065,-0.832088,-0.036061,0.098474,0.836269,-0.026670,0.079630,-0.765124,0.059225,-0.060591,0.700611,0.020932,0.288559,0.117559,-0.048593,0.208744,-1.955693,2.346589,-0.557241,0.796735,-1.330760,-0.539323,-0.430791,0.342782
0.120000,0.047355,-0.131862,0.294790,0.839739,0.034181,-0.002041,0.541909,0.071132,-0.153781,0.009658,0.074341,-0.054640,0.105740,-0.081608,-0.831639,-0.036004,0.099029,0.832053,-0.018814,0.078824,-0.763386,0.056999,-0.061385,0.699238,0.022209,0.228510,0.224786,0.028191,0.277729,-2.107749,3.927734,-0.402785,0.869089,-1.113116,-0.396741,-0.686426,0.638531
0.122000,0.047466,-0.132162,0.294819,0.839690,0.034286,-0.001932,0.541979,0.055330,-0.149971,0.014734,0.149161,0.036946,0.080618,-0.081369,-0.831135,-0.035704,0.098654,0.829589,-0.016741,0.078335,-0.761716,0.055344,-0.061883,0.697568,0.023781,0.119221,0.251985,0.150276,-0.187610,-1.232323,1.036670,-0.244736,0.834788,-0.827614,-0.248999,-0.835401,0.785869
0.124000,0.047558,-0.132466,0.294888,0.839675,0.034373,-0.001758,0.541998,0.045899,-0.151948,0.034357,0.167617,0.100117,0.018165,-0.081137,-0.830419,-0.035413,0.098492,0.826829,-0.010801,0.078067,-0.759881,0.053841,-0.062171,0.695675,0.025660,0.116000,0.357648,0.145181,-0.080898,-1.379766,2.969800,-0.133666,0.917671,-0.751543,-0.144086,-0.946435,0.939282
0.126000,0.047639,-0.132755,0.294954,0.839679,0.034347,-0.001622,0.541993,0.040706,-0.144703,0.032915,0.052301,0.128019,-0.010655,-0.080713,-0.829646,-0.035138,0.097784,0.826089,-0.011315,0.077708,-0.758225,0.052773,-0.062566,0.693918,0.027334,0.212261,0.386761,0.137427,-0.354313,-0.370164,-0.256692,-0.179842,0.828259,-0.533869,-0.197296,-0.878198,0.837436
0.128000,0.047719,-0.133039,0.295046,0.839719,0.034255,-0.001542,0.541937,0.039827,-0.141977,0.046143,-0.035372,0.115491,-0.070891,-0.080058,-0.828703,-0.035106,0.097599,0.824999,-0.007441,0.077328,-0.756630,0.051894,-0.062993,0.692379,0.028849,0.327410,0.471570,0.016255,-0.092076,-0.545006,1.936649,-0.189829,0.797408,-0.439504,-0.213776,-0.769731,0.757500
0.130000,0.047794,-0.133296,0.295122,0.839770,0.034112,-0.001541,0.541868,0.037328,-0.128351,0.038004,-0.121774,0.076284,-0.085457,-0.079275,-0.827812,-0.035194,0.096837,0.825815,-0.009820,0.076871,-0.755519,0.051648,-0.063505,0.691304,0.029843,0.391610,0.445135,-0.043865,-0.381128,0.407958,-1.189196,-0.228495,0.555204,-0.123330,-0.256127,-0.537570,0.496620
0.132000,0.047862,-0.133534,0.295213,0.839839,0.034046,-0.001565,0.541765,0.034004,-0.118955,0.045411,-0.070976,0.011528,-0.123450,-0.078566,-0.826904,-0.035514,0.096317,0.826063,-0.007610,0.076626,-0.754777,0.051849,-0.063817,0.690607,0.030556,0.354150,0.454142,-0.160139,-0.260166,0.124036,1.104816,-0.122340,0.371370,0.100961,-0.155709,-0.348261,0.356553
0.134000,0.047914,-0.133737,0.295281,0.839899,0.034100,-0.001589,0.541668,0.026466,-0.101555,0.034112,0.029865,-0.052701,-0.113277,-0.078137,-0.826189,-0.035851,0.094933,0.827751,-0.010882,0.076682,-0.754766,0.052927,-0.063895,0.690294,0.030886,0.214907,0.357450,-0.168655,-0.691824,0.844320,-1.636055,0.027855,0.005506,0.538863,-0.039319,-0.156459,0.165064
0.136000,0.047964,-0.133925,0.295356,0.839965,0.034241,-0.001626,0.541557,0.024814,-0.094141,0.037390,0.096240,-0.111208,-0.127267,-0.077828,-0.825513,-0.036339,0.093891,0.828666,-0.010204,0.076898,-0.755110,0.054414,-0.063816,0.690207,0.031072,0.154314,0.337998,-0.243878,-0.521220,0.457455,0.339055,0.108099,-0.172003,0.743357,0.039499,-0.043719,0.093177
0.138000,0.048016,-0.134096,0.295407,0.840017,0.034363,-0.001716,0.541468,0.026165,-0.085230,0.025414,0.052131,-0.143975,-0.100684,-0.077489,-0.824971,-0.036839,0.092654,0.830555,-0.014543,0.076932,-0.756195,0.056712,-0.063868,0.690329,0.030992,0.169690,0.271018,-0.250000,-0.618383,0.944380,-2.169298,0.016836,-0.542493,1.148881,-0.025531,0.060837,-0.039875
0.140000,0.048077,-0.134266,0.295462,0.840072,0.034468,-0.001843,0.541376,0.030091,-0.085154,0.027604,0.017607,-0.166848,-0.102315,-0.077059,-0.824424,-0.037436,0.092171,0.831481,-0.015341,0.076875,-0.757353,0.059093,-0.064013,0.690500,0.030893,0.215016,0.273827,-0.298668,-0.241512,0.462974,-0.398940,-0.028274,-0.579124,1.190460,-0.072556,0.085766,-0.049839
0.142000,0.048139,-0.134433,0.295508,0.840114,0.034555,-0.001978,0.541304,0.031002,-0.083731,0.022805,-0.002099,-0.163533,-0.079041,-0.076624,-0.823938,-0.037985,0.091824,0.832485,-0.018045,0.076719,-0.758649,0.061649,-0.064246,0.690620,0.030819,0.217265,0.242775,-0.274215,-0.173451,0.502128,-1.352428,-0.077989,-0.648012,1.278057,-0.116930,0.060097,-0.036810
0.144000,0.048198,-0.134605,0.295561,0.840151,0.034665,-0.002079,0.541240,0.029845,-0.085813,0.026758,0.036520,-0.146097,-0.070205,-0.076274,-0.823451,-0.038484,0.091876,0.832658,-0.018488,0.076610,-0.759837,0.064110,-0.064428,0.690551,0.030973,0.175263,0.243385,-0.249429,0.025925,0.086595,-0.221024,-0.054891,-0.594093,1.230529,-0.090968,-0.034801,0.077078
0.146000,0.048248,-0.134782,0.295623,0.840175,0.034814,-0.002104,0.541192,0.024627,-0.088373,0.030951,0.110987,-0.103565,-0.052951,-0.076108,-0.822967,-0.038848,0.091898,0.832363,-0.018839,0.076614,-0.760826,0.066394,-0.064481,0.690163,0.031475,0.082852,0.241911,-0.182034,0.011079,-0.147501,-0.175553,0.002100,-0.494658,1.142112,-0.026221,-0.193704,0.250666
0.148000,0.048289,-0.134967,0.295696,0.840194,0.034952,-0.002075,0.541154,0.020829,-0.092444,0.036648,0.130620,-0.050706,-0.043447,-0.076005,-0.822439,-0.039104,0.091965,0.831693,-0.019142,0.076637,-0.761506,0.068355,-0.064498,0.689455,0.032311,0.051177,0.264141,-0.128084,0.033365,-0.335404,-0.151641,0.011806,-0.340013,0.980618,-0.008592,-0.354279,0.418022
0.150000,0.048327,-0.135145,0.295782,0.840194,0.035109,-0.002037,0.541144,0.018858,-0.089066,0.042582,0.152403,-0.054544,-0.010470,-0.076003,-0.821933,-0.039424,0.091032,0.831040,-0.018285,0.076630,-0.762186,0.070216,-0.064511,0.688687,0.033220,0.000998,0.253105,-0.159930,-0.466173,-0.326157,0.428599,-0.003820,-0.339906,0.930263,-0.006397,-0.384058,0.454648
0.152000,0.048374,-0.135322,0.295872,0.840186,0.035140,-0.002074,0.541155,0.023301,-0.088607,0.045459,0.006103,-0.046651,0.015518,-0.075747,-0.821383,-0.039869,0.089442,0.830777,-0.017868,0.076262,-0.762755,0.071825,-0.064852,0.687921,0.034069,0.128260,0.274930,-0.222525,-0.795083,-0.131834,0.208591,-0.183883,-0.284272,0.804652,-0.170664,-0.382801,0.424296
0.154000,0.048439,-0.135503,0.295964,0.840176,0.034942,-0.002240,0.541183,0.032618,-0.090590,0.045908,-0.255635,-0.031153,0.034864,-0.074987,-0.820747,-0.040474,0.087579,0.830976,-0.018366,0.075309,-0.763138,0.073088,-0.065751,0.687204,0.034761,0.379827,0.318140,-0.302512,-0.931393,0.099854,-0.249203,-0.476226,-0.191756,0.631599,-0.449250,-0.358564,0.346065
0.156000,0.048517,-0.135686,0.296056,0.840164,0.034577,-0.002498,0.541224,0.039146,-0.091234,0.045766,-0.445297,-0.018384,0.050585,-0.073871,-0.820058,-0.041184,0.085505,0.831372,-0.018808,0.073937,-0.763377,0.074076,-0.067047,0.686529,0.035327,0.558098,0.344481,-0.355148,-1.037285,0.197679,-0.220890,-0.686001,-0.119592,0.493763,-0.648383,-0.337377,0.283335
0.158000,0.048596,-0.135864,0.296146,0.840144,0.034172,-0.002768,0.541278,0.039344,-0.089164,0.044950,-0.486410,-0.005896,0.066464,-0.072736,-0.819414,-0.041853,0.083118,0.831625,-0.018169,0.072465,-0.763544,0.074916,-0.068429,0.685843,0.035868,0.567527,0.321813,-0.334602,-1.193287,0.126729,0.319232,-0.736216,-0.083132,0.420090,-0.690685,-0.342946,0.270436
0.160000,0.048665,-0.136034,0.296228,0.840114,0.033793,-0.002996,0.541348,0.034751,-0.085185,0.041141,-0.439996,0.016274,0.083985,-0.071852,-0.818937,-0.042283,0.080312,0.831758,-0.017185,0.071084,-0.763664,0.075687,-0.069706,0.685096,0.036440,0.442122,0.238705,-0.214786,-1.403357,0.066538,0.491974,-0.690509,-0.060334,0.385408,-0.638651,-0.373785,0.286024
0.162000,0.048718,-0.136193,0.296296,0.840069,0.033502,-0.003136,0.541435,0.026277,-0.079233,0.034243,-0.318512,0.042797,0.102790,-0.071440,-0.818727,-0.042318,0.077017,0.831794,-0.016496,0.069958,-0.763786,0.076480,-0.070719,0.684264,0.037071,0.205966,0.104807,-0.017610,-1.647366,0.017696,0.344743,-0.562922,-0.061018,0.396790,-0.506443,-0.415812,0.315223
0.164000,0.048768,-0.136346,0.296347,0.840018,0.033167,-0.003271,0.541534,0.024850,-0.076670,0.025335,-0.352403,0.070172,0.116315,-0.071111,-0.818668,-0.042113,0.073760,0.831793,-0.016621,0.068766,-0.763851,0.077204,-0.071791,0.683422,0.037627,0.164339,0.029533,0.102354,-1.628246,-0.000515,-0.062797,-0.596125,-0.032335,0.361731,-0.535773,-0.420958,0.278341
0.166000,0.048824,-0.136498,0.296380,0.839966,0.032715,-0.003459,0.541640,0.028364,-0.076163,0.016260,-0.480160,0.090672,0.125394,-0.070599,-0.818654,-0.041829,0.070957,0.831671,-0.017127,0.067312,-0.763846,0.077817,-0.073118,0.682632,0.038025,0.256275,0.007095,0.142313,-1.401688,-0.060562,-0.252889,-0.726825,0.002721,0.306586,-0.663919,-0.394932,0.198643
0.168000,0.048887,-0.136648,0.296397,0.839914,0.032170,-0.003700,0.541752,0.031565,-0.074806,0.008667,-0.585699,0.096936,0.131544,-0.069901,-0.818635,-0.041565,0.068689,0.831263,-0.016992,0.065649,-0.763822,0.078368,-0.074654,0.681936,0.038246,0.349027,0.009422,0.131626,-1.134013,-0.203992,0.067536,-0.831499,0.011757,0.275425,-0.767912,-0.347962,0.110792
0.170000,0.048945,-0.136788,0.296402,0.839856,0.031635,-0.003935,0.541872,0.028931,-0.070192,0.002286,-0.574653,0.095488,0.141648,-0.069262,-0.818625,-0.041322,0.066620,0.830638,-0.016370,0.064025,-0.763860,0.078961,-0.076154,0.681301,0.038373,0.319131,0.004860,0.121676,-1.034385,-0.312921,0.311064,-0.811940,-0.018857,0.296644,-0.749681,-0.317772,0.063433
0.172000,0.048989,-0.136915,0.296394,0.839788,0.031172,-0.004126,0.542003,0.021995,-0.063235,-0.003998,-0.488911,0.094354,0.154470,-0.068854,-0.818643,-0.041071,0.064456,0.829995,-0.016025,0.062602,-0.763992,0.079650,-0.077456,0.680694,0.038461,0.203937,-0.008733,0.125424,-1.082220,-0.321489,0.172334,-0.711523,-0.066066,0.344571,-0.651446,-0.303451,0.043982
0.174000,0.049014,-0.137025,0.296373,0.839708,0.030823,-0.004242,0.542146,0.012454,-0.054917,-0.010162,-0.353205,0.095667,0.169492,-0.068796,-0.818705,-0.040784,0.062024,0.829456,-0.016342,0.061484,-0.764234,0.080466,-0.078460,0.680080,0.038563,0.029132,-0.031034,0.143639,-1.215692,-0.269485,-0.158105,-0.559167,-0.121026,0.407880,-0.501612,-0.306737,0.051123
0.176000,0.049029,-0.137122,0.296343,0.839620,0.030520,-0.004331,0.542299,0.007291,-0.048701,-0.015124,-0.299721,0.094003,0.179710,-0.068854,-0.818719,-0.040596,0.059608,0.828959,-0.016705,0.060497,-0.764545,0.081337,-0.079337,0.679496,0.038630,-0.028723,-0.006952,0.094031,-1.208384,-0.248227,-0.181735,-0.493280,-0.155296,0.435392,-0.438503,-0.291946,0.033368
0.178000,0.049040,-0.137211,0.296305,0.839528,0.030212,-0.004424,0.542457,0.005750,-0.044360,-0.019186,-0.304953,0.093123,0.186778,-0.068891,-0.818669,-0.040538,0.057454,0.828399,-0.016347,0.059514,-0.764886,0.082206,-0.080216,0.678951,0.038645,-0.018691,0.024880,0.029072,-1.076589,-0.280290,0.178764,-0.491642,-0.170664,0.434572,-0.439855,-0.272874,0.007491
0.180000,0.049054,-0.137294,0.296257,0.839436,0.029846,-0.004546,0.542620,0.006714,-0.041627,-0.023711,-0.370110,0.100577,0.192346,-0.068784,-0.818548,-0.040598,0.055675,0.827899,-0.015808,0.058408,-0.765200,0.083003,-0.081223,0.678437,0.038590,0.053743,0.060689,-0.030114,-0.889828,-0.249559,0.269764,-0.552978,-0.156867,0.398781,-0.503542,-0.256808,-0.027492
0.182000,0.049070,-0.137373,0.296200,0.839341,0.029408,-0.004695,0.542789,0.007987,-0.039412,-0.028808,-0.445038,0.117710,0.199327,-0.068517,-0.818378,-0.040713,0.054226,0.827589,-0.015727,0.057156,-0.765452,0.083701,-0.082382,0.677920,0.038492,0.133100,0.084972,-0.057624,-0.724419,-0.155102,0.040322,-0.626342,-0.126402,0.348508,-0.579035,-0.258666,-0.048924
0.184000,0.049079,-0.137443,0.296133,0.839241,0.028979,-0.004817,0.542966,0.004690,-0.035114,-0.033106,-0.422234,0.134806,0.209027,-0.068310,-0.818214,-0.040799,0.052820,0.827436,-0.015986,0.055960,-0.765684,0.084364,-0.083486,0.677355,0.038430,0.103839,0.081678,-0.042670,-0.702899,-0.076829,-0.129161,-0.597601,-0.115560,0.331579,-0.551998,-0.282490,-0.031263
0.186000,0.049073,-0.137501,0.296061,0.839130,0.028651,-0.004858,0.543155,-0.002785,-0.029003,-0.036147,-0.293744,0.149252,0.221465,-0.068387,-0.818117,-0.040769,0.051236,0.827235,-0.015782,0.055037,-0.765945,0.085074,-0.084320,0.676697,0.038491,-0.038720,0.048858,0.014728,-0.791829,-0.100090,0.101780,-0.461505,-0.130655,0.355408,-0.417342,-0.329073,0.030818
0.188000,0.049056,-0.137549,0.295982,0.839009,0.028391,-0.004836,0.543354,-0.008586,-0.023711,-0.039344,-0.201585,0.164000,0.233203,-0.068670,-0.818078,-0.040636,0.049538,0.827016,-0.015305,0.054309,-0.766221,0.085809,-0.084962,0.675963,0.038645,-0.141461,0.019576,0.066408,-0.849474,-0.109683,0.238473,-0.364201,-0.138082,0.367023,-0.320961,-0.366705,0.076928
0.190000,0.049035,-0.137589,0.295896,0.838883,0.028132,-0.004794,0.543563,-0.010401,-0.020462,-0.043255,-0.190065,0.181885,0.243820,-0.068983,-0.818076,-0.040422,0.047918,0.826811,-0.014856,0.053601,-0.766473,0.086509,-0.085585,0.675178,0.038838,-0.156444,0.000538,0.107001,-0.809582,-0.102472,0.224780,-0.353724,-0.125961,0.350337,-0.311257,-0.392652,0.096255
0.192000,0.049018,-0.137627,0.295800,0.838754,0.027804,-0.004775,0.543779,-0.008547,-0.018818,-0.047703,-0.260188,0.199188,0.252638,-0.069153,-0.818082,-0.040177,0.046542,0.826700,-0.014844,0.052745,-0.766672,0.087125,-0.086358,0.674385,0.038994,-0.084869,-0.002929,0.122700,-0.688162,-0.055388,0.005982,-0.428286,-0.099290,0.307781,-0.386480,-0.396672,0.078290
0.194000,0.049006,-0.137662,0.295697,0.838622,0.027409,-0.004786,0.544003,-0.006070,-0.017324,-0.051590,-0.332758,0.211991,0.261371,-0.069172,-0.818098,-0.039911,0.045441,0.826584,-0.014861,0.051732,-0.766832,0.087667,-0.087289,0.673597,0.039106,-0.009459,-0.007665,0.132756,-0.550680,-0.058058,-0.008840,-0.506563,-0.080193,0.270928,-0.465807,-0.393826,0.055786
0.196000,0.048993,-0.137690,0.295588,0.838485,0.027003,-0.004797,0.544235,-0.006561,-0.014003,-0.054544,-0.340966,0.216874,0.271551,-0.069182,-0.818147,-0.039614,0.044420,0.826412,-0.014629,0.050699,-0.767008,0.088200,-0.088243,0.672818,0.039196,-0.005277,-0.024684,0.148634,-0.510088,-0.086359,0.115960,-0.516250,-0.088209,0.266872,-0.476646,-0.389361,0.044986
0.198000,0.048971,-0.137707,0.295475,0.838337,0.026667,-0.004763,0.544478,-0.011072,-0.008592,-0.056786,-0.258104,0.217632,0.284897,-0.069382,-0.818275,-0.039232,0.043230,0.826120,-0.013914,0.049836,-0.767257,0.088806,-0.089029,0.672020,0.039327,-0.100019,-0.064030,0.191132,-0.595032,-0.145520,0.357707,-0.431737,-0.124471,0.303013,-0.393403,-0.399003,0.065723
0.200000,0.048941,-0.137714,0.295356,0.838182,0.026371,-0.004699,0.544733,-0.014733,-0.003581,-0.059529,-0.208100,0.220169,0.298416,-0.069709,-0.818468,-0.038781,0.041859,0.825870,-0.013499,0.049076,-0.767561,0.089458,-0.089715,0.671216,0.039470,-0.163394,-0.096649,0.225654,-0.685792,-0.125317,0.207599,-0.380120,-0.151786,0.326014,-0.342832,-0.402185,0.071428
0.202000,0.048948,-0.137736,0.295240,0.838034,0.025734,-0.004846,0.544989,0.003144,-0.011181,-0.057582,-0.609096,0.229664,0.301795,-0.069187,-0.818488,-0.038590,0.041615,0.825023,-0.008718,0.047465,-0.767613,0.089671,-0.091263,0.670504,0.039375,0.261190,-0.010009,0.095046,-0.122067,-0.423464,2.390323,-0.805535,-0.026204,0.106540,-0.773784,-0.355716,-0.047645
0.204000,0.048967,-0.137764,0.295118,0.837882,0.024860,-0.005101,0.545262,0.009466,-0.013775,-0.061368,-0.866195,0.269114,0.322235,-0.068195,-0.818437,-0.038428,0.041483,0.824679,-0.005573,0.045316,-0.767434,0.089543,-0.093352,0.669749,0.039169,0.495673,0.025688,0.081004,-0.065870,-0.171729,1.572580,-1.074209,0.089646,-0.064216,-1.044921,-0.377510,-0.102981
0.206000,0.048960,-0.137767,0.294962,0.837716,0.024080,-0.005236,0.545550,-0.003368,-0.001689,-0.077781,-0.721693,0.319228,0.339284,-0.067987,-0.819011,-0.037365,0.040250,0.825282,-0.006386,0.043513,-0.767263,0.089496,-0.094905,0.669352,0.038287,0.104100,-0.287236,0.531556,-0.616326,0.301413,-0.406556,-0.901657,0.085505,-0.023758,-0.776428,-0.198618,-0.441062
0.208000,0.048920,-0.137745,0.294786,0.837532,0.023510,-0.005205,0.545858,-0.020107,0.011212,-0.088250,-0.454460,0.342649,0.360846,-0.068758,-0.820133,-0.035579,0.037927,0.826088,-0.007834,0.042294,-0.767221,0.089661,-0.095777,0.669095,0.037148,-0.385281,-0.560649,0.892909,-1.161614,0.402899,-0.724171,-0.609478,0.021202,0.082531,-0.435627,-0.128461,-0.569605
0.210000,0.048867,-0.137687,0.294559,0.837367,0.023112,-0.005073,0.546129,-0.026576,0.029076,-0.113446,-0.255930,0.334060,0.316380,-0.069875,-0.823108,-0.027875,0.035343,0.826467,-0.005994,0.041598,-0.767442,0.090228,-0.095325,0.671095,0.028867,-0.558553,-1.487564,3.852059,-1.291895,0.189400,0.920013,-0.348132,-0.110864,0.283860,0.225769,1.000035,-4.140482
0.212000,0.048833,-0.137628,0.294317,0.837192,0.022522,-0.005045,0.546421,-0.016739,0.029607,-0.120779,-0.473580,0.351222,0.341813,-0.071228,-0.825758,-0.024122,0.033404,0.826408,-0.002482,0.040417,-0.767621,0.090673,-0.095748,0.672860,0.024376,-0.676848,-1.324823,1.876589,-0.969472,-0.029490,1.756412,-0.590515,-0.089501,0.222401,-0.211437,0.882110,-2.245144
0.214000,0.048857,-0.137566,0.294004,0.837054,0.021461,-0.005297,0.546674,0.011874,0.030768,-0.156756,-1.020807,0.373975,0.298442,-0.070799,-0.830584,-0.013225,0.032873,0.826838,-0.001114,0.038170,-0.767725,0.091015,-0.097013,0.676859,0.013329,0.214566,-2.413160,5.448480,-0.265718,0.215184,0.683884,-1.123304,-0.052021,0.170873,-0.632528,1.999699,-5.523610
0.216000,0.048891,-0.137505,0.293673,0.836894,0.020214,-0.005606,0.546964,0.017102,0.030313,-0.165230,-1.207950,0.428505,0.343086,-0.070896,-0.834945,-0.007097,0.032593,0.827341,-0.001734,0.035492,-0.767682,0.091157,-0.099305,0.680068,0.008332,-0.048375,-2.180700,3.063963,-0.140177,0.251266,-0.309980,-1.338915,0.021654,0.070970,-1.145883,1.604380,-2.498335
0.218000,0.048907,-0.137407,0.293277,0.836758,0.019162,-0.005769,0.547207,0.008193,0.049041,-0.197875,-0.965499,0.442365,0.287413,-0.071158,-0.841884,0.007909,0.031889,0.827614,-0.001193,0.033459,-0.767868,0.091740,-0.100073,0.685858,-0.005047,-0.130984,-3.469243,7.503090,-0.351604,0.136626,0.270299,-1.016645,-0.093043,0.291706,-0.384075,2.895122,-6.689570
0.220000,0.048887,-0.137289,0.292879,0.836595,0.018338,-0.005753,0.547485,-0.010015,0.059134,-0.199054,-0.675971,0.469291,0.326442,-0.073326,-0.848084,0.016788,0.030406,0.827212,0.001143,0.032026,-0.768131,0.092457,-0.100479,0.691029,-0.013473,-1.084220,-3.100070,4.439537,-0.741801,-0.201224,1.167959,-0.716292,-0.131408,0.358246,-0.203107,2.585621,-4.213321
0.222000,0.048876,-0.137149,0.292414,0.836465,0.017440,-0.005769,0.547712,-0.005477,0.069847,-0.232429,-0.756377,0.481254,0.265667,-0.074784,-0.856559,0.033669,0.029161,0.826912,0.003239,0.030566,-0.768482,0.093383,-0.100207,0.698785,-0.030971,-0.728975,-4.237795,8.440417,-0.622585,-0.149699,1.048306,-0.730141,-0.175573,0.462998,0.136031,3.877750,-8.749019
0.224000,0.048879,-0.137020,0.291943,0.836314,0.016290,-0.005883,0.547976,0.001274,0.064553,-0.235797,-1.020665,0.538727,0.312655,-0.076619,-0.864098,0.044292,0.028275,0.826646,0.003682,0.028512,-0.768584,0.093973,-0.101343,0.705321,-0.041605,-0.917125,-3.769239,5.311403,-0.442644,-0.133313,0.221558,-1.026963,-0.050783,0.295246,-0.568144,3.268075,-5.316798
0.226000,0.048914,-0.136888,0.291407,0.836201,0.014849,-0.006155,0.548187,0.017711,0.066244,-0.267931,-1.350202,0.564771,0.251134,-0.076863,-0.873835,0.063510,0.028225,0.826621,0.003407,0.025894,-0.768598,0.094533,-0.102605,0.713993,-0.060196,-0.122025,-4.868632,9.609351,-0.025050,-0.012519,-0.137548,-1.309054,-0.006941,0.279852,-0.630783,4.336250,-9.295536
0.228000,0.048935,-0.136755,0.290874,0.836065,0.013417,-0.006367,0.548430,0.010493,0.066418,-0.266283,-1.310742,0.610820,0.290020,-0.078158,-0.882626,0.076967,0.027931,0.826112,0.004449,0.023340,-0.768475,0.094946,-0.104389,0.721440,-0.072508,-0.647633,-4.395579,6.728564,-0.147276,-0.254124,0.521036,-1.277100,0.061408,0.206532,-0.892155,3.723406,-6.155743
0.230000,0.048938,-0.136598,0.290291,0.835958,0.012132,-0.006463,0.548621,0.001043,0.078636,-0.291927,-1.124228,0.625519,0.227743,-0.079290,-0.893294,0.098098,0.027173,0.825468,0.006944,0.021326,-0.768466,0.095661,-0.104803,0.730883,-0.092756,-0.566007,-5.333574,10.565497,-0.378851,-0.322069,1.247253,-1.007014,0.004481,0.357719,-0.206707,4.721597,-10.124092
0.232000,0.048915,-0.136435,0.289707,0.835829,0.010899,-0.006468,0.548843,-0.011314,0.081195,-0.291968,-1.029952,0.674653,0.264552,-0.081678,-0.902838,0.113090,0.025749,0.824835,0.008681,0.019510,-0.768342,0.096278,-0.105474,0.739199,-0.107542,-1.194234,-4.772014,7.495639,-0.711734,-0.316790,0.868676,-0.907699,0.061994,0.308100,-0.335810,4.158016,-7.393205
0.234000,0.048905,-0.136266,0.289070,0.835733,0.009505,-0.006550,0.549015,-0.005018,0.084524,-0.318547,-1.208921,0.697312,0.205718,-0.082926,-0.913882,0.134693,0.024549,0.824672,0.009021,0.017457,-0.768166,0.096926,-0.105831,0.749240,-0.129312,-0.623577,-5.522035,10.801905,-0.600025,-0.081110,0.169642,-1.026806,0.087799,0.324191,-0.178645,5.020185,-10.885109
0.236000,0.048907,-0.136110,0.288421,0.835621,0.007856,-0.006714,0.549209,0.000932,0.077982,-0.324420,-1.464972,0.769907,0.235803,-0.084305,-0.923928,0.151328,0.024355,0.825447,0.006990,0.014854,-0.767688,0.097227,-0.107406,0.758103,-0.145452,-0.689584,-5.023376,8.317489,-0.097450,0.387402,-1.015504,-1.301205,0.238992,0.150745,-0.787491,4.431533,-8.069657
0.238000,0.048905,-0.135946,0.287732,0.835535,0.006212,-0.006849,0.549360,-0.000714,0.082070,-0.344594,-1.446604,0.790296,0.186319,-0.085070,-0.935141,0.173416,0.024653,0.827054,0.003245,0.012400,-0.767216,0.097660,-0.108280,0.768216,-0.166544,-0.382412,-5.606249,11.043617,0.149128,0.803242,-1.872409,-1.227132,0.236022,0.216174,-0.436788,5.056363,-10.546112
0.240000,0.048864,-0.135771,0.287056,0.835431,0.004855,-0.006790,0.549533,-0.020446,0.087406,-0.337657,-1.099331,0.795613,0.210257,-0.087248,-0.945469,0.190927,0.024569,0.828936,-0.001333,0.010666,-0.766838,0.098253,-0.108657,0.777435,-0.183065,-1.089121,-5.163846,8.755576,-0.041918,0.941069,-2.288671,-0.866761,0.189292,0.296629,-0.188632,4.609788,-8.260519
0.242000,0.048797,-0.135580,0.286378,0.835350,0.003809,-0.006606,0.549666,-0.033457,0.095835,-0.338961,-0.771931,0.727847,0.162051,-0.089333,-0.956653,0.212430,0.024204,0.831079,-0.006274,0.009704,-0.766783,0.099275,-0.107621,0.787885,-0.204237,-1.042382,-5.592458,10.751691,-0.182634,1.071623,-2.470544,-0.481309,0.027200,0.510898,0.517940,5.224736,-10.586161
0.244000,0.048720,-0.135388,0.285744,0.835261,0.002946,-0.006417,0.549808,-0.038546,0.095606,-0.317085,-0.615600,0.632748,0.172320,-0.091601,-0.967128,0.230246,0.023779,0.833220,-0.011152,0.009037,-0.766996,0.100472,-0.106749,0.797771,-0.222019,-1.134196,-5.237402,8.907759,-0.212247,1.070345,-2.439355,-0.333366,-0.106347,0.598486,0.436010,4.943207,-8.890692
0.246000,0.048673,-0.135209,0.285142,0.835195,0.002004,-0.006447,0.549913,-0.023912,0.089574,-0.301067,-0.802627,0.493110,0.129771,-0.092015,-0.978049,0.250606,0.024048,0.835507,-0.015947,0.008010,-0.767465,0.101760,-0.106316,0.808502,-0.242856,-0.207080,-5.460314,10.179939,0.134313,1.143866,-2.397102,-0.513799,-0.234621,0.644270,0.216783,5.365682,-10.418753
0.248000,0.048636,-0.135048,0.284597,0.835122,0.001068,-0.006593,0.550024,-0.018506,0.080516,-0.272334,-0.860863,0.391629,0.139253,-0.091765,-0.988266,0.268448,0.024621,0.837700,-0.020482,0.006809,-0.768055,0.102991,-0.106786,0.818446,-0.260240,0.125094,-5.108632,8.921159,0.286574,1.096089,-2.267650,-0.600281,-0.294760,0.615179,-0.234870,4.971643,-8.692095
0.250000,0.048586,-0.134896,0.284097,0.835061,0.000326,-0.006719,0.550116,-0.024867,0.075907,-0.250065,-0.689064,0.303043,0.115235,-0.091027,-0.998433,0.288151,0.025033,0.839731,-0.024610,0.005978,-0.768783,0.104317,-0.106831,0.828491,-0.278783,0.368838,-5.083280,9.851507,0.206016,1.015582,-2.064297,-0.415404,-0.364208,0.663081,-0.022933,5.022672,-9.271166
0.252000,0.048501,-0.134752,0.283655,0.834996,-0.000103,-0.006713,0.550215,-0.042249,0.072031,-0.221131,-0.354092,0.240340,0.121705,-0.091012,-1.007724,0.305938,0.024864,0.841430,-0.028186,0.005821,-0.769593,0.105705,-0.106378,0.837802,-0.295547,0.007732,-4.645518,8.893505,-0.084289,0.849550,-1.787805,-0.078542,-0.404833,0.693874,0.226730,4.655564,-8.382279
0.254000,0.048396,-0.134620,0.283266,0.834941,-0.000332,-0.006662,0.550300,-0.052768,0.066399,-0.194694,-0.162339,0.168085,0.102677,-0.091041,-1.016392,0.323678,0.024424,0.842877,-0.031243,0.006075,-0.770442,0.107085,-0.105350,0.847080,-0.313392,-0.014692,-4.333864,8.870119,-0.220070,0.723477,-1.528497,0.126965,-0.424598,0.690274,0.513888,4.638758,-8.922356
0.256000,0.048286,-0.134507,0.282934,0.834886,-0.000500,-0.006652,0.550382,-0.055035,0.056430,-0.165672,-0.134202,0.101243,0.099577,-0.090867,-1.024283,0.340185,0.024017,0.844095,-0.033857,0.006360,-0.771255,0.108316,-0.104555,0.855864,-0.330306,0.087161,-3.945667,8.253541,-0.203828,0.608890,-1.306754,0.142472,-0.406600,0.615554,0.397524,4.392418,-8.457121
0.258000,0.048186,-0.134417,0.282663,0.834839,-0.000720,-0.006762,0.550453,-0.049957,0.044638,-0.135773,-0.243956,0.028275,0.087130,-0.089944,-1.031450,0.355854,0.023926,0.845135,-0.036054,0.006395,-0.771993,0.109309,-0.104225,0.864391,-0.346408,0.461588,-3.583480,7.834434,-0.045265,0.520373,-1.098909,0.017306,-0.369106,0.496402,0.165168,4.263372,-8.050675
0.260000,0.048088,-0.134348,0.282446,0.834795,-0.000912,-0.006926,0.550517,-0.049091,0.034872,-0.108362,-0.249707,-0.031148,0.078338,-0.088554,-1.038188,0.371533,0.023927,0.845965,-0.037810,0.006388,-0.772677,0.110136,-0.104120,0.872582,-0.361564,0.694708,-3.369231,7.839218,0.000256,0.414618,-0.877881,-0.003313,-0.342019,0.413653,0.052350,4.095633,-7.578118
0.262000,0.047980,-0.134291,0.282290,0.834755,-0.000996,-0.007085,0.550575,-0.053994,0.028446,-0.077870,-0.156823,-0.086889,0.070751,-0.087236,-1.044112,0.385448,0.023792,0.846521,-0.039011,0.006553,-0.773322,0.110823,-0.103818,0.880474,-0.375021,0.658981,-2.962021,6.957918,-0.067193,0.277946,-0.600368,0.082477,-0.322508,0.343060,0.150928,3.945844,-6.728685
0.264000,0.047857,-0.134242,0.282183,0.834724,-0.000916,-0.007202,0.550620,-0.061123,0.024382,-0.053532,0.001838,-0.142179,0.054656,-0.085975,-1.049768,0.399615,0.023397,0.846827,-0.039662,0.007040,-0.773993,0.111489,-0.102923,0.888400,-0.388957,0.630439,-2.827640,7.083191,-0.197838,0.153097,-0.325441,0.243649,-0.335124,0.333000,0.447673,3.963102,-6.967936
0.266000,0.047725,-0.134203,0.282138,0.834694,-0.000724,-0.007313,0.550665,-0.066070,0.019776,-0.022815,0.099568,-0.198757,0.052444,-0.085014,-1.054458,0.410789,0.022832,0.846857,-0.039725,0.007700,-0.774659,0.112040,-0.101773,0.896004,-0.400661,0.480657,-2.345389,5.586977,-0.282334,0.015165,-0.031587,0.329777,-0.333082,0.275905,0.574909,3.801712,-5.852084
0.268000,0.047599,-0.134176,0.282135,0.834673,-0.000521,-0.007489,0.550694,-0.062920,0.013008,-0.001326,0.072363,-0.258503,0.033998,-0.083440,-1.059072,0.422966,0.022388,0.846744,-0.039372,0.008285,-0.775333,0.112509,-0.100491,0.903711,-0.413113,0.786887,-2.306722,6.088754,-0.222023,-0.056492,0.176468,0.292392,-0.337287,0.234368,0.640965,3.853538,-6.225894
0.270000,0.047485,-0.134169,0.282187,0.834648,-0.000405,-0.007768,0.550728,-0.057308,0.003933,0.026211,-0.056336,-0.297374,0.041325,-0.081676,-1.062595,0.431698,0.022213,0.846490,-0.038719,0.008548,-0.775901,0.112708,-0.099712,0.910800,-0.422233,0.882101,-1.761751,4.365811,-0.087464,-0.127016,0.326650,0.131610,-0.283713,0.099573,0.389571,3.544762,-4.560277
0.272000,0.047378,-0.134176,0.282267,0.834632,-0.000337,-0.008109,0.550749,-0.053448,-0.003886,0.039897,-0.130798,-0.321322,0.025698,-0.079270,-1.066069,0.442193,0.022229,0.846196,-0.037936,0.008642,-0.776388,0.112777,-0.098791,0.917883,-0.432540,1.202852,-1.736778,5.247414,0.008020,-0.146928,0.391523,0.047131,-0.243829,0.034336,0.460268,3.541426,-5.153012
0.274000,0.047260,-0.134195,0.282390,0.834605,-0.000230,-0.008415,0.550784,-0.058913,-0.009489,0.061294,-0.079045,-0.315581,0.042639,-0.077564,-1.068228,0.448820,0.022103,0.845744,-0.036976,0.008796,-0.776732,0.112643,-0.097767,0.924093,-0.439207,0.853422,-1.079614,3.313737,-0.063106,-0.226013,0.479643,0.077027,-0.171702,-0.066995,0.512156,3.105116,-3.333958
0.276000,0.047135,-0.134223,0.282525,0.834586,-0.000087,-0.008696,0.550809,-0.062445,-0.013965,0.067842,-0.034584,-0.312889,0.030035,-0.075709,-1.070305,0.457420,0.021897,0.845269,-0.035994,0.009042,-0.777004,0.112469,-0.096047,0.930312,-0.447863,0.927091,-1.038322,4.299739,-0.102702,-0.237440,0.491126,0.123161,-0.136315,-0.087133,0.860165,3.109140,-4.327605
0.278000,0.047003,-0.134261,0.282694,0.834553,0.000054,-0.008960,0.550855,-0.066286,-0.018796,0.084511,-0.027743,-0.298694,0.055281,-0.074552,-1.070985,0.461539,0.021617,0.844699,-0.034965,0.009249,-0.777147,0.112109,-0.094364,0.935581,-0.452562,0.578536,-0.340215,2.059777,-0.139934,-0.285271,0.514460,0.103444,-0.071487,-0.180044,0.841183,2.634753,-2.349838
0.280000,0.046880,-0.134310,0.282866,0.834525,0.000101,-0.009293,0.550891,-0.061265,-0.024336,0.085985,-0.144016,-0.303621,0.045197,-0.072604,-1.071751,0.468008,0.021582,0.844218,-0.034063,0.009208,-0.777248,0.111698,-0.092441,0.940948,-0.459357,0.974212,-0.382962,3.234209,-0.017764,-0.240316,0.450981,-0.020468,-0.050341,-0.205213,0.961878,2.683181,-3.397338
0.282000,0.046762,-0.134368,0.283063,0.834482,0.000058,-0.009680,0.550951,-0.058830,-0.029114,0.098243,-0.248358,-0.299904,0.074356,-0.070882,-1.071285,0.470140,0.021693,0.843724,-0.033206,0.008892,-0.777273,0.111126,-0.090929,0.945436,-0.462135,0.860736,0.232957,1.066205,0.055299,-0.247287,0.428826,-0.158319,-0.012573,-0.286027,0.755789,2.244133,-1.388856
0.284000,0.046649,-0.134431,0.283254,0.834442,-0.000019,-0.010099,0.551003,-0.056648,-0.031354,0.095497,-0.294597,-0.308129,0.066800,-0.068449,-1.071055,0.474955,0.021896,0.843316,-0.032448,0.008479,-0.777342,0.110621,-0.088947,0.950120,-0.467174,1.216657,0.114946,2.407588,0.101669,-0.203756,0.378963,-0.206421,-0.034520,-0.252349,0.990985,2.342084,-2.519660
0.286000,0.046523,-0.134492,0.283461,0.834383,-0.000026,-0.010466,0.551085,-0.063194,-0.030782,0.103770,-0.206855,-0.302081,0.100347,-0.066786,-1.069698,0.475626,0.021841,0.842832,-0.031630,0.008197,-0.777443,0.110135,-0.086847,0.953967,-0.468177,0.831718,0.678451,0.335170,-0.027536,-0.242005,0.408648,-0.140809,-0.050509,-0.243382,1.050155,1.923610,-0.501489
0.288000,0.046394,-0.134552,0.283658,0.834327,-0.000005,-0.010830,0.551164,-0.064343,-0.030136,0.098122,-0.182517,-0.316451,0.096843,-0.064630,-1.068593,0.478784,0.021726,0.842415,-0.030858,0.007970,-0.777667,0.109819,-0.084112,0.958068,-0.471537,1.077694,0.552691,1.579396,-0.057572,-0.208334,0.386171,-0.113514,-0.112041,-0.157914,1.367537,2.050407,-1.680075
0.290000,0.046262,-0.134613,0.283863,0.834252,0.000007,-0.011206,0.551269,-0.065813,-0.030464,0.102779,-0.195816,-0.320953,0.128495,-0.062862,-1.066523,0.478281,0.021566,0.841983,-0.030088,0.007671,-0.777938,0.109511,-0.081582,0.961482,-0.471598,0.883944,1.035212,-0.251914,-0.080035,-0.216238,0.384943,-0.149433,-0.135505,-0.153937,1.265084,1.707109,-0.030293
0.292000,0.046140,-0.134677,0.284054,0.834178,-0.000045,-0.011648,0.551372,-0.061454,-0.031623,0.095327,-0.285969,-0.341032,0.126789,-0.060287,-1.064725,0.480192,0.021582,0.841666,-0.029432,0.007189,-0.778313,0.109318,-0.078877,0.965147,-0.473943,1.287709,0.898658,0.955976,0.007986,-0.158276,0.328048,-0.241320,-0.187447,-0.096322,1.352176,1.832300,-1.172471
0.294000,0.046015,-0.134740,0.284246,0.834089,-0.000113,-0.012106,0.551498,-0.062488,-0.031727,0.096091,-0.308177,-0.345200,0.155507,-0.058018,-1.062193,0.479306,0.021578,0.841356,-0.028813,0.006629,-0.778738,0.109150,-0.076455,0.968242,-0.473704,1.134730,1.265937,-0.443162,-0.001712,-0.155241,0.309661,-0.280039,-0.212411,-0.084281,1.211374,1.547771,0.119422
0.296000,0.045887,-0.134802,0.284421,0.833997,-0.000169,-0.012566,0.551626,-0.063576,-0.030931,0.087328,-0.298808,-0.353737,0.158062,-0.055414,-1.059918,0.480490,0.021539,0.841113,-0.028274,0.006098,-0.779261,0.109126,-0.073725,0.971491,-0.475230,1.301977,1.137813,0.592059,-0.019472,-0.121414,0.269427,-0.265470,-0.261361,-0.011831,1.364908,1.624174,-0.763155
0.298000,0.045749,-0.134859,0.284586,0.833894,-0.000157,-0.012977,0.551772,-0.069431,-0.028459,0.082774,-0.215493,-0.351125,0.178845,-0.053293,-1.057356,0.480633,0.021280,0.840862,-0.027756,0.005730,-0.779861,0.109217,-0.070900,0.974470,-0.475491,1.060322,1.280845,0.071293,-0.129695,-0.125367,0.258953,-0.183737,-0.299852,0.045287,1.412201,1.489553,-0.130655
0.300000,0.045608,-0.134913,0.284733,0.833787,-0.000142,-0.013397,0.551924,-0.070266,-0.026987,0.073149,-0.216642,-0.359367,0.185168,-0.051003,-1.055099,0.482136,0.021002,0.840681,-0.027327,0.005370,-0.780556,0.109441,-0.067970,0.977636,-0.477087,1.144966,1.128545,0.751473,-0.139004,-0.090773,0.214693,-0.180080,-0.347723,0.112108,1.464952,1.583242,-0.798019
0.302000,0.045472,-0.134963,0.284858,0.833675,-0.000171,-0.013865,0.552081,-0.068075,-0.025104,0.062827,-0.280112,-0.376098,0.193228,-0.048567,-1.053149,0.484127,0.020829,0.840604,-0.027012,0.004889,-0.781364,0.109784,-0.065246,0.981148,-0.479648,1.217809,0.975068,0.995526,-0.086307,-0.038200,0.157469,-0.240514,-0.403800,0.171759,1.362192,1.755669,-1.280212
0.304000,0.045338,-0.135010,0.284965,0.833556,-0.000230,-0.014363,0.552248,-0.066832,-0.023291,0.053389,-0.322025,-0.385000,0.206015,-0.046113,-1.051555,0.486315,0.020714,0.840607,-0.026804,0.004323,-0.782259,0.110226,-0.062820,0.984828,-0.482417,1.227074,0.796751,1.094002,-0.057429,0.001172,0.103955,-0.282811,-0.447567,0.220693,1.212920,1.840314,-1.384689
0.306000,0.045197,-0.135055,0.285073,0.833424,-0.000280,-0.014835,0.552435,-0.070675,-0.022929,0.053998,-0.299967,-0.367608,0.229093,-0.044229,-1.049579,0.485726,0.020508,0.840557,-0.026609,0.003793,-0.783091,0.110594,-0.060713,0.988012,-0.482188,0.941933,0.988272,-0.294247,-0.103226,-0.024911,0.097412,-0.265174,-0.416212,0.184169,1.053815,1.591670,0.114864
0.308000,0.045048,-0.135103,0.285175,0.833289,-0.000322,-0.015278,0.552626,-0.074499,-0.023652,0.051184,-0.277043,-0.347337,0.234273,-0.042515,-1.047610,0.485075,0.020239,0.840478,-0.026456,0.003327,-0.783836,0.110901,-0.058538,0.991046,-0.481609,0.857125,0.984613,-0.325524,-0.134593,-0.039346,0.076261,-0.233172,-0.372664,0.153526,1.087187,1.516905,0.289117
0.310000,0.044885,-0.135158,0.285294,0.833144,-0.000362,-0.015665,0.552834,-0.081335,-0.027828,0.059367,-0.244121,-0.302571,0.253265,-0.041496,-1.044669,0.480925,0.019862,0.840253,-0.026283,0.002923,-0.784329,0.110943,-0.056542,0.993069,-0.477348,0.509322,1.470059,-2.074934,-0.188133,-0.112654,0.086575,-0.201754,-0.246429,0.021124,0.997845,1.011658,2.130469
0.312000,0.044722,-0.135226,0.285410,0.833011,-0.000480,-0.016076,0.553023,-0.081396,-0.033846,0.057863,-0.322737,-0.279635,0.232814,-0.039869,-1.041715,0.479091,0.019673,0.840020,-0.026187,0.002406,-0.784618,0.110803,-0.054165,0.995172,-0.475724,0.813960,1.477050,-0.917002,-0.094736,-0.116456,0.048054,-0.258523,-0.144527,-0.070387,1.188533,1.051735,0.812396
0.314000,0.044554,-0.135310,0.285551,0.832868,-0.000674,-0.016489,0.553225,-0.084343,-0.042154,0.070408,-0.386215,-0.239314,0.250481,-0.038589,-1.037439,0.473255,0.019577,0.839635,-0.026068,0.001744,-0.784602,0.110305,-0.052197,0.995980,-0.470513,0.639778,2.138243,-2.918142,-0.047808,-0.192223,0.059729,-0.330907,0.007960,-0.248978,0.984258,0.403988,2.605147
0.316000,0.044384,-0.135407,0.285692,0.832736,-0.000918,-0.016917,0.553410,-0.085059,-0.048197,0.070842,-0.437359,-0.223782,0.231026,-0.036616,-1.033069,0.469767,0.019613,0.839215,-0.025957,0.001016,-0.784429,0.109671,-0.049779,0.996711,-0.467637,0.986521,2.185072,-1.744285,0.017766,-0.210163,0.055349,-0.364101,0.086948,-0.316581,1.208818,0.365523,1.437976
0.318000,0.044195,-0.135514,0.285865,0.832586,-0.001108,-0.017262,0.553626,-0.094276,-0.053443,0.086124,-0.345179,-0.185025,0.265410,-0.035540,-1.027179,0.460935,0.019402,0.838554,-0.025690,0.000433,-0.784053,0.108813,-0.047723,0.995618,-0.458660,0.538067,2.944705,-4.415815,-0.105259,-0.330409,0.133406,-0.291786,0.188023,-0.429285,1.028371,-0.546503,4.488628
0.320000,0.044003,-0.135626,0.286032,0.832446,-0.001283,-0.017606,0.553825,-0.096168,-0.056248,0.083953,-0.332884,-0.192117,0.245931,-0.033733,-1.021410,0.454979,0.019196,0.837869,-0.025356,-0.000092,-0.783681,0.108003,-0.045009,0.994624,-0.452529,0.903459,2.884436,-2.977969,-0.103296,-0.342737,0.166905,-0.262354,0.185553,-0.404963,1.356625,-0.496975,3.065757
0.322000,0.043800,-0.135745,0.286223,0.832286,-0.001426,-0.017923,0.554055,-0.101499,-0.059518,0.095517,-0.290993,-0.187904,0.282547,-0.032543,-1.014307,0.443662,0.018841,0.837019,-0.024859,-0.000584,-0.783281,0.107120,-0.042814,0.992044,-0.441331,0.594785,3.551725,-5.658507,-0.177602,-0.424911,0.248781,-0.246093,0.200213,-0.441292,1.097569,-1.290044,5.598920
0.324000,0.043602,-0.135866,0.286399,0.832137,-0.001589,-0.018298,0.554266,-0.098714,-0.060570,0.087904,-0.340529,-0.224503,0.260070,-0.030258,-1.007633,0.436044,0.018620,0.836242,-0.024329,-0.001146,-0.783033,0.106423,-0.040066,0.989963,-0.434422,1.142908,3.337198,-3.809123,-0.110111,-0.388739,0.264966,-0.280726,0.123966,-0.348660,1.374118,-1.040561,3.454432
0.326000,0.043397,-0.135991,0.286592,0.831963,-0.001724,-0.018659,0.554514,-0.102508,-0.062445,0.096182,-0.307078,-0.229208,0.304705,-0.028630,-0.999732,0.422898,0.018259,0.835344,-0.023677,-0.001708,-0.782835,0.105732,-0.038092,0.986231,-0.421861,0.813888,3.950312,-6.572735,-0.180797,-0.448686,0.326039,-0.280934,0.099191,-0.345483,0.986697,-1.865971,6.280518
0.328000,0.043193,-0.136114,0.286763,0.831798,-0.001827,-0.019036,0.554750,-0.102279,-0.061323,0.085594,-0.291288,-0.259518,0.289271,-0.026254,-0.992316,0.413363,0.017888,0.834525,-0.023021,-0.002212,-0.782825,0.105292,-0.035590,0.982891,-0.412654,1.187819,3.708214,-4.767582,-0.185134,-0.409513,0.327654,-0.252335,0.004927,-0.220126,1.251119,-1.670104,4.603310
0.330000,0.042972,-0.136237,0.286946,0.831605,-0.001842,-0.019340,0.555028,-0.110277,-0.061703,0.091356,-0.175999,-0.248714,0.338238,-0.024962,-0.983679,0.398300,0.017203,0.833574,-0.022278,-0.002548,-0.782849,0.104884,-0.033772,0.977752,-0.397074,0.645998,4.318455,-7.531472,-0.342869,-0.475500,0.371759,-0.167961,-0.012287,-0.203956,0.909316,-2.569711,7.790318
0.332000,0.042754,-0.136359,0.287101,0.831423,-0.001858,-0.019675,0.555288,-0.109125,-0.060791,0.077631,-0.194944,-0.274139,0.317075,-0.022967,-0.975552,0.387050,0.016585,0.832750,-0.021617,-0.002883,-0.783028,0.104698,-0.031403,0.973217,-0.385785,0.997465,4.063288,-5.624975,-0.308790,-0.412228,0.330453,-0.167189,-0.089077,-0.092979,1.184075,-2.267362,5.644446
0.334000,0.042531,-0.136485,0.287262,0.831219,-0.001897,-0.020016,0.555582,-0.111276,-0.063311,0.080538,-0.216344,-0.266714,0.357436,-0.021724,-0.966278,0.370529,0.015943,0.831882,-0.020993,-0.003314,-0.783190,0.104464,-0.029921,0.967187,-0.369661,0.621459,4.637171,-8.260865,-0.321079,-0.433795,0.311780,-0.215613,-0.081043,-0.116883,0.741073,-3.014916,8.061934
0.336000,0.042315,-0.136612,0.287393,0.831028,-0.001983,-0.020408,0.555853,-0.108127,-0.063428,0.065817,-0.283948,-0.282151,0.332601,-0.019748,-0.957557,0.357888,0.015475,0.831170,-0.020530,-0.003836,-0.783436,0.104376,-0.028015,0.961819,-0.357854,0.987931,4.360164,-6.320139,-0.234048,-0.355847,0.231735,-0.261037,-0.123236,-0.044326,0.953021,-2.684014,5.903364
0.338000,0.042087,-0.136743,0.287530,0.830815,-0.002039,-0.020746,0.556157,-0.113810,-0.065225,0.068095,-0.228544,-0.254151,0.371608,-0.018742,-0.947858,0.340676,0.014831,0.830380,-0.020111,-0.004292,-0.783609,0.104218,-0.026831,0.954846,-0.340445,0.502968,4.849907,-8.605889,-0.321909,-0.395307,0.209727,-0.227828,-0.086568,-0.078770,0.592207,-3.486380,8.704492
0.340000,0.041860,-0.136871,0.287638,0.830616,-0.002099,-0.021089,0.556442,-0.113765,-0.064236,0.054108,-0.234964,-0.257074,0.347441,-0.017294,-0.938749,0.327098,0.014235,0.829707,-0.019829,-0.004708,-0.783832,0.104188,-0.025121,0.948455,-0.326560,0.724201,4.554193,-6.789112,-0.297825,-0.336286,0.140738,-0.208291,-0.111592,-0.014929,0.854776,-3.195467,6.942525
0.342000,0.041625,-0.137003,0.287748,0.830400,-0.002155,-0.021408,0.556752,-0.117593,-0.065732,0.055261,-0.218109,-0.239022,0.378096,-0.016643,-0.928849,0.309278,0.013554,0.828982,-0.019587,-0.005122,-0.783998,0.104094,-0.024052,0.940816,-0.308375,0.325377,4.950018,-8.910151,-0.340671,-0.362389,0.121006,-0.206721,-0.082858,-0.047085,0.534492,-3.819719,9.092621
0.344000,0.041395,-0.137133,0.287832,0.830199,-0.002258,-0.021776,0.557037,-0.114638,-0.064918,0.041746,-0.284615,-0.253025,0.350157,-0.015426,-0.919591,0.294690,0.013049,0.828398,-0.019476,-0.005613,-0.784225,0.104109,-0.022577,0.933978,-0.294299,0.608514,4.628837,-7.293855,-0.252774,-0.292347,0.055775,-0.245868,-0.113273,0.007595,0.737790,-3.418845,7.037962
0.346000,0.041164,-0.137266,0.287916,0.829985,-0.002387,-0.022150,0.557341,-0.115595,-0.066576,0.041876,-0.309376,-0.243320,0.374240,-0.014740,-0.909813,0.276744,0.012556,0.827786,-0.019405,-0.006182,-0.784411,0.104067,-0.021771,0.926153,-0.276732,0.343231,4.889056,-8.973203,-0.246121,-0.305848,0.035406,-0.284316,-0.092999,-0.021189,0.402835,-3.912365,8.783656
0.348000,0.040936,-0.137396,0.287976,0.829782,-0.002528,-0.022541,0.557626,-0.114355,-0.065180,0.030172,-0.328770,-0.251932,0.351321,-0.013678,-0.900720,0.261848,0.012140,0.827271,-0.019418,-0.006742,-0.784653,0.104135,-0.020628,0.918939,-0.262052,0.531052,4.546649,-7.447744,-0.208219,-0.257737,-0.006593,-0.280231,-0.121181,0.033969,0.571414,-3.607250,7.339987
0.350000,0.040698,-0.137526,0.288035,0.829569,-0.002627,-0.022891,0.557929,-0.118578,-0.065147,0.029434,-0.271280,-0.240415,0.371655,-0.013258,-0.891367,0.244707,0.011577,0.826696,-0.019415,-0.007204,-0.784883,0.104206,-0.019896,0.910861,-0.244125,0.209671,4.676468,-8.570532,-0.281573,-0.287331,0.001412,-0.230584,-0.114927,0.035749,0.366110,-4.038836,8.963531
0.352000,0.040463,-0.137653,0.288074,0.829367,-0.002731,-0.023263,0.558214,-0.117821,-0.063333,0.019406,-0.288175,-0.255898,0.350598,-0.012609,-0.882607,0.229833,0.011078,0.826201,-0.019451,-0.007652,-0.785187,0.104393,-0.018882,0.903428,-0.228975,0.324938,4.380121,-7.437286,-0.249139,-0.247455,-0.017821,-0.224067,-0.152111,0.093306,0.506995,-3.716623,7.574655
0.354000,0.040227,-0.137780,0.288108,0.829158,-0.002857,-0.023659,0.558506,-0.117635,-0.063572,0.017029,-0.318859,-0.264249,0.360390,-0.012264,-0.873769,0.213309,0.010627,0.825708,-0.019486,-0.008166,-0.785519,0.104596,-0.018308,0.895656,-0.212618,0.172212,4.419174,-8.262085,-0.225748,-0.246581,-0.017600,-0.256935,-0.165817,0.101692,0.287084,-3.885926,8.178580
0.356000,0.039996,-0.137905,0.288126,0.828959,-0.003006,-0.024092,0.558782,-0.115768,-0.062384,0.009027,-0.359628,-0.280910,0.342552,-0.011722,-0.865454,0.198506,0.010284,0.825287,-0.019551,-0.008723,-0.785910,0.104880,-0.017655,0.888442,-0.198406,0.271177,4.157250,-7.401404,-0.171233,-0.210622,-0.032614,-0.278527,-0.195592,0.141819,0.326328,-3.607327,7.106160
0.358000,0.039760,-0.138027,0.288136,0.828757,-0.003125,-0.024505,0.559063,-0.117956,-0.061293,0.005071,-0.323030,-0.281940,0.347735,-0.011501,-0.857408,0.183740,0.009860,0.824854,-0.019606,-0.009201,-0.786335,0.105221,-0.017230,0.881018,-0.183258,0.110578,4.022902,-7.383082,-0.212075,-0.216158,-0.027408,-0.239063,-0.212277,0.170298,0.212779,-3.711610,7.574033
0.360000,0.039523,-0.138147,0.288135,0.828561,-0.003235,-0.024925,0.559335,-0.118492,-0.059664,-0.000478,-0.320558,-0.291808,0.336454,-0.011326,-0.849799,0.170065,0.009444,0.824454,-0.019659,-0.009642,-0.786801,0.105624,-0.016782,0.873935,-0.169047,0.087307,3.804607,-6.837522,-0.207913,-0.200194,-0.026425,-0.220473,-0.233162,0.201755,0.223640,-3.541648,7.105315
0.362000,0.039291,-0.138262,0.288119,0.828370,-0.003388,-0.025408,0.559595,-0.115935,-0.057636,-0.007975,-0.390561,-0.320515,0.324042,-0.011097,-0.842666,0.157068,0.009180,0.824142,-0.019735,-0.010188,-0.787368,0.106123,-0.016596,0.868543,-0.158571,0.114698,3.566431,-6.498126,-0.132253,-0.155950,-0.038265,-0.273057,-0.283465,0.249423,0.093222,-2.695982,5.238102
0.364000,0.039052,-0.138376,0.288099,0.828181,-0.003505,-0.025859,0.559853,-0.119700,-0.056906,-0.009850,-0.343529,-0.313140,0.321675,-0.011197,-0.835812,0.144203,0.008817,0.823803,-0.019796,-0.010617,-0.787905,0.106617,-0.016476,0.864349,-0.150676,-0.050010,3.427276,-6.432567,-0.181478,-0.169315,-0.030495,-0.214746,-0.268671,0.247128,0.059896,-2.096983,3.947385
0.366000,0.038794,-0.138490,0.288078,0.827988,-0.003493,-0.026142,0.560126,-0.129115,-0.057253,-0.010594,-0.141837,-0.247321,0.332544,-0.011861,-0.829736,0.133733,0.008041,0.823341,-0.019902,-0.010650,-0.788262,0.107031,-0.016116,0.860792,-0.144532,-0.332300,3.037611,-5.234882,-0.387988,-0.231125,-0.052760,-0.016322,-0.178394,0.206833,0.180210,-1.778541,3.072026
0.368000,0.038516,-0.138617,0.288079,0.827782,-0.003393,-0.026238,0.560426,-0.138678,-0.063076,0.000496,0.035669,-0.142472,0.361199,-0.013282,-0.823788,0.122755,0.006883,0.822643,-0.020052,-0.010378,-0.788210,0.107092,-0.015587,0.857370,-0.139405,-0.710325,2.974263,-5.489060,-0.578814,-0.348891,-0.075232,0.135859,0.025980,0.030642,0.264492,-1.711082,2.563508
0.370000,0.038238,-0.138759,0.288097,0.827562,-0.003287,-0.026177,0.560753,-0.139106,-0.071060,0.008983,0.129706,-0.015216,0.390862,-0.014743,-0.818829,0.114823,0.005547,0.821772,-0.020406,-0.010015,-0.787692,0.106743,-0.015081,0.853909,-0.134977,-0.730400,2.479211,-3.966012,-0.668303,-0.435613,-0.177089,0.181588,0.258963,-0.174493,0.252669,-1.730416,2.214033
0.372000,0.037972,-0.138927,0.288157,0.827321,-0.003303,-0.026045,0.561116,-0.133239,-0.083950,0.029857,0.069582,0.110263,0.436795,-0.016225,-0.813879,0.105076,0.004323,0.820684,-0.020928,-0.009917,-0.786600,0.105761,-0.014942,0.850200,-0.130877,-0.740971,2.475468,-4.873718,-0.611953,-0.543810,-0.260543,0.049023,0.545943,-0.491022,0.069477,-1.854631,2.049884
0.374000,0.037735,-0.139113,0.288236,0.827061,-0.003456,-0.025877,0.561505,-0.118379,-0.093191,0.039455,-0.022237,0.217133,0.471701,-0.016885,-0.810329,0.099355,0.003323,0.819517,-0.021708,-0.010164,-0.785128,0.104372,-0.015228,0.846397,-0.127169,-0.330150,1.774786,-2.860410,-0.500031,-0.583796,-0.390082,-0.123666,0.736285,-0.694467,-0.142568,-1.901503,1.854273
0.376000,0.037519,-0.139314,0.288352,0.826774,-0.003700,-0.025686,0.561936,-0.107785,-0.100608,0.057954,-0.085223,0.285635,0.524807,-0.017443,-0.806924,0.091453,0.002438,0.818186,-0.022511,-0.010708,-0.783405,0.102640,-0.015875,0.842445,-0.123638,-0.279193,1.702504,-3.951227,-0.442617,-0.665536,-0.401845,-0.271730,0.861178,-0.865809,-0.323772,-1.975928,1.765306
0.378000,0.037320,-0.139510,0.288470,0.826465,-0.003846,-0.025379,0.562402,-0.099825,-0.098044,0.059368,0.063001,0.326658,0.563917,-0.017657,-0.805329,0.088840,0.001279,0.816775,-0.023294,-0.011104,-0.781789,0.101054,-0.016416,0.838547,-0.120385,-0.106949,0.797470,-1.306101,-0.579289,-0.705665,-0.391070,-0.197945,0.808307,-0.793217,-0.270487,-1.948975,1.626710
0.380000,0.037128,-0.139699,0.288615,0.826124,-0.003884,-0.025002,0.562921,-0.096012,-0.094231,0.072437,0.192732,0.322075,0.622825,-0.018420,-0.803753,0.083022,-0.000174,0.815203,-0.023808,-0.011430,-0.780546,0.099782,-0.016887,0.834686,-0.117264,-0.381178,0.787756,-2.909275,-0.726423,-0.785644,-0.257097,-0.163179,0.621148,-0.636011,-0.235418,-1.930255,1.560379
0.382000,0.036960,-0.139869,0.288751,0.825765,-0.003832,-0.024607,0.563464,-0.083596,-0.085065,0.067807,0.277029,0.286458,0.650573,-0.018792,-0.803753,0.081570,-0.001763,0.813682,-0.024192,-0.011770,-0.780041,0.099241,-0.017325,0.831249,-0.114669,-0.186119,0.000149,-0.725651,-0.794358,-0.760467,-0.192263,-0.169945,0.252637,-0.270332,-0.219029,-1.718657,1.297583
0.384000,0.036818,-0.140029,0.288902,0.825386,-0.003802,-0.024290,0.564034,-0.070926,-0.080040,0.075677,0.216429,0.233142,0.685166,-0.019304,-0.803494,0.076664,-0.003235,0.812167,-0.024362,-0.012388,-0.780064,0.099100,-0.018014,0.828166,-0.112478,-0.256070,0.129500,-2.453015,-0.736141,-0.757511,-0.085005,-0.308875,-0.011320,-0.070633,-0.344316,-1.541671,1.095379
0.386000,0.036717,-0.140174,0.289031,0.825010,-0.003833,-0.024080,0.564592,-0.050611,-0.072527,0.064274,0.104301,0.179314,0.674032,-0.018874,-0.804777,0.077744,-0.004398,0.810874,-0.024569,-0.013257,-0.780378,0.099201,-0.018998,0.825752,-0.111064,0.215130,-0.641363,0.539914,-0.581598,-0.646613,-0.103228,-0.434870,-0.156977,0.050473,-0.492237,-1.207060,0.707205
0.388000,0.036638,-0.140309,0.289166,0.824630,-0.003923,-0.023980,0.565150,-0.039600,-0.067640,0.067376,-0.005444,0.121875,0.677758,-0.018645,-0.805525,0.075708,-0.005326,0.809664,-0.024643,-0.014346,-0.780771,0.099260,-0.020232,0.823770,-0.110119,0.114384,-0.374242,-1.018113,-0.464166,-0.604903,-0.037051,-0.544206,-0.196900,0.029318,-0.616927,-0.990667,0.472253
0.390000,0.036576,-0.140424,0.289273,0.824264,-0.003973,-0.023918,0.565686,-0.031254,-0.057426,0.053754,0.004964,0.068776,0.649813,-0.018225,-0.807235,0.078187,-0.006212,0.808647,-0.024701,-0.015354,-0.781372,0.099534,-0.021473,0.822682,-0.110070,0.209853,-0.854843,1.239272,-0.442774,-0.508672,-0.028992,-0.504243,-0.300183,0.136985,-0.620612,-0.544026,0.024411
0.392000,0.036508,-0.140525,0.289383,0.823901,-0.003951,-0.023857,0.566218,-0.033600,-0.050232,0.055003,0.063803,0.026750,0.643442,-0.018761,-0.808063,0.076837,-0.007224,0.807649,-0.024580,-0.016184,-0.782040,0.099829,-0.022541,0.821815,-0.110233,-0.267868,-0.413788,-0.674624,-0.505997,-0.498711,0.060626,-0.414892,-0.334328,0.147449,-0.533704,-0.433700,-0.081394
0.394000,0.036445,-0.140608,0.289468,0.823558,-0.003867,-0.023788,0.566721,-0.031788,-0.041587,0.042634,0.118752,-0.000522,0.607237,-0.019416,-0.809498,0.079178,-0.008292,0.806802,-0.024479,-0.016814,-0.782799,0.100252,-0.023488,0.821706,-0.111119,-0.327331,-0.717770,1.170417,-0.534131,-0.423527,0.050376,-0.314887,-0.379073,0.211708,-0.473486,-0.054401,-0.442902
0.396000,0.036381,-0.140685,0.289555,0.823224,-0.003794,-0.023738,0.567207,-0.031707,-0.038515,0.043518,0.098801,-0.010375,0.588011,-0.020629,-0.810246,0.079148,-0.009307,0.806001,-0.024357,-0.017416,-0.783455,0.100534,-0.024394,0.821621,-0.112042,-0.606901,-0.373765,-0.015024,-0.507448,-0.400798,0.061040,-0.301156,-0.328362,0.141247,-0.453235,-0.042739,-0.461772
0.398000,0.036333,-0.140759,0.289631,0.822913,-0.003816,-0.023752,0.567659,-0.024370,-0.037041,0.038022,-0.016616,-0.007758,0.548933,-0.021542,-0.811208,0.081189,-0.010030,0.805346,-0.024389,-0.018176,-0.783962,0.100646,-0.025484,0.821864,-0.113315,-0.456309,-0.480958,1.020209,-0.361269,-0.327317,-0.015909,-0.379919,-0.253207,0.056000,-0.544820,0.121815,-0.636315
0.400000,0.036291,-0.140835,0.289714,0.822614,-0.003932,-0.023816,0.568088,-0.020682,-0.037928,0.041438,-0.121687,0.004228,0.525607,-0.022564,-0.811602,0.081278,-0.010516,0.804738,-0.024491,-0.019091,-0.784240,0.100475,-0.026704,0.821993,-0.114492,-0.511124,-0.197333,0.044737,-0.243303,-0.303910,-0.051227,-0.457472,-0.139333,-0.085887,-0.610265,0.064153,-0.588759
0.402000,0.036251,-0.140914,0.289805,0.822328,-0.004092,-0.023874,0.568498,-0.020158,-0.039849,0.045527,-0.156735,0.034703,0.502666,-0.023646,-0.811611,0.080611,-0.010905,0.804124,-0.024653,-0.020025,-0.784251,0.100019,-0.027918,0.821890,-0.115439,-0.540932,-0.004530,-0.333421,-0.194627,-0.307031,-0.081036,-0.467218,-0.005311,-0.228066,-0.606899,-0.051218,-0.473450
0.404000,0.036203,-0.140996,0.289906,0.822053,-0.004220,-0.023863,0.568896,-0.023844,-0.040883,0.050256,-0.089995,0.073944,0.486937,-0.024945,-0.811382,0.079658,-0.011411,0.803443,-0.024814,-0.020788,-0.784026,0.099347,-0.028938,0.821461,-0.116019,-0.649283,0.114734,-0.476760,-0.252533,-0.340832,-0.080420,-0.381146,0.112629,-0.335930,-0.509899,-0.214408,-0.289771
0.406000,0.036077,-0.141073,0.290047,0.821734,-0.003873,-0.023391,0.569377,-0.063017,-0.038163,0.070436,0.563042,0.180919,0.570973,-0.029565,-0.809075,0.065132,-0.013399,0.802260,-0.024678,-0.020292,-0.783586,0.098619,-0.028706,0.819731,-0.115078,-2.310059,1.153394,-7.263065,-0.994025,-0.591386,0.068160,0.247899,0.219773,-0.363808,0.115904,-0.865297,0.470639
0.408000,0.035928,-0.141161,0.290190,0.821400,-0.003292,-0.022532,0.569898,-0.074783,-0.044105,0.071880,0.978386,0.365067,0.607453,-0.034640,-0.807935,0.055073,-0.016170,0.800899,-0.024887,-0.019070,-0.782671,0.097672,-0.027747,0.816762,-0.112814,-2.537596,0.569957,-5.029105,-1.385520,-0.680647,-0.104703,0.610871,0.457739,-0.473294,0.479693,-1.484346,1.131630
0.410000,0.035831,-0.141280,0.290316,0.821069,-0.002933,-0.021591,0.570413,-0.048433,-0.059792,0.062921,0.841166,0.558734,0.606692,-0.037411,-0.809665,0.058648,-0.018229,0.799773,-0.026277,-0.018303,-0.781122,0.096254,-0.027237,0.812937,-0.109771,-1.385645,-0.864809,1.787590,-1.029468,-0.562949,-0.694820,0.383666,0.774159,-0.709280,0.254982,-1.912512,1.521513
0.412000,0.035824,-0.141429,0.290451,0.820732,-0.003087,-0.020929,0.570921,-0.003561,-0.074503,0.067270,0.261261,0.623363,0.614965,-0.037584,-0.812350,0.065164,-0.018839,0.798971,-0.028436,-0.019006,-0.779655,0.094776,-0.028095,0.808899,-0.106582,-0.086343,-1.342379,3.257961,-0.305076,-0.400700,-1.079863,-0.351576,0.733914,-0.738772,-0.429352,-2.019115,1.594518
0.414000,0.035898,-0.141589,0.290618,0.820376,-0.003739,-0.020717,0.571436,0.037385,-0.080022,0.083755,-0.404608,0.536980,0.640085,-0.036286,-0.813543,0.061365,-0.018129,0.798369,-0.030520,-0.021371,-0.779070,0.093826,-0.030451,0.805250,-0.103769,0.648885,-0.596563,-1.899742,0.354984,-0.301191,-1.041795,-1.182280,0.292119,-0.475117,-1.177893,-1.824433,1.406589
0.416000,0.035976,-0.141733,0.290802,0.820004,-0.004256,-0.020507,0.571974,0.038771,-0.071830,0.091976,-0.294520,0.458167,0.665939,-0.035583,-0.813662,0.050637,-0.017739,0.797585,-0.031988,-0.023698,-0.779580,0.093883,-0.032627,0.801769,-0.100948,0.351792,-0.059734,-5.363725,0.194676,-0.391736,-0.733880,-1.163916,-0.254998,0.028584,-1.088045,-1.740468,1.410721
0.418000,0.035981,-0.141841,0.290962,0.819638,-0.003986,-0.019765,0.572527,0.002598,-0.053906,0.080058,0.656321,0.443987,0.660330,-0.036768,-0.814679,0.045128,-0.019307,0.796395,-0.032634,-0.023546,-0.780862,0.095082,-0.032808,0.798084,-0.097627,-0.592519,-0.508392,-2.754634,-0.783857,-0.595211,-0.323122,0.076450,-0.640845,0.599169,-0.090592,-1.842658,1.660331
0.420000,0.035949,-0.141930,0.291097,0.819292,-0.003236,-0.018667,0.573063,-0.016095,-0.044683,0.067493,1.252192,0.461973,0.626794,-0.038680,-0.816859,0.047554,-0.022030,0.794976,-0.032841,-0.021809,-0.782275,0.096649,-0.031710,0.794269,-0.094003,-0.955995,-1.090209,1.212680,-1.361430,-0.709620,-0.103368,0.868185,-0.706550,0.783596,0.549290,-1.907374,1.812140
0.422000,0.035965,-0.142027,0.291235,0.818977,-0.002820,-0.017812,0.573543,0.008125,-0.048286,0.068847,0.838765,0.454605,0.569283,-0.039414,-0.818524,0.049780,-0.023780,0.793818,-0.033239,-0.020340,-0.782680,0.090136,-0.031391,0.790797,-0.090760,-0.367093,-0.832113,1.113056,-0.875104,-0.579043,-0.198985,0.734712,-0.202577,-3.256250,0.159337,-1.735724,1.621401
0.424000,0.036052,-0.142129,0.291371,0.818669,-0.002831,-0.017391,0.573995,0.043625,-0.050938,0.067857,0.239762,0.344221,0.547990,-0.039057,-0.818691,0.045593,-0.024218,0.793066,-0.033744,-0.020473,-0.783741,0.085507,-0.032343,0.788101,-0.088364,0.178547,-0.083607,-2.093294,-0.218992,-0.375888,-0.252531,-0.066885,-0.530335,-2.314799,-0.476009,-1.348242,1.197887
0.426000,0.036193,-0.142229,0.291488,0.818363,-0.003085,-0.017254,0.574434,0.070178,-0.050135,0.058401,-0.122604,0.250980,0.539082,-0.038043,-0.817985,0.038086,-0.023828,0.792724,-0.034399,-0.022031,-0.785975,0.084732,-0.034089,0.786044,-0.086665,0.507027,0.353114,-3.753661,0.195131,-0.170960,-0.327699,-0.778801,-1.117232,-0.387502,-0.872722,-1.028618,0.849611
0.428000,0.036321,-0.142317,0.291566,0.818071,-0.003074,-0.016946,0.574859,0.063994,-0.044205,0.039137,0.192320,0.239788,0.516099,-0.037627,-0.817796,0.034904,-0.023995,0.792425,-0.034956,-0.022990,-0.788686,0.086434,-0.035160,0.784087,-0.085017,0.207906,0.094387,-1.590764,-0.083422,-0.149581,-0.278312,-0.479328,-1.355475,0.851221,-0.535889,-0.978304,0.824036
0.430000,0.036408,-0.142395,0.291611,0.817800,-0.002660,-0.016290,0.575266,0.043533,-0.038989,0.022762,0.722334,0.292551,0.484913,-0.038411,-0.818331,0.037270,-0.025174,0.791969,-0.035360,-0.022671,-0.791026,0.088317,-0.035074,0.781869,-0.083018,-0.392195,-0.267675,1.182942,-0.589504,-0.227844,-0.202078,0.159242,-1.169870,0.941255,0.043363,-1.109116,0.999475
0.432000,0.036487,-0.142477,0.291651,0.817545,-0.002203,-0.015552,0.575650,0.039700,-0.041049,0.019820,0.802625,0.335419,0.455038,-0.039834,-0.818337,0.038269,-0.026453,0.791467,-0.035780,-0.022148,-0.792668,0.089745,-0.034759,0.779497,-0.080849,-0.711420,-0.002737,0.499646,-0.639659,-0.251184,-0.210161,0.261453,-0.821178,0.714190,0.157220,-1.185939,1.084411
0.434000,0.036596,-0.142575,0.291699,0.817310,-0.002041,-0.014990,0.576000,0.054243,-0.048813,0.024116,0.461889,0.361536,0.419890,-0.041035,-0.817167,0.033975,-0.026953,0.791113,-0.036451,-0.022276,-0.793529,0.090402,-0.035090,0.777163,-0.078784,-0.600446,0.584626,-2.147426,-0.249817,-0.177036,-0.335404,-0.063856,-0.430257,0.328442,-0.165590,-1.166845,1.032605
0.436000,0.036735,-0.142687,0.291749,0.817097,-0.002140,-0.014558,0.576312,0.069724,-0.056158,0.024665,0.171638,0.406458,0.379945,-0.041620,-0.815746,0.028498,-0.026756,0.790879,-0.037400,-0.022957,-0.793662,0.090354,-0.035973,0.774812,-0.076765,-0.292472,0.710677,-2.738377,0.098383,-0.116818,-0.474390,-0.340428,-0.066297,-0.024028,-0.441482,-1.175590,1.009389
0.438000,0.036889,-0.142806,0.291786,0.816908,-0.002313,-0.014107,0.576591,0.076929,-0.059160,0.018795,0.121997,0.465085,0.340192,-0.041680,-0.815131,0.026617,-0.026370,0.790648,-0.038509,-0.023701,-0.793241,0.089865,-0.036917,0.772354,-0.074658,-0.030019,0.307394,-0.940208,0.192952,-0.115369,-0.554656,-0.372063,0.210505,-0.244484,-0.471614,-1.229282,1.053505
0.440000,0.037035,-0.142917,0.291810,0.816735,-0.002358,-0.013524,0.576850,0.073010,-0.055711,0.011967,0.302467,0.498757,0.313510,-0.041883,-0.815352,0.027674,-0.026333,0.790297,-0.039513,-0.024041,-0.792562,0.089265,-0.037451,0.769793,-0.072392,-0.101609,-0.110198,0.528410,0.018760,-0.175895,-0.502074,-0.169929,0.339104,-0.299877,-0.267312,-1.280130,1.133194
0.442000,0.037166,-0.143012,0.291826,0.816569,-0.002218,-0.012834,0.577101,0.065506,-0.047474,0.008065,0.515407,0.480083,0.301044,-0.042734,-0.815669,0.027255,-0.026771,0.789811,-0.040213,-0.023916,-0.791917,0.088782,-0.037516,0.767296,-0.070087,-0.425539,-0.158740,-0.209430,-0.219257,-0.242697,-0.349856,0.062677,0.322752,-0.241658,-0.032390,-1.248405,1.152400
0.444000,0.037296,-0.143091,0.291837,0.816407,-0.001993,-0.012143,0.577346,0.065054,-0.039466,0.005282,0.586071,0.432122,0.291169,-0.043974,-0.815752,0.023574,-0.027389,0.789277,-0.040638,-0.023633,-0.791416,0.088447,-0.037419,0.765026,-0.067928,-0.620060,-0.041250,-1.840584,-0.309138,-0.266916,-0.212392,0.141414,0.250636,-0.167578,0.048556,-1.135273,1.079238
0.446000,0.037444,-0.143158,0.291834,0.816255,-0.001791,-0.011522,0.577575,0.073758,-0.033652,-0.001580,0.525613,0.387692,0.273853,-0.044927,-0.816028,0.019322,-0.027875,0.788817,-0.040978,-0.023480,-0.791062,0.088246,-0.037445,0.763061,-0.066049,-0.476152,-0.138103,-2.126337,-0.242609,-0.230386,-0.170175,0.076409,0.176594,-0.100159,-0.013038,-0.982465,0.939853
0.448000,0.037614,-0.143218,0.291810,0.816114,-0.001637,-0.010964,0.577784,0.085264,-0.029841,-0.011903,0.450429,0.364634,0.251215,-0.045260,-0.816953,0.017593,-0.028156,0.788475,-0.041374,-0.023497,-0.790809,0.088164,-0.037634,0.761345,-0.064418,-0.166912,-0.462694,-0.864382,-0.140541,-0.170825,-0.197728,-0.008765,0.126577,-0.041422,-0.094427,-0.858209,0.815473
0.450000,0.037783,-0.143257,0.291767,0.815947,-0.001293,-0.010333,0.578033,0.084251,-0.019317,-0.021524,0.647490,0.313744,0.297559,-0.045886,-0.817771,0.013048,-0.028979,0.788181,-0.041753,-0.024032,-0.792447,0.093493,-0.037513,0.759727,-0.062784,-0.312811,-0.409014,-2.272321,-0.411638,-0.147011,-0.189528,-0.267518,-0.818985,2.664721,0.060363,-0.808918,0.817030
0.452000,0.037956,-0.143291,0.291713,0.815776,-0.000933,-0.009647,0.578287,0.086687,-0.017215,-0.026768,0.692691,0.349791,0.303217,-0.046247,-0.818658,0.008731,-0.029921,0.787940,-0.042373,-0.024661,-0.794108,0.096772,-0.037321,0.757956,-0.060964,-0.180563,-0.443202,-2.158383,-0.471297,-0.120444,-0.310332,-0.314418,-0.830549,1.639494,0.095928,-0.885417,0.910007
0.454000,0.038140,-0.143323,0.291631,0.815608,-0.000629,-0.008913,0.578537,0.091959,-0.015800,-0.041278,0.675167,0.421156,0.298371,-0.046126,-0.819862,0.006875,-0.030913,0.788576,-0.046162,-0.025398,-0.795739,0.097949,-0.037175,0.756019,-0.059025,0.060840,-0.602128,-0.928213,-0.495903,0.318243,-1.894184,-0.368303,-0.815488,0.588487,0.073129,-0.968692,0.969252
0.456000,0.038325,-0.143352,0.291532,0.815448,-0.000281,-0.008096,0.578774,0.092698,-0.014821,-0.049549,0.757766,0.463854,0.283357,-0.045920,-0.820992,0.006024,-0.031752,0.789179,-0.048577,-0.025847,-0.797169,0.096918,-0.036856,0.753946,-0.056934,0.102673,-0.565151,-0.425338,-0.419218,0.301031,-1.207596,-0.224566,-0.714759,-0.515466,0.159519,-1.036065,1.045502
0.458000,0.038512,-0.143361,0.291378,0.815267,0.000184,-0.007229,0.579039,0.093490,-0.004142,-0.076724,0.883543,0.435557,0.317407,-0.046150,-0.821729,0.003421,-0.033267,0.791425,-0.056488,-0.026904,-0.800928,0.104467,-0.036361,0.752092,-0.055104,-0.114711,-0.368622,-1.301506,-0.757761,1.123112,-3.955322,-0.528270,-1.879441,3.774584,0.247692,-0.927300,0.914908
0.460000,0.038706,-0.143365,0.291207,0.815099,0.000686,-0.006337,0.579286,0.096739,-0.002293,-0.085344,0.927810,0.435578,0.294459,-0.046469,-0.821872,-0.000571,-0.034255,0.793482,-0.061118,-0.027683,-0.804778,0.111479,-0.035770,0.750309,-0.053328,-0.159562,-0.071529,-1.995934,-0.493725,1.028478,-2.315155,-0.389559,-1.925344,3.505759,0.295452,-0.891521,0.888148
0.462000,0.038918,-0.143359,0.290976,0.814932,0.001114,-0.005469,0.579529,0.105862,0.003112,-0.115524,0.853008,0.459192,0.291978,-0.046548,-0.821939,-0.003792,-0.035260,0.797506,-0.072258,-0.028896,-0.809803,0.122575,-0.035363,0.748714,-0.051879,-0.039729,-0.033401,-1.610758,-0.502463,2.012042,-5.570009,-0.606660,-2.512103,5.548140,0.203212,-0.797132,0.724453
0.464000,0.039135,-0.143356,0.290726,0.814801,0.001524,-0.004526,0.579721,0.108859,0.001512,-0.125447,0.881986,0.529759,0.229106,-0.046774,-0.822566,-0.004795,-0.035300,0.801123,-0.078857,-0.029024,-0.813431,0.127003,-0.034828,0.747006,-0.050329,-0.113001,-0.313329,-0.501213,-0.019961,1.808790,-3.299459,-0.064186,-1.814456,2.214246,0.267837,-0.854200,0.775082
0.466000,0.039362,-0.143334,0.290403,0.814662,0.001968,-0.003549,0.579921,0.113091,0.010846,-0.161270,0.929170,0.537955,0.239850,-0.047340,-0.823902,-0.004044,-0.035747,0.806910,-0.092745,-0.029491,-0.818872,0.138268,-0.034248,0.745525,-0.049132,-0.282790,-0.667941,0.375540,-0.223640,2.893303,-6.944281,-0.233281,-2.720374,5.632180,0.289566,-0.740614,0.598427
0.468000,0.039599,-0.143312,0.290069,0.814544,0.002405,-0.002586,0.580090,0.118941,0.011189,-0.166917,0.914969,0.532012,0.202771,-0.047988,-0.825555,-0.002216,-0.035267,0.812243,-0.101521,-0.029432,-0.824024,0.147217,-0.033680,0.744161,-0.048036,-0.324188,-0.826668,0.913981,0.240129,2.666344,-4.387637,0.029571,-2.575667,4.474819,0.284021,-0.682015,0.548144
0.470000,0.039861,-0.143276,0.289685,0.814409,0.002729,-0.001762,0.580282,0.130684,0.017831,-0.191872,0.743050,0.482878,0.231463,-0.048485,-0.827587,0.000362,-0.034965,0.819781,-0.117901,-0.030423,-0.831335,0.164080,-0.033544,0.743206,-0.047485,-0.248203,-1.015958,1.288911,0.150895,3.768940,-8.190325,-0.495835,-3.655682,8.431426,0.068324,-0.477232,0.275619
0.472000,0.040137,-0.143248,0.289326,0.814295,0.002914,-0.001074,0.580442,0.138211,0.014001,-0.179519,0.550847,0.453153,0.194507,-0.048669,-0.829546,0.003137,-0.033552,0.826713,-0.128901,-0.030884,-0.837607,0.174824,-0.033751,0.742379,-0.047020,-0.092262,-0.979456,1.387184,0.706276,3.466346,-5.499968,-0.230304,-3.135891,5.372069,-0.103754,-0.413768,0.232104
0.474000,0.040414,-0.143208,0.288953,0.814161,0.003073,-0.000496,0.580630,0.138474,0.020045,-0.186770,0.465343,0.378830,0.229111,-0.048884,-0.831630,0.006044,-0.032830,0.835527,-0.146896,-0.031769,-0.845402,0.190533,-0.034171,0.741860,-0.046902,-0.107494,-1.041843,1.453581,0.360978,4.407081,-8.997596,-0.442652,-3.897566,7.854225,-0.210038,-0.259346,0.059058
0.476000,0.040673,-0.143169,0.288627,0.814034,0.003326,0.000057,0.580807,0.129505,0.019588,-0.162829,0.526858,0.303660,0.216140,-0.049339,-0.833555,0.008732,-0.031946,0.843527,-0.159447,-0.031545,-0.852473,0.201647,-0.034411,0.741397,-0.046673,-0.227504,-0.962728,1.344287,0.442224,3.999829,-6.275339,0.112006,-3.535757,5.557225,-0.119933,-0.231594,0.114664
0.478000,0.040914,-0.143118,0.288303,0.813873,0.003694,0.000562,0.581031,0.120255,0.025649,-0.162029,0.593283,0.198370,0.274402,-0.050148,-0.835536,0.011241,-0.032319,0.853141,-0.178918,-0.031668,-0.861473,0.220392,-0.034571,0.741172,-0.046649,-0.404643,-0.990537,1.254199,-0.186398,4.806890,-9.735277,-0.061484,-4.499589,9.372528,-0.079762,-0.112270,0.012021
0.480000,0.041146,-0.143079,0.288036,0.813714,0.004045,0.000989,0.581250,0.116014,0.019067,-0.133700,0.534717,0.144050,0.268814,-0.050916,-0.837231,0.013334,-0.032217,0.861858,-0.193697,-0.031133,-0.869603,0.235059,-0.034813,0.740895,-0.046450,-0.384009,-0.847577,1.046377,0.050917,4.358805,-7.389837,0.267447,-4.065346,7.333362,-0.120960,-0.138479,0.099463
0.482000,0.041379,-0.143049,0.287784,0.813531,0.004293,0.001279,0.581504,0.116727,0.015124,-0.125882,0.371143,0.093786,0.311581,-0.051493,-0.838794,0.015119,-0.032443,0.871716,-0.214215,-0.031270,-0.878614,0.253940,-0.035432,0.740680,-0.046350,-0.288231,-0.781295,0.892720,-0.113179,4.928915,-10.258950,-0.068402,-4.505358,9.440635,-0.309496,-0.107692,0.050230
0.484000,0.041612,-0.143040,0.287593,0.813355,0.004437,0.001465,0.581749,0.116624,0.004402,-0.095631,0.225906,0.068438,0.302087,-0.051809,-0.840008,0.016448,-0.031779,0.880547,-0.229919,-0.030922,-0.886414,0.267907,-0.036307,0.740321,-0.046020,-0.158262,-0.606829,0.664555,0.332261,4.415526,-7.851686,0.174035,-3.899789,6.983496,-0.437825,-0.179648,0.164877
0.486000,0.041837,-0.143038,0.287421,0.813154,0.004571,0.001581,0.582028,0.112318,0.001026,-0.085855,0.176582,0.018535,0.342729,-0.052146,-0.841118,0.017491,-0.031521,0.890186,-0.249944,-0.030959,-0.895016,0.286236,-0.037314,0.739971,-0.045699,-0.168202,-0.555076,0.521297,0.128611,4.819165,-10.012601,-0.018480,-4.301219,9.164315,-0.503409,-0.174732,0.160505
0.488000,0.042045,-0.143048,0.287302,0.812953,0.004755,0.001686,0.582308,0.104097,-0.004882,-0.059742,0.210822,-0.020877,0.344821,-0.052602,-0.842003,0.018166,-0.030959,0.899058,-0.266318,-0.030306,-0.902951,0.302084,-0.038213,0.739498,-0.045136,-0.228130,-0.442588,0.337686,0.281002,4.436081,-8.187081,0.326433,-3.967530,7.924058,-0.449223,-0.236577,0.281614
0.490000,0.042238,-0.143061,0.287203,0.812731,0.004983,0.001757,0.582615,0.096490,-0.006424,-0.049498,0.227401,-0.072444,0.378450,-0.053194,-0.842811,0.018569,-0.030891,0.908660,-0.286323,-0.029741,-0.911517,0.321443,-0.039085,0.739048,-0.044571,-0.295932,-0.403981,0.201706,0.034337,4.801287,-10.002505,0.282680,-4.283101,9.679450,-0.435998,-0.225093,0.282104
0.492000,0.042423,-0.143085,0.287152,0.812512,0.005189,0.001773,0.582919,0.092271,-0.012052,-0.025348,0.177846,-0.105537,0.375758,-0.053713,-0.843381,0.018571,-0.030333,0.917741,-0.303405,-0.028636,-0.919330,0.337525,-0.040011,0.738533,-0.043860,-0.259332,-0.285129,0.000532,0.278972,4.540272,-8.541044,0.552661,-3.906517,8.041204,-0.462981,-0.257436,0.355746
0.494000,0.042603,-0.143115,0.287125,0.812282,0.005355,0.001712,0.583238,0.089955,-0.015136,-0.013642,0.099547,-0.144504,0.393191,-0.054126,-0.843827,0.018264,-0.029734,0.927294,-0.322423,-0.027620,-0.927300,0.354749,-0.041084,0.738065,-0.043190,-0.206859,-0.222926,-0.153119,0.299507,4.776708,-9.509005,0.507809,-3.984924,8.611606,-0.536861,-0.234169,0.334939
0.496000,0.042775,-0.143153,0.287134,0.812052,0.005522,0.001614,0.583556,0.086206,-0.019045,0.004899,0.079649,-0.174941,0.393572,-0.054514,-0.844121,0.017667,-0.028693,0.936452,-0.338961,-0.026228,-0.934827,0.369998,-0.042162,0.737565,-0.042423,-0.193969,-0.146758,-0.298774,0.520269,4.578820,-8.269193,0.696053,-3.763557,7.624676,-0.538871,-0.249836,0.383292
0.498000,0.042938,-0.143196,0.287162,0.811816,0.005710,0.001497,0.583884,0.081675,-0.021271,0.013681,0.084861,-0.202555,0.404893,-0.054943,-0.844368,0.016925,-0.027588,0.945814,-0.356248,-0.024753,-0.942429,0.386320,-0.043211,0.737078,-0.041654,-0.214393,-0.123962,-0.370817,0.552389,4.681266,-8.643512,0.737375,-3.801050,8.161001,-0.524426,-0.243608,0.384739
0.500000,0.043091,-0.143244,0.287213,0.811576,0.005935,0.001389,0.584215,0.076264,-0.024207,0.025846,0.120232,-0.216969,0.409547,-0.055457,-0.844556,0.016072,-0.026256,0.954921,-0.372294,-0.022992,-0.949754,0.401764,-0.044159,0.736526,-0.040778,-0.256937,-0.093975,-0.426368,0.666366,4.553168,-8.022750,0.880603,-3.662281,7.722234,-0.474177,-0.275745,0.437736
0.502000,0.043235,-0.143300,0.287281,0.811337,0.006170,0.001286,0.584544,0.071943,-0.027840,0.033824,0.131208,-0.218339,0.408276,-0.055995,-0.844707,0.015195,-0.024640,0.963916,-0.388018,-0.020955,-0.956660,0.416499,-0.045050,0.735916,-0.039838,-0.268884,-0.075205,-0.438740,0.808073,4.497673,-7.861967,1.018480,-3.453085,7.367302,-0.445350,-0.305034,0.470291
0.504000,0.043371,-0.143363,0.287365,0.811096,0.006417,0.001195,0.584877,0.068025,-0.031445,0.042158,0.148554,-0.215540,0.411971,-0.056570,-0.844823,0.014298,-0.022772,0.972660,-0.403108,-0.018790,-0.963223,0.430426,-0.045882,0.735219,-0.038800,-0.287787,-0.058036,-0.448506,0.933839,4.371903,-7.545251,1.082472,-3.281378,6.963430,-0.415850,-0.348586,0.519046
0.506000,0.043502,-0.143435,0.287465,0.810861,0.006652,0.001108,0.585201,0.065550,-0.036218,0.049945,0.140608,-0.205786,0.400739,-0.057105,-0.844889,0.013408,-0.020362,0.980949,-0.416517,-0.016319,-0.969051,0.442588,-0.046687,0.734451,-0.037690,-0.267362,-0.033213,-0.444756,1.204808,4.144639,-6.704207,1.235744,-2.914077,6.080798,-0.402627,-0.384073,0.555003
0.508000,0.043625,-0.143513,0.287574,0.810620,0.006916,0.001042,0.585531,0.061562,-0.038823,0.054284,0.177050,-0.206184,0.409505,-0.057720,-0.844963,0.012538,-0.017907,0.989048,-0.430058,-0.013944,-0.974763,0.455295,-0.047407,0.733630,-0.036529,-0.307306,-0.036776,-0.434976,1.227471,4.049201,-6.770597,1.187477,-2.856216,6.353685,-0.360261,-0.410728,0.580292
0.510000,0.043743,-0.143599,0.287697,0.810389,0.007182,0.000986,0.585847,0.058797,-0.043104,0.061778,0.183909,-0.197787,0.391396,-0.058311,-0.844987,0.011680,-0.014906,0.996483,-0.441092,-0.011164,-0.979563,0.465617,-0.048063,0.732759,-0.035309,-0.295852,-0.012115,-0.429069,1.500833,3.717640,-5.517240,1.390007,-2.399836,5.161074,-0.327602,-0.435290,0.609870
0.512000,0.043852,-0.143688,0.287824,0.810153,0.007485,0.000951,0.586170,0.054477,-0.044463,0.063525,0.226548,-0.203227,0.401594,-0.059000,-0.845036,0.010843,-0.012108,1.003837,-0.453113,-0.008575,-0.984328,0.476905,-0.048623,0.731879,-0.034090,-0.344354,-0.024679,-0.418579,1.398659,3.677076,-6.010325,1.294182,-2.382692,5.643835,-0.280168,-0.440208,0.609719
0.514000,0.043956,-0.143785,0.287968,0.809932,0.007787,0.000923,0.586471,0.052042,-0.048252,0.071833,0.229573,-0.197979,0.373283,-0.059643,-0.845017,0.009990,-0.008708,1.010327,-0.461602,-0.005410,-0.987914,0.484546,-0.049112,0.730982,-0.032831,-0.321359,0.009571,-0.426672,1.699967,3.245097,-4.244498,1.582756,-1.792983,3.820734,-0.244333,-0.448508,0.629577
0.516000,0.044053,-0.143882,0.288111,0.809705,0.008123,0.000901,0.586780,0.048615,-0.048720,0.071623,0.260453,-0.212023,0.384083,-0.060358,-0.845029,0.009130,-0.005665,1.016801,-0.471564,-0.002575,-0.991565,0.493658,-0.049535,0.730130,-0.031633,-0.357865,-0.005911,-0.429836,1.521743,3.236895,-4.980701,1.417172,-1.825466,4.555985,-0.211793,-0.425821,0.598784
0.518000,0.044149,-0.143987,0.288272,0.809499,0.008437,0.000865,0.587061,0.048091,-0.052647,0.080093,0.234994,-0.210617,0.348932,-0.060956,-0.844951,0.008215,-0.001895,1.022236,-0.477236,0.000836,-0.993896,0.498546,-0.049942,0.729298,-0.030431,-0.298766,0.039308,-0.457457,1.885089,2.717443,-2.836198,1.705920,-1.165323,2.444162,-0.203325,-0.416113,0.601402
0.520000,0.044240,-0.144093,0.288427,0.809284,0.008781,0.000826,0.587352,0.045464,-0.052620,0.077626,0.257486,-0.230913,0.362396,-0.061613,-0.844914,0.007282,0.001370,1.027721,-0.485079,0.003747,-0.996431,0.505728,-0.050310,0.728547,-0.029335,-0.328276,0.018446,-0.466381,1.632272,2.742357,-3.921321,1.455108,-1.267294,3.590666,-0.184344,-0.375306,0.547922
0.522000,0.044329,-0.144205,0.288598,0.809092,0.009121,0.000783,0.587611,0.044441,-0.056130,0.085844,0.251405,-0.232249,0.323132,-0.062185,-0.844790,0.006299,0.005330,1.032036,-0.488178,0.007335,-0.997571,0.508428,-0.050620,0.727822,-0.028228,-0.286302,0.061979,-0.491683,1.980235,2.157544,-1.549640,1.794400,-0.570259,1.349883,-0.154708,-0.362391,0.553353
0.524000,0.044412,-0.144316,0.288762,0.808891,0.009501,0.000743,0.587881,0.041507,-0.055684,0.081828,0.284792,-0.253328,0.337188,-0.062842,-0.844720,0.005314,0.008646,1.036436,-0.493900,0.010405,-0.998958,0.513675,-0.050873,0.727182,-0.027232,-0.328238,0.034828,-0.492510,1.658081,2.200147,-2.861083,1.534626,-0.693497,2.623463,-0.126742,-0.320315,0.498159
0.526000,0.044495,-0.144436,0.288943,0.808714,0.009864,0.000701,0.588119,0.041370,-0.060011,0.090280,0.270928,-0.244610,0.296845,-0.063394,-0.844553,0.004298,0.012723,1.039567,-0.494607,0.014159,-0.998858,0.513929,-0.051090,0.726514,-0.026170,-0.276436,0.083720,-0.507889,2.038213,1.565621,-0.353567,1.877080,0.050148,0.127426,-0.108395,-0.333887,0.530991
0.528000,0.044574,-0.144556,0.289113,0.808527,0.010255,0.000663,0.588370,0.039488,-0.060063,0.085245,0.295508,-0.258734,0.314042,-0.064015,-0.844442,0.003302,0.016131,1.042813,-0.498224,0.017281,-0.999068,0.516972,-0.051283,0.725894,-0.025188,-0.310271,0.055321,-0.498045,1.704155,1.622682,-1.808325,1.561050,-0.105258,1.521454,-0.096234,-0.309887,0.490762
0.530000,0.044655,-0.144685,0.289299,0.808362,0.010624,0.000623,0.588589,0.040477,-0.064358,0.092701,0.276122,-0.246743,0.274839,-0.064519,-0.844240,0.002291,0.020321,1.044788,-0.496800,0.021017,-0.997875,0.515096,-0.051459,0.725234,-0.024129,-0.252110,0.100907,-0.505723,2.094842,0.987422,0.712016,1.867750,0.596853,-0.937949,-0.088357,-0.329875,0.529391
0.532000,0.044732,-0.144813,0.289471,0.808186,0.011030,0.000592,0.588824,0.038834,-0.063810,0.086121,0.311476,-0.260960,0.293949,-0.065115,-0.844114,0.001321,0.023774,1.046949,-0.498464,0.024090,-0.997119,0.516335,-0.051598,0.724622,-0.023150,-0.297784,0.063037,-0.484788,1.726565,1.080514,-0.831879,1.536568,0.377561,0.619551,-0.069451,-0.305923,0.489640
0.534000,0.044811,-0.144947,0.289655,0.808032,0.011436,0.000573,0.589027,0.039384,-0.066925,0.091939,0.318333,-0.252555,0.255486,-0.065649,-0.843924,0.000361,0.027908,1.047919,-0.495139,0.027815,-0.995108,0.512957,-0.051673,0.723984,-0.022099,-0.267033,0.094870,-0.479891,2.067016,0.485197,1.662203,1.862441,1.005752,-1.689422,-0.037477,-0.319182,0.525315
0.536000,0.044888,-0.145078,0.289823,0.807867,0.011875,0.000560,0.589244,0.038427,-0.065905,0.084004,0.349781,-0.266367,0.272848,-0.066263,-0.843819,-0.000543,0.031309,1.049161,-0.494945,0.030922,-0.993568,0.512564,-0.051720,0.723406,-0.021143,-0.307246,0.052526,-0.452007,1.700395,0.620993,0.097095,1.553689,0.769889,-0.196365,-0.023300,-0.289059,0.477997
0.538000,0.044970,-0.145216,0.289996,0.807723,0.012285,0.000538,0.589433,0.041157,-0.068760,0.086878,0.319429,-0.256898,0.237851,-0.066744,-0.843660,-0.001432,0.035362,1.049456,-0.490766,0.034503,-0.990972,0.508050,-0.051790,0.722827,-0.020167,-0.240477,0.079569,-0.444680,2.026726,0.147617,2.089487,1.790348,1.298306,-2.256731,-0.034931,-0.289348,0.488470
0.540000,0.045053,-0.145351,0.290152,0.807570,0.012715,0.000514,0.589634,0.041588,-0.067491,0.077673,0.334251,-0.270520,0.252788,-0.067267,-0.843588,-0.002262,0.038778,1.050089,-0.489580,0.037493,-0.988882,0.506359,-0.051866,0.722328,-0.019309,-0.261167,0.036035,-0.414839,1.707887,0.316457,0.593065,1.495399,1.045023,-0.845724,-0.038380,-0.249895,0.428682
0.542000,0.045142,-0.145488,0.290307,0.807435,0.013134,0.000480,0.589810,0.044228,-0.068794,0.077811,0.320759,-0.272369,0.222825,-0.067699,-0.843492,-0.003080,0.042694,1.050021,-0.485071,0.040886,-0.986078,0.501755,-0.051944,0.721876,-0.018481,-0.215983,0.048080,-0.409251,1.958197,-0.033928,2.254384,1.696492,1.401671,-2.302177,-0.038733,-0.225822,0.413883
0.544000,0.045231,-0.145622,0.290445,0.807293,0.013586,0.000448,0.589994,0.044541,-0.066867,0.068627,0.348091,-0.289824,0.233024,-0.068192,-0.843483,-0.003844,0.046061,1.050293,-0.482890,0.043882,-0.983769,0.499563,-0.051998,0.721519,-0.017778,-0.246646,0.004550,-0.382060,1.683203,0.136070,1.090684,1.498058,1.154528,-1.095637,-0.026848,-0.178191,0.351778
0.546000,0.045323,-0.145755,0.290575,0.807163,0.014048,0.000415,0.590161,0.046167,-0.066560,0.065115,0.354961,-0.297114,0.212435,-0.068658,-0.843488,-0.004575,0.049672,1.050266,-0.478985,0.047211,-0.981125,0.495722,-0.052024,0.721235,-0.017139,-0.232999,-0.002751,-0.365484,1.805783,-0.013704,1.952461,1.664262,1.322090,-1.920791,-0.013422,-0.142450,0.319434
0.548000,0.045419,-0.145885,0.290687,0.807029,0.014522,0.000375,0.590333,0.047598,-0.064894,0.056142,0.360363,-0.309497,0.218382,-0.069136,-0.843563,-0.005257,0.052947,1.050603,-0.476957,0.050279,-0.978894,0.493450,-0.052068,0.721036,-0.016618,-0.239160,-0.037288,-0.341111,1.637339,0.168516,1.013740,1.534018,1.115666,-1.136143,-0.021726,-0.099423,0.260575
0.550000,0.045522,-0.146013,0.290782,0.806899,0.014970,0.000305,0.590499,0.051531,-0.063924,0.047609,0.321940,-0.318006,0.211449,-0.069516,-0.843677,-0.005904,0.056371,1.051178,-0.475413,0.053329,-0.976842,0.491329,-0.052204,0.720941,-0.016237,-0.189996,-0.057020,-0.323326,1.712011,0.287566,0.771919,1.524908,1.025914,-1.060353,-0.067859,-0.047185,0.190563
0.552000,0.045630,-0.146137,0.290861,0.806770,0.015423,0.000226,0.590664,0.053997,-0.062099,0.039410,0.321123,-0.328889,0.211288,-0.069886,-0.843848,-0.006508,0.059775,1.052059,-0.474474,0.056317,-0.975159,0.489939,-0.052364,0.720931,-0.015961,-0.184677,-0.085670,-0.301886,1.702017,0.440415,0.469791,1.494275,0.841293,-0.695145,-0.080001,-0.005282,0.137967
