QPZ-918/AT_DOG_AMP/temp/gmr_data_csv/Vz0.8.csv
time_sec,root_pos_x,root_pos_y,root_pos_z,root_quat_w,root_quat_x,root_quat_y,root_quat_z,base_lin_vel_x,base_lin_vel_y,base_lin_vel_z,base_ang_vel_x,base_ang_vel_y,base_ang_vel_z,FR_hip_joint,FR_thigh_joint,FR_calf_joint,FL_hip_joint,FL_thigh_joint,FL_calf_joint,RR_hip_joint,RR_thigh_joint,RR_calf_joint,RL_hip_joint,RL_thigh_joint,RL_calf_joint,FR_hip_joint_vel,FR_thigh_joint_vel,FR_calf_joint_vel,FL_hip_joint_vel,FL_thigh_joint_vel,FL_calf_joint_vel,RR_hip_joint_vel,RR_thigh_joint_vel,RR_calf_joint_vel,RL_hip_joint_vel,RL_thigh_joint_vel,RL_calf_joint_vel
0.002000,-0.150070,0.073989,0.293398,-0.191773,-0.018515,0.038484,-0.980510,0.046107,-0.168242,0.047270,-0.258650,-0.244486,0.683674,0.007125,-0.943621,0.380754,0.006430,0.792248,0.001881,-0.004714,-0.768109,0.051452,0.015316,0.997899,-0.378062,1.705281,4.778956,-5.566676,-0.672508,-0.452061,0.047804,-0.311959,-0.264003,0.013232,1.457810,-2.013736,5.891151
0.004000,-0.149973,0.073644,0.293498,-0.191058,-0.018662,0.038769,-0.980635,0.048566,-0.172729,0.049586,-0.233173,-0.224311,0.724520,0.009352,-0.933105,0.364015,0.004971,0.791276,0.001935,-0.005339,-0.768579,0.051410,0.017212,0.992080,-0.360745,1.113417,5.258036,-8.369393,-0.729460,-0.486127,0.026620,-0.312457,-0.235014,-0.020869,0.948227,-2.909555,8.658735
0.006000,-0.149875,0.073309,0.293569,-0.190373,-0.018810,0.039147,-0.980751,0.048953,-0.167612,0.035841,-0.324889,-0.241757,0.695586,0.012128,-0.923232,0.350567,0.003746,0.790464,0.001827,-0.006100,-0.769117,0.051483,0.019449,0.986970,-0.347654,1.387806,4.936677,-6.724289,-0.612259,-0.405758,-0.053656,-0.380634,-0.268838,0.036460,1.118134,-2.555154,6.545154
0.008000,-0.149772,0.072967,0.293643,-0.189655,-0.018940,0.039505,-0.980873,0.051486,-0.170734,0.037048,-0.308536,-0.221089,0.728837,0.013932,-0.912719,0.332885,0.002443,0.789594,0.001674,-0.006872,-0.769587,0.051484,0.020752,0.980276,-0.329656,0.902076,5.256432,-8.841029,-0.651839,-0.435034,-0.076897,-0.385858,-0.235055,0.000336,0.651718,-3.346815,8.999056
0.010000,-0.149670,0.072632,0.293691,-0.188968,-0.019074,0.039904,-0.980987,0.051036,-0.167576,0.023613,-0.348394,-0.232898,0.697549,0.016190,-0.903021,0.319188,0.001274,0.788853,0.001400,-0.007669,-0.770118,0.051609,0.022517,0.974309,-0.315628,1.129096,4.848859,-6.848592,-0.584510,-0.370861,-0.136932,-0.398706,-0.265324,0.062602,0.882300,-2.983341,7.014278
0.012000,-0.149565,0.072289,0.293739,-0.188254,-0.019203,0.040261,-0.981107,0.052514,-0.171490,0.024260,-0.306751,-0.219284,0.724930,0.017522,-0.892907,0.302041,-0.000018,0.788043,0.001130,-0.008414,-0.770614,0.051705,0.023551,0.967021,-0.297554,0.665894,5.057364,-8.573027,-0.645737,-0.404551,-0.134710,-0.372238,-0.248473,0.047803,0.516913,-3.644199,9.036631
0.014000,-0.149462,0.071952,0.293766,-0.187567,-0.019344,0.040669,-0.981219,0.051704,-0.168345,0.013575,-0.356320,-0.240575,0.697199,0.019162,-0.883477,0.287643,-0.001164,0.787341,0.000802,-0.009206,-0.771191,0.051918,0.024918,0.960451,-0.283026,0.820149,4.714864,-7.199278,-0.573082,-0.351003,-0.163929,-0.396339,-0.288374,0.106539,0.683602,-3.284820,7.264223
0.016000,-0.149356,0.071611,0.293795,-0.186858,-0.019485,0.041062,-0.981335,0.052889,-0.170712,0.014090,-0.340324,-0.239119,0.719242,0.020040,-0.873790,0.270271,-0.002374,0.786587,0.000505,-0.009990,-0.771767,0.052122,0.025599,0.952858,-0.265396,0.438921,4.843441,-8.686209,-0.604946,-0.377011,-0.148865,-0.391889,-0.287723,0.101993,0.340388,-3.796638,8.814851
0.018000,-0.149252,0.071276,0.293805,-0.186174,-0.019640,0.041504,-0.981443,0.052251,-0.167614,0.005308,-0.387705,-0.260338,0.693739,0.021181,-0.864784,0.255463,-0.003446,0.785921,0.000175,-0.010823,-0.772412,0.052423,0.026492,0.945902,-0.250674,0.570328,4.503203,-7.403834,-0.536109,-0.333176,-0.164668,-0.416126,-0.322773,0.150842,0.446532,-3.478023,7.361167
0.020000,-0.149146,0.070936,0.293812,-0.185477,-0.019796,0.041923,-0.981554,0.052791,-0.169608,0.003473,-0.363354,-0.257899,0.706776,0.021759,-0.855862,0.239507,-0.004586,0.785229,-0.000150,-0.011615,-0.773063,0.052741,0.026883,0.938241,-0.233896,0.288961,4.460615,-7.978129,-0.570068,-0.346242,-0.162844,-0.396383,-0.325215,0.158691,0.195520,-3.830333,8.388752
0.022000,-0.149042,0.070602,0.293805,-0.184802,-0.019963,0.042390,-0.981658,0.051998,-0.167124,-0.003600,-0.409642,-0.277231,0.684168,0.022483,-0.847536,0.225508,-0.005601,0.784614,-0.000501,-0.012456,-0.773767,0.053129,0.027387,0.931149,-0.219405,0.362225,4.163378,-6.999485,-0.507221,-0.307256,-0.175571,-0.420331,-0.352355,0.194101,0.252091,-3.545970,7.245871
0.024000,-0.148938,0.070272,0.293787,-0.184131,-0.020143,0.042943,-0.981757,0.051856,-0.164895,-0.008798,-0.492168,-0.304917,0.680329,0.022988,-0.839427,0.210700,-0.006455,0.784071,-0.000881,-0.013439,-0.774551,0.053579,0.027446,0.925630,-0.208448,0.252628,4.054390,-7.404026,-0.427065,-0.271382,-0.189568,-0.491577,-0.391735,0.225012,0.029612,-2.759882,5.478363
0.026000,-0.148834,0.069933,0.293764,-0.183463,-0.020322,0.043420,-0.981857,0.052015,-0.169521,-0.011457,-0.417693,-0.290886,0.675759,0.023121,-0.831749,0.196942,-0.007457,0.783494,-0.001255,-0.014248,-0.775286,0.054027,0.027443,0.921209,-0.200157,0.066334,3.838853,-6.878816,-0.501007,-0.288527,-0.187235,-0.404704,-0.367716,0.224046,-0.001517,-2.210486,4.145449
0.028000,-0.148728,0.069562,0.293747,-0.182771,-0.020475,0.043574,-0.981976,0.053097,-0.185601,-0.008882,-0.104063,-0.206025,0.697987,0.022127,-0.824606,0.184423,-0.009119,0.782697,-0.001608,-0.014446,-0.775789,0.054369,0.027839,0.917162,-0.193484,-0.497141,3.571806,-6.259359,-0.831253,-0.398659,-0.176523,-0.098632,-0.251447,0.171012,0.197827,-2.023284,3.336738
0.030000,-0.148607,0.069170,0.293753,-0.182054,-0.020545,0.043499,-0.982111,0.060285,-0.196220,0.003399,0.107363,-0.083477,0.724772,0.020377,-0.817761,0.172415,-0.011221,0.781632,-0.002010,-0.014276,-0.775810,0.054300,0.028422,0.913109,-0.187807,-0.875064,3.422457,-6.004222,-1.050747,-0.532597,-0.200970,0.085116,-0.010265,-0.034786,0.291548,-2.026719,2.838368
0.032000,-0.148465,0.068776,0.293791,-0.181303,-0.020481,0.043316,-0.982259,0.071337,-0.196685,0.018783,0.189677,0.066499,0.762837,0.018434,-0.811623,0.162032,-0.013485,0.780332,-0.002617,-0.014061,-0.775223,0.053650,0.028889,0.908812,-0.182717,-0.971481,3.068798,-5.191289,-1.131872,-0.650025,-0.303281,0.107406,0.293125,-0.324574,0.233461,-2.148139,2.545132
0.034000,-0.148291,0.068412,0.293873,-0.180526,-0.020262,0.043316,-0.982407,0.086832,-0.182176,0.040940,-0.016949,0.184946,0.800201,0.017018,-0.805682,0.150597,-0.015313,0.778885,-0.003466,-0.014416,-0.774019,0.052272,0.028655,0.904363,-0.178174,-0.707862,2.970423,-5.717755,-0.914136,-0.723353,-0.424483,-0.177890,0.602416,-0.689081,-0.116797,-2.224839,2.271451
0.036000,-0.148096,0.068083,0.293983,-0.179714,-0.019910,0.043435,-0.982558,0.097704,-0.164533,0.055262,-0.158108,0.291896,0.841966,0.016417,-0.800929,0.141899,-0.016824,0.777349,-0.004574,-0.015238,-0.772396,0.050413,0.027848,0.899773,-0.174048,-0.300368,2.376616,-4.348849,-0.755692,-0.767793,-0.554439,-0.410885,0.811229,-0.929496,-0.403642,-2.295014,2.062945
0.038000,-0.147888,0.067777,0.294127,-0.178859,-0.019491,0.043599,-0.982715,0.104059,-0.152974,0.071953,-0.212100,0.348013,0.889834,0.016024,-0.796599,0.132174,-0.018227,0.775677,-0.005685,-0.016335,-0.770595,0.048297,0.026686,0.895122,-0.170249,-0.196510,2.165152,-4.862286,-0.701387,-0.836327,-0.555113,-0.548372,0.900341,-1.058342,-0.581070,-2.325178,1.899181
0.040000,-0.147689,0.067472,0.294279,-0.177943,-0.019079,0.043448,-0.982896,0.099198,-0.152374,0.075657,0.099966,0.395759,0.947327,0.015372,-0.793952,0.126941,-0.020264,0.773829,-0.006652,-0.017052,-0.769334,0.046820,0.025912,0.890350,-0.166545,-0.326277,1.323109,-2.616575,-1.018493,-0.923826,-0.483779,-0.358717,0.630833,-0.738085,-0.386762,-2.386277,1.852085
0.042000,-0.147500,0.067174,0.294454,-0.176963,-0.018700,0.043142,-0.983094,0.094659,-0.149054,0.087523,0.260358,0.388302,1.009140,0.014127,-0.791516,0.119242,-0.022660,0.771823,-0.007327,-0.017732,-0.768932,0.046186,0.025248,0.885619,-0.163012,-0.622427,1.218416,-3.849765,-1.198093,-1.003174,-0.337282,-0.339859,0.201054,-0.317115,-0.332030,-2.365378,1.766412
0.044000,-0.147324,0.066892,0.294632,-0.175938,-0.018340,0.042649,-0.983306,0.087978,-0.141198,0.089424,0.449418,0.401244,1.052254,0.012885,-0.790582,0.115759,-0.025418,0.769751,-0.007870,-0.018286,-0.769300,0.046362,0.024771,0.880941,-0.159611,-0.621181,0.466847,-1.741592,-1.379014,-1.036099,-0.271399,-0.276929,-0.184098,0.087734,-0.238570,-2.339037,1.700772
0.046000,-0.147147,0.066646,0.294839,-0.174886,-0.017965,0.042330,-0.983514,0.088685,-0.122827,0.103249,0.276494,0.383941,1.081051,0.011827,-0.789436,0.109195,-0.027809,0.767685,-0.008318,-0.019350,-0.769919,0.046621,0.023792,0.876464,-0.156494,-0.528847,0.572695,-3.281566,-1.195226,-1.033036,-0.224010,-0.531876,-0.309393,0.129894,-0.489589,-2.238532,1.558319
0.048000,-0.146972,0.066444,0.295047,-0.173838,-0.017552,0.042132,-0.983716,0.087519,-0.101156,0.104105,0.149497,0.399092,1.079706,0.011639,-0.789648,0.107871,-0.029855,0.765735,-0.008894,-0.020715,-0.770365,0.046619,0.022450,0.872203,-0.153670,-0.094043,-0.105743,-0.662054,-1.023325,-0.974886,-0.288426,-0.682859,-0.223269,-0.001330,-0.670998,-2.130261,1.411896
0.050000,-0.146796,0.066271,0.295280,-0.172790,-0.017120,0.042089,-0.983910,0.088015,-0.086250,0.116241,-0.006526,0.392458,1.081939,0.011434,-0.789424,0.103760,-0.031547,0.763809,-0.009421,-0.022373,-0.770404,0.046026,0.020724,0.868099,-0.151016,-0.102338,0.111979,-2.055463,-0.846028,-0.962889,-0.263197,-0.828548,-0.019639,-0.296342,-0.862847,-2.051994,1.327344
0.052000,-0.146637,0.066123,0.295496,-0.171763,-0.016716,0.042032,-0.984099,0.079261,-0.074352,0.108096,0.012288,0.366659,1.059141,0.011505,-0.790434,0.104822,-0.033194,0.762038,-0.009955,-0.023927,-0.770401,0.045343,0.019043,0.864429,-0.148801,0.035324,-0.505202,0.530599,-0.823197,-0.885390,-0.267124,-0.776964,0.001689,-0.341417,-0.840375,-1.835089,1.107437
0.054000,-0.146497,0.065980,0.295718,-0.170740,-0.016378,0.041950,-0.984286,0.070174,-0.071126,0.111082,0.047242,0.307538,1.051904,0.010793,-0.790860,0.102242,-0.034897,0.760311,-0.010244,-0.025339,-0.770446,0.044578,0.017452,0.861139,-0.146897,-0.356109,-0.212899,-1.289933,-0.851645,-0.863543,-0.144467,-0.706389,-0.022269,-0.382512,-0.795434,-1.644928,0.952100
0.056000,-0.146387,0.065851,0.295909,-0.169745,-0.016133,0.041790,-0.984469,0.054687,-0.064615,0.095334,0.139581,0.229630,1.017796,0.009993,-0.792362,0.103957,-0.036718,0.758793,-0.010414,-0.026461,-0.770824,0.044119,0.016051,0.858847,-0.145895,-0.399971,-0.751087,0.857582,-0.910200,-0.759127,-0.084762,-0.561033,-0.189361,-0.229713,-0.700697,-1.146187,0.500839
0.058000,-0.146300,0.065732,0.296094,-0.168768,-0.015968,0.041657,-0.984646,0.043711,-0.059589,0.092490,0.126974,0.146425,0.997328,0.008593,-0.793377,0.102607,-0.038488,0.757402,-0.010371,-0.027529,-0.771404,0.043743,0.014672,0.857071,-0.145342,-0.699728,-0.507432,-0.675060,-0.885042,-0.695423,0.021213,-0.534003,-0.289607,-0.187996,-0.689391,-0.887993,0.276726
0.060000,-0.146236,0.065641,0.296247,-0.167834,-0.015869,0.041638,-0.984808,0.031864,-0.045338,0.076638,0.023277,0.064855,0.950136,0.007615,-0.795240,0.104871,-0.039954,0.756316,-0.010360,-0.028714,-0.772220,0.043546,0.013051,0.856585,-0.145982,-0.488945,-0.931421,1.132035,-0.732993,-0.542790,0.005437,-0.592156,-0.408230,-0.098622,-0.810729,-0.242855,-0.320051
0.062000,-0.146186,0.065565,0.296395,-0.166927,-0.015812,0.041716,-0.984959,0.025055,-0.038194,0.074006,-0.066268,0.007915,0.922424,0.006339,-0.796618,0.104659,-0.041200,0.755374,-0.010278,-0.030006,-0.773084,0.043298,0.011303,0.856469,-0.146948,-0.637973,-0.688906,-0.106097,-0.623180,-0.471081,0.041130,-0.646331,-0.432018,-0.123996,-0.874010,-0.058124,-0.483184
0.064000,-0.146147,0.065500,0.296527,-0.166056,-0.015774,0.041829,-0.985102,0.019429,-0.032241,0.066019,-0.097130,-0.016107,0.884919,0.005091,-0.798257,0.106208,-0.042319,0.754579,-0.010244,-0.031282,-0.773923,0.043008,0.009561,0.856634,-0.148170,-0.623920,-0.819482,0.774887,-0.559637,-0.397576,0.017196,-0.637912,-0.419548,-0.144802,-0.870673,0.082442,-0.611011
0.066000,-0.146113,0.065435,0.296660,-0.165207,-0.015742,0.041921,-0.985242,0.017094,-0.032718,0.066694,-0.077330,-0.016991,0.862630,0.003354,-0.799369,0.105938,-0.043455,0.753797,-0.010174,-0.032457,-0.774614,0.042550,0.007948,0.856613,-0.149178,-0.868942,-0.556299,-0.135161,-0.567952,-0.390873,0.034844,-0.587433,-0.345432,-0.228923,-0.806526,-0.010373,-0.503949
0.068000,-0.146081,0.065271,0.296836,-0.164247,-0.015725,0.041363,-0.985426,0.015814,-0.081867,0.088050,0.570504,0.071777,0.968323,-0.003630,-0.796238,0.082630,-0.046112,0.752644,-0.009898,-0.032370,-0.775075,0.042009,0.007577,0.855194,-0.148629,-3.491979,1.565920,-11.654068,-1.328409,-0.576580,0.138052,0.043428,-0.230588,-0.270345,-0.185909,-0.709750,0.274736
0.070000,-0.146029,0.065078,0.297008,-0.163248,-0.015553,0.040363,-0.985636,0.026116,-0.096697,0.085536,0.981274,0.295846,1.010571,-0.011961,-0.793371,0.062132,-0.049448,0.751575,-0.010526,-0.031567,-0.774854,0.041111,0.007914,0.852283,-0.146610,-4.165334,1.433197,-10.248839,-1.667790,-0.534363,-0.314260,0.401399,0.110798,-0.449239,0.168747,-1.455496,1.009140
0.072000,-0.145931,0.064945,0.297135,-0.162277,-0.015067,0.039386,-0.985844,0.049149,-0.066503,0.063850,0.907152,0.602143,0.995568,-0.017653,-0.794627,0.065249,-0.051859,0.750819,-0.013322,-0.031149,-0.773700,0.039664,0.007906,0.848053,-0.143500,-2.845847,-0.627912,1.558332,-1.205798,-0.378464,-1.397958,0.209239,0.576648,-0.723663,-0.004181,-2.114856,1.555267
0.074000,-0.145787,0.064924,0.297267,-0.161323,-0.014340,0.039065,-0.986024,0.071850,-0.010448,0.065990,0.219381,0.733762,0.992823,-0.020018,-0.797759,0.077941,-0.052424,0.750307,-0.017332,-0.032712,-0.772460,0.038518,0.006275,0.843337,-0.140083,-1.182457,-1.565782,6.346025,-0.282332,-0.255848,-2.004704,-0.781365,0.619927,-0.572687,-0.815281,-2.358195,1.708214
0.076000,-0.145622,0.065002,0.297461,-0.160346,-0.013579,0.039627,-0.986172,0.082731,0.039021,0.097068,-0.656730,0.623785,1.025369,-0.020748,-0.798663,0.076152,-0.051328,0.749787,-0.020798,-0.036587,-0.772109,0.038143,0.002691,0.838999,-0.137034,-0.365322,-0.452092,-0.894594,0.547899,-0.260056,-1.733333,-1.937916,0.175981,-0.187525,-1.791930,-2.169016,1.524632
0.078000,-0.145468,0.065084,0.297704,-0.159328,-0.012958,0.040218,-0.986321,0.076945,0.041249,0.121169,-0.662822,0.479384,1.060269,-0.022367,-0.797314,0.059671,-0.050406,0.748856,-0.022922,-0.040444,-0.772840,0.038469,-0.000957,0.834921,-0.134007,-0.809498,0.674431,-8.240450,0.461102,-0.465423,-1.061632,-1.928258,-0.365755,0.163128,-1.823891,-2.038560,1.513488
0.080000,-0.145348,0.065085,0.297935,-0.158307,-0.012545,0.039792,-0.986508,0.059986,0.000223,0.115650,0.375098,0.437137,1.047723,-0.025919,-0.796875,0.047288,-0.051651,0.747290,-0.023599,-0.041077,-0.774116,0.037353,-0.002418,0.830597,-0.130358,-1.775624,0.219663,-6.191216,-0.622586,-0.783164,-0.338898,-0.316546,-0.637852,-0.558368,-0.730843,-2.162122,1.824337
0.082000,-0.145256,0.065040,0.298130,-0.157332,-0.012273,0.038455,-0.986720,0.046089,-0.022431,0.097619,1.296629,0.443342,0.990029,-0.030022,-0.799083,0.049075,-0.053221,0.743878,-0.008343,-0.038845,-0.775730,0.035348,-0.001940,0.826089,-0.126219,-2.051691,-1.104095,0.893209,-0.785092,-1.705900,7.628346,1.115851,-0.807147,-1.002570,0.239116,-2.254000,2.069597
0.084000,-0.145159,0.065053,0.298268,-0.156389,-0.011846,0.037523,-0.986911,0.048057,0.006626,0.068638,0.871461,0.534739,0.965065,-0.032592,-0.801983,0.055554,-0.053896,0.742814,0.000209,-0.037548,-0.777379,0.033311,-0.002318,0.821709,-0.122449,-1.285140,-1.449918,3.239615,-0.337468,-0.531928,4.276052,0.648796,-0.824474,-1.018203,-0.188887,-2.189928,1.885201
0.086000,-0.145046,0.065170,0.298362,-0.155452,-0.011181,0.037736,-0.987059,0.056538,0.058227,0.047291,-0.297361,0.589583,0.975980,-0.033354,-0.802817,0.052286,-0.052959,0.745737,-0.007147,-0.039289,-0.779128,0.032191,-0.005112,0.817833,-0.119641,-0.380719,-0.417355,-1.634232,0.468414,1.461559,-3.678231,-0.870546,-0.874539,-0.560150,-1.397139,-1.938239,1.404012
0.088000,-0.144928,0.065328,0.298441,-0.154520,-0.010466,0.038447,-0.987186,0.059001,0.079098,0.039229,-0.797781,0.561387,0.974159,-0.033837,-0.801600,0.039429,-0.050984,0.749775,-0.016962,-0.042149,-0.780904,0.031473,-0.008892,0.814374,-0.117413,-0.241721,0.608465,-6.428565,0.987724,2.018829,-4.907262,-1.430047,-0.888057,-0.358685,-1.889956,-1.729233,1.113894
0.090000,-0.144830,0.065400,0.298495,-0.153598,-0.009936,0.038217,-0.987344,0.049245,0.036078,0.027033,0.160586,0.524647,0.952416,-0.036373,-0.800886,0.030689,-0.051195,0.752513,-0.024518,-0.042216,-0.782714,0.031485,-0.010604,0.810753,-0.114761,-1.268093,0.357372,-4.369699,-0.105654,1.369117,-3.778379,-0.033444,-0.905062,0.005941,-0.856118,-1.810910,1.325894
0.092000,-0.144750,0.065368,0.298530,-0.152702,-0.009638,0.036741,-0.987542,0.039950,-0.015969,0.017758,1.428283,0.488766,0.912324,-0.040936,-0.801971,0.032652,-0.054056,0.753826,-0.029584,-0.038711,-0.784355,0.031689,-0.009624,0.806813,-0.111407,-2.281573,-0.542427,0.981554,-1.430277,0.656489,-2.532926,1.752333,-0.820569,0.101880,0.490178,-1.969800,1.676942
0.094000,-0.144656,0.065352,0.298598,-0.151840,-0.009444,0.035269,-0.987730,0.046801,-0.008047,0.033777,1.439351,0.386415,0.872580,-0.044829,-0.803080,0.035619,-0.056880,0.754094,-0.032575,-0.035048,-0.785548,0.030358,-0.008615,0.803149,-0.108163,-1.946092,-0.554750,1.483588,-1.412394,0.134194,-1.495625,1.831512,-0.596270,-0.665370,0.504334,-1.832220,1.622070
0.096000,-0.144522,0.065471,0.298729,-0.151015,-0.009236,0.034896,-0.987872,0.067365,0.059668,0.065413,0.348914,0.234264,0.839914,-0.045834,-0.802558,0.030448,-0.054567,0.750251,-0.011712,-0.034468,-0.786456,0.027914,-0.010005,0.800327,-0.105810,-0.502720,0.260894,-2.585498,1.156786,-1.921816,10.431846,0.289884,-0.454254,-1.221953,-0.695021,-1.410807,1.176627
0.098000,-0.144354,0.065702,0.298838,-0.150186,-0.008808,0.035600,-0.987977,0.083746,0.115105,0.054766,-0.748355,0.288320,0.856128,-0.044424,-0.801167,0.021460,-0.050120,0.747814,0.002200,-0.037318,-0.787108,0.026301,-0.013750,0.797797,-0.104153,0.704940,0.695467,-4.494317,2.223295,-1.218341,6.955755,-1.424922,-0.325896,-0.806764,-1.872552,-1.265061,0.828402
0.100000,-0.144185,0.065933,0.298850,-0.149329,-0.008144,0.036419,-0.988083,0.084723,0.115866,0.006164,-0.897600,0.503536,0.893381,-0.043037,-0.800509,0.017088,-0.047369,0.749845,-0.007403,-0.040987,-0.787341,0.025753,-0.017763,0.794798,-0.102434,0.693429,0.329329,-2.185835,1.375723,1.015347,-4.801126,-1.834159,-0.116460,-0.274079,-2.006459,-1.499294,0.859788
0.102000,-0.144058,0.066029,0.298790,-0.148438,-0.007601,0.035906,-0.988240,0.063546,0.047910,-0.030237,0.438627,0.581978,0.919888,-0.045256,-0.801004,0.018083,-0.048583,0.752769,-0.021563,-0.041307,-0.787761,0.026733,-0.018928,0.791164,-0.099879,-1.109141,-0.247764,0.497457,-0.606864,1.461916,-7.080356,-0.160068,-0.209955,0.490332,-0.582468,-1.817064,1.277372
0.104000,-0.143971,0.065985,0.298715,-0.147519,-0.007341,0.033982,-0.988448,0.043417,-0.022086,-0.037271,1.877274,0.510699,0.933374,-0.051381,-0.801698,0.018686,-0.052856,0.754302,-0.031951,-0.037821,-0.788484,0.027936,-0.017059,0.787202,-0.096539,-3.062746,-0.346873,0.301287,-2.136540,0.766609,-5.193738,1.742993,-0.361429,0.601162,0.934335,-1.981126,1.669752
0.106000,-0.143884,0.065958,0.298686,-0.146611,-0.007224,0.032152,-0.988645,0.043580,-0.013699,-0.014757,1.805679,0.356752,0.917956,-0.057266,-0.801538,0.013463,-0.056931,0.754874,-0.039231,-0.034416,-0.789045,0.026490,-0.015358,0.783688,-0.093441,-2.942205,0.079726,-2.611216,-2.037545,0.286283,-3.640192,1.702415,-0.280657,-0.722773,0.850569,-1.756775,1.548888
0.108000,-0.143757,0.066107,0.298707,-0.145746,-0.007063,0.031688,-0.988789,0.063417,0.074545,0.010612,0.445916,0.200449,0.878020,-0.058756,-0.801015,0.005340,-0.055173,0.751586,-0.023037,-0.034787,-0.789525,0.023088,-0.016840,0.781380,-0.091812,-0.745170,0.261713,-4.061701,0.878975,-1.644137,8.097284,-0.185401,-0.239831,-1.701237,-0.740998,-1.154065,0.814895
0.110000,-0.143612,0.066364,0.298720,-0.144898,-0.006826,0.032030,-0.988905,0.072261,0.128543,0.006442,-0.363479,0.158525,0.865165,-0.057083,-0.801493,0.001821,-0.052329,0.749205,-0.010920,-0.037866,-0.790465,0.021517,-0.020104,0.779656,-0.090908,0.836638,-0.238896,-1.759507,1.422034,-1.190525,6.058374,-1.539705,-0.469881,-0.785288,-1.632023,-0.862131,0.451723
0.112000,-0.143465,0.066646,0.298666,-0.144041,-0.006446,0.032556,-0.989015,0.073688,0.141359,-0.026859,-0.565811,0.272432,0.878716,-0.054747,-0.802816,0.003045,-0.049811,0.749099,-0.009283,-0.041816,-0.791485,0.021479,-0.023755,0.777724,-0.090033,1.167644,-0.661580,0.612310,1.258707,-0.053005,0.818554,-1.974791,-0.510155,-0.018973,-1.825274,-0.965980,0.437403
0.114000,-0.143345,0.066833,0.298553,-0.143151,-0.006093,0.032280,-0.989156,0.060023,0.093410,-0.056741,0.232718,0.361347,0.910876,-0.055378,-0.803744,0.002747,-0.050323,0.750907,-0.016876,-0.043795,-0.792552,0.022449,-0.025640,0.775225,-0.088524,-0.315290,-0.463884,-0.149143,-0.255945,0.903976,-3.796530,-0.989543,-0.533434,0.484903,-0.942785,-1.249713,0.754808
0.116000,-0.143284,0.066841,0.298411,-0.142137,-0.006049,0.030316,-0.989364,0.030644,0.003966,-0.071064,1.948825,0.293016,1.022044,-0.061295,-0.803503,-0.005531,-0.056110,0.752617,-0.026818,-0.042815,-0.796630,0.034619,-0.023983,0.772114,-0.085892,-2.958706,0.120476,-4.138843,-2.893167,0.854991,-4.971243,0.490040,-2.039305,6.084776,0.828864,-1.555092,1.315861
0.118000,-0.143211,0.066832,0.298300,-0.141137,-0.005987,0.028152,-0.989572,0.036221,-0.004765,-0.055509,2.144611,0.339377,1.007227,-0.067209,-0.802965,-0.014260,-0.062063,0.753478,-0.034635,-0.041068,-0.799306,0.040041,-0.021868,0.768538,-0.082618,-2.956766,0.268955,-4.364528,-2.976907,0.430713,-3.908270,0.873380,-1.337784,2.711344,1.057437,-1.788113,1.636943
0.120000,-0.143102,0.066941,0.298229,-0.140211,-0.005786,0.026895,-0.989739,0.054651,0.054605,-0.035346,1.225495,0.352070,0.938510,-0.068964,-0.803343,-0.017000,-0.065761,0.754055,-0.041238,-0.041328,-0.800517,0.037768,-0.021660,0.765167,-0.079628,-0.877368,-0.189102,-1.370343,-1.848766,0.288245,-3.301649,-0.130236,-0.605283,-1.136549,0.104082,-1.685462,1.495273
0.122000,-0.142963,0.067173,0.298197,-0.139341,-0.005546,0.026515,-0.989874,0.069503,0.116184,-0.016096,0.351193,0.267330,0.884176,-0.066798,-0.804362,-0.015914,-0.067231,0.754246,-0.046268,-0.043995,-0.801659,0.033963,-0.023317,0.762351,-0.077228,1.082966,-0.509463,0.543250,-0.734916,0.095366,-2.515212,-1.333142,-0.571006,-1.902715,-0.828702,-1.408225,1.199900
0.124000,-0.142837,0.067483,0.298142,-0.138443,-0.005470,0.026467,-0.990002,0.063098,0.154900,-0.027312,0.045868,0.059825,0.908340,-0.063333,-0.804999,-0.018353,-0.066468,0.753070,-0.040364,-0.048991,-0.806846,0.044950,-0.025791,0.760484,-0.075753,1.732537,-0.318455,-1.219509,0.381539,-0.587895,2.952004,-2.498098,-2.593740,5.493678,-1.237097,-0.933159,0.737310
0.126000,-0.142726,0.067765,0.298050,-0.137560,-0.005426,0.026143,-0.990133,0.055233,0.140715,-0.046085,0.323128,0.065089,0.891504,-0.061133,-0.804694,-0.024514,-0.066200,0.752595,-0.036690,-0.052908,-0.812260,0.056234,-0.027612,0.758648,-0.074285,1.099988,0.152604,-3.080610,0.134004,-0.237590,1.837368,-1.958568,-2.706847,5.642098,-0.910306,-0.918208,0.734237
0.128000,-0.142658,0.067946,0.297837,-0.136670,-0.005357,0.024964,-0.990288,0.033932,0.090977,-0.106476,1.166341,0.208332,0.898490,-0.062022,-0.804464,-0.029006,-0.069588,0.756933,-0.055364,-0.054309,-0.818490,0.070681,-0.027559,0.756409,-0.072495,-0.444838,0.114911,-2.246174,-1.694290,2.169367,-9.337314,-0.700476,-3.115254,7.223437,0.026495,-1.119407,0.895113
0.130000,-0.142604,0.068058,0.297588,-0.135858,-0.005257,0.023128,-0.990444,0.026920,0.055941,-0.124330,1.812401,0.330330,0.817706,-0.064831,-0.804291,-0.030651,-0.073703,0.761500,-0.072631,-0.052194,-0.822374,0.074418,-0.025975,0.753706,-0.070124,-1.404142,0.086250,-0.822082,-2.057645,2.283314,-8.633097,1.057242,-1.941606,1.868638,0.791746,-1.351710,1.185404
0.132000,-0.142578,0.068188,0.297279,-0.135049,-0.005248,0.021166,-0.990599,0.013403,0.065015,-0.154567,1.949893,0.257331,0.812414,-0.067981,-0.804239,-0.032255,-0.077172,0.766795,-0.087308,-0.050285,-0.828902,0.087002,-0.024183,0.751476,-0.068216,-1.575394,0.026296,-0.802428,-1.734025,2.647564,-7.338891,0.954614,-3.264447,6.291557,0.896345,-1.114739,0.953980
0.134000,-0.142538,0.068423,0.296974,-0.134292,-0.005198,0.019918,-0.990728,0.019872,0.117282,-0.152466,1.236945,0.203042,0.761702,-0.069046,-0.803655,-0.036108,-0.076678,0.770620,-0.088762,-0.050000,-0.835606,0.098349,-0.023929,0.749780,-0.066934,-0.532537,0.291976,-1.926077,0.246591,1.912481,-0.726709,0.142501,-3.351862,5.673965,0.127088,-0.848132,0.641000
0.136000,-0.142497,0.068786,0.296587,-0.133515,-0.004986,0.019694,-0.990839,0.020650,0.181535,-0.193735,0.198890,0.224822,0.788092,-0.067515,-0.803030,-0.040960,-0.074075,0.778022,-0.103588,-0.053516,-0.844901,0.119170,-0.026001,0.748717,-0.066766,0.765489,0.312254,-2.426252,1.301625,3.701109,-7.413368,-1.757902,-4.647370,10.410135,-1.036394,-0.531664,0.083836
0.138000,-0.142453,0.069155,0.296169,-0.132782,-0.004643,0.019491,-0.990943,0.021922,0.184635,-0.209076,0.161661,0.352992,0.745801,-0.065895,-0.802578,-0.043836,-0.070899,0.786254,-0.120407,-0.056045,-0.852581,0.131980,-0.028077,0.747341,-0.066383,0.810415,0.225974,-1.437841,1.588085,4.115725,-8.409274,-1.264577,-3.840295,6.405176,-1.038027,-0.687736,0.191573
0.140000,-0.142454,0.069424,0.295669,-0.132012,-0.004411,0.018222,-0.991071,-0.000735,0.134575,-0.249576,1.233026,0.384576,0.778715,-0.067263,-0.802741,-0.044835,-0.070901,0.796534,-0.144681,-0.056104,-0.862220,0.151197,-0.027940,0.745675,-0.065562,-0.684345,-0.081485,-0.499457,-0.001282,5.140261,-12.136947,-0.029390,-4.819101,9.608501,0.068692,-0.833046,0.410431
0.142000,-0.142476,0.069612,0.295176,-0.131264,-0.004292,0.016064,-0.991208,-0.010660,0.093580,-0.246727,2.128022,0.389146,0.751507,-0.070973,-0.802663,-0.047128,-0.071752,0.804992,-0.157082,-0.052857,-0.871038,0.164840,-0.025894,0.743624,-0.064020,-1.854942,0.039392,-1.146685,-0.425422,4.228653,-6.200497,1.623434,-4.409256,6.821556,1.023093,-1.025755,0.771172
0.144000,-0.142509,0.069813,0.294634,-0.130472,-0.004190,0.013859,-0.991346,-0.016911,0.100630,-0.271256,2.178455,0.378507,0.795475,-0.074831,-0.802516,-0.051050,-0.072846,0.814716,-0.173353,-0.050533,-0.882141,0.187297,-0.023876,0.741683,-0.062663,-1.929048,0.073480,-1.961192,-0.546826,4.862076,-8.135378,1.162260,-5.551226,11.228416,1.008891,-0.970153,0.678608
0.146000,-0.142508,0.070119,0.294093,-0.129707,-0.003868,0.012535,-0.991466,0.000909,0.153035,-0.270131,1.275293,0.482048,0.773049,-0.075948,-0.802180,-0.054963,-0.070924,0.824250,-0.188070,-0.050240,-0.891898,0.204213,-0.023792,0.739678,-0.061525,-0.558203,0.167930,-1.956222,0.960858,4.767240,-7.358506,0.146362,-4.878757,8.457809,0.042062,-1.002680,0.568652
0.148000,-0.142481,0.070534,0.293502,-0.128920,-0.003329,0.012148,-0.991575,0.013104,0.207540,-0.295580,0.317705,0.575150,0.799671,-0.074259,-0.801996,-0.058124,-0.067287,0.835991,-0.214008,-0.053199,-0.902384,0.225045,-0.025831,0.737823,-0.061001,0.844154,0.091921,-1.580456,1.818387,5.870500,-12.969012,-1.479617,-5.242967,10.416102,-1.019675,-0.927285,0.262151
0.150000,-0.142454,0.070922,0.292908,-0.128153,-0.002791,0.011412,-0.991685,0.013840,0.194187,-0.296809,0.664853,0.620013,0.778990,-0.073076,-0.801958,-0.060114,-0.063717,0.846567,-0.233808,-0.054562,-0.911857,0.241565,-0.027126,0.735688,-0.060102,0.591616,0.018879,-0.995006,1.785147,5.287788,-9.900248,-0.681577,-4.736609,8.260266,-0.647293,-1.067768,0.449692
0.152000,-0.142462,0.071201,0.292266,-0.127352,-0.002427,0.009504,-0.991809,-0.003999,0.139537,-0.321460,1.848484,0.596490,0.808987,-0.074954,-0.803461,-0.059179,-0.063255,0.857302,-0.253445,-0.053210,-0.922874,0.265055,-0.025987,0.733333,-0.058728,-0.938805,-0.751263,0.467662,0.231334,5.367833,-9.818466,0.675889,-5.508139,11.744921,0.569679,-1.177407,0.686734
0.154000,-0.142473,0.071437,0.291624,-0.126567,-0.002097,0.007172,-0.991930,-0.005830,0.118004,-0.320775,2.274436,0.617149,0.791658,-0.078133,-0.805773,-0.056372,-0.063368,0.867105,-0.267977,-0.049946,-0.932920,0.284564,-0.023923,0.730760,-0.057006,-1.589460,-1.156159,1.403280,-0.056838,4.901455,-7.265871,1.632085,-5.023193,9.754531,1.031655,-1.286428,0.861042
0.156000,-0.142467,0.071728,0.290963,-0.125771,-0.001668,0.005430,-0.992043,0.002954,0.145039,-0.330599,1.676026,0.640829,0.802808,-0.080432,-0.808403,-0.052666,-0.062625,0.878134,-0.288802,-0.048361,-0.943008,0.305781,-0.023143,0.728393,-0.055762,-1.149606,-1.314884,1.852884,0.371591,5.514597,-10.412671,0.792765,-5.043859,10.608163,0.390277,-1.183668,0.621785
0.158000,-0.142429,0.072106,0.290327,-0.124990,-0.001116,0.004666,-0.992146,0.019347,0.189358,-0.317776,0.690470,0.638999,0.789770,-0.080932,-0.810846,-0.048971,-0.059395,0.889099,-0.309214,-0.048840,-0.951954,0.322942,-0.024417,0.726337,-0.055097,-0.249847,-1.221401,1.847397,1.615096,5.482448,-10.206049,-0.239799,-4.473411,8.580884,-0.637205,-1.028087,0.332925
0.160000,-0.142373,0.072546,0.289711,-0.124200,-0.000564,0.004666,-0.992246,0.028065,0.219745,-0.308005,-0.067770,0.543827,0.798961,-0.080117,-0.813117,-0.045661,-0.054849,0.900638,-0.331764,-0.051157,-0.961031,0.341975,-0.027280,0.724855,-0.055201,0.407209,-1.135489,1.655245,2.272730,5.769394,-11.274784,-1.158179,-4.538489,9.516338,-1.431251,-0.740723,-0.052038
0.162000,-0.142326,0.072936,0.289143,-0.123408,-0.000209,0.004380,-0.992346,0.023076,0.194970,-0.284019,0.240164,0.384695,0.800034,-0.080186,-0.815505,-0.042455,-0.051276,0.911337,-0.348829,-0.051827,-0.969971,0.360599,-0.029421,0.723675,-0.055359,-0.034356,-1.194200,1.602931,1.786686,5.349253,-8.532433,-0.335029,-4.469559,9.312172,-1.070519,-0.590147,-0.079142
0.164000,-0.142302,0.073220,0.288613,-0.122608,-0.000113,0.003325,-0.992450,0.012115,0.142234,-0.264938,1.036391,0.222064,0.806436,-0.082163,-0.818209,-0.039059,-0.050412,0.921810,-0.363912,-0.049427,-0.978921,0.381010,-0.029798,0.722641,-0.055298,-0.988790,-1.352154,1.697873,0.431916,5.236831,-7.541837,1.199943,-4.475215,10.205514,-0.188568,-0.517110,0.030462
0.166000,-0.142273,0.073459,0.288132,-0.121804,-0.000113,0.002114,-0.992552,0.014474,0.119405,-0.240499,1.202510,0.145130,0.810340,-0.084681,-0.820869,-0.035798,-0.050646,0.932104,-0.379470,-0.045513,-0.986940,0.398952,-0.029737,0.721600,-0.055081,-1.258872,-1.329683,1.630817,-0.116904,5.146904,-7.778866,1.956917,-4.009445,8.970798,0.030547,-0.520186,0.108704
0.168000,-0.142211,0.073732,0.287696,-0.121007,-0.000052,0.001502,-0.992650,0.031089,0.136570,-0.218068,0.599691,0.133718,0.802973,-0.086059,-0.823131,-0.033030,-0.049671,0.942456,-0.397478,-0.042258,-0.993490,0.414058,-0.030862,0.720599,-0.055036,-0.688923,-1.131255,1.383670,0.487696,5.175947,-9.004001,1.627662,-3.274970,7.552866,-0.562810,-0.500778,0.022209
0.170000,-0.142114,0.074058,0.287310,-0.120197,0.000062,0.001577,-0.992749,0.048643,0.162711,-0.193054,-0.087539,0.102639,0.815875,-0.086094,-0.824941,-0.030975,-0.046898,0.952355,-0.415404,-0.040718,-0.999457,0.429015,-0.033411,0.719676,-0.055207,-0.017473,-0.904885,1.027898,1.386167,4.949323,-8.963012,0.769822,-2.983606,7.478458,-1.274434,-0.461252,-0.085457
0.172000,-0.141989,0.074407,0.286980,-0.119396,0.000176,0.002053,-0.992845,0.062595,0.174608,-0.165267,-0.486155,0.054763,0.807347,-0.085352,-0.826370,-0.029529,-0.042516,0.961311,-0.429647,-0.039612,-1.004423,0.442681,-0.036736,0.718810,-0.055453,0.370760,-0.714547,0.722611,2.191369,4.478188,-7.121288,0.553259,-2.482798,6.833018,-1.662254,-0.433116,-0.122943
0.174000,-0.141861,0.074709,0.286698,-0.118567,0.000162,0.002261,-0.992943,0.063583,0.151306,-0.140613,-0.204791,-0.040279,0.834605,-0.085326,-0.827740,-0.028412,-0.038952,0.969677,-0.442188,-0.037677,-1.009593,0.458206,-0.039437,0.717911,-0.055475,0.013022,-0.685063,0.558877,1.781837,4.183206,-6.270377,0.967360,-2.585272,7.762406,-1.350648,-0.449754,-0.011029
0.176000,-0.141736,0.074933,0.286475,-0.117746,0.000015,0.001953,-0.993042,0.062743,0.112065,-0.111638,0.322890,-0.110856,0.826724,-0.086502,-0.829080,-0.027425,-0.036539,0.977267,-0.451273,-0.033083,-1.013578,0.470576,-0.040914,0.716836,-0.055034,-0.587725,-0.669906,0.493330,1.206656,3.794674,-4.542825,2.296981,-1.992371,6.185247,-0.738725,-0.537192,0.220770
0.178000,-0.141606,0.075120,0.286293,-0.116892,-0.000191,0.001529,-0.993143,0.065202,0.093391,-0.090951,0.445527,-0.156778,0.860115,-0.088071,-0.830299,-0.026756,-0.035068,0.985082,-0.463542,-0.028067,-1.017472,0.483105,-0.042092,0.715644,-0.054381,-0.784512,-0.609282,0.334577,0.735104,3.907787,-6.134569,2.507801,-1.947082,6.264295,-0.588703,-0.596067,0.326419
0.180000,-0.141449,0.075327,0.286168,-0.116057,-0.000347,0.001520,-0.993241,0.078070,0.103303,-0.062520,0.027505,-0.155448,0.839858,-0.088790,-0.831070,-0.026682,-0.031907,0.992278,-0.473413,-0.023104,-1.019570,0.489992,-0.044042,0.714390,-0.053701,-0.359363,-0.385811,0.036764,1.580552,3.597746,-4.935156,2.481834,-1.049010,3.443823,-0.974917,-0.627109,0.339607
0.182000,-0.141278,0.075557,0.286080,-0.115190,-0.000507,0.001889,-0.993342,0.085895,0.114944,-0.043823,-0.347686,-0.202853,0.872810,-0.088798,-0.831533,-0.027276,-0.027833,0.999499,-0.484432,-0.019809,-1.022025,0.499495,-0.046778,0.713232,-0.053181,-0.004405,-0.231429,-0.297037,2.037137,3.610778,-5.509581,1.647387,-1.227331,4.751158,-1.368065,-0.579101,0.260060
0.184000,-0.141090,0.075789,0.286051,-0.114352,-0.000685,0.002457,-0.993437,0.093623,0.116345,-0.014777,-0.542450,-0.243096,0.843876,-0.088393,-0.831642,-0.028456,-0.022154,1.005596,-0.489142,-0.016049,-1.022897,0.504521,-0.049811,0.712119,-0.052642,0.202643,-0.054739,-0.589793,2.839316,3.048171,-2.355175,1.880124,-0.436345,2.513072,-1.516631,-0.556475,0.269558
0.186000,-0.140909,0.075977,0.286053,-0.113477,-0.000979,0.002771,-0.993536,0.090541,0.093626,0.000871,-0.277523,-0.330298,0.879535,-0.088651,-0.831736,-0.029973,-0.017607,1.011831,-0.495553,-0.012038,-1.024280,0.512955,-0.052259,0.711062,-0.052026,-0.129024,-0.046569,-0.758810,2.273698,3.117725,-3.205567,2.005099,-0.691316,4.217315,-1.223898,-0.528565,0.308000
0.188000,-0.140728,0.076103,0.286104,-0.112637,-0.001349,0.002705,-0.993632,0.090735,0.063321,0.025455,0.108037,-0.362388,0.844490,-0.089732,-0.831757,-0.031579,-0.013296,1.017047,-0.496981,-0.005527,-1.023679,0.515495,-0.053746,0.709868,-0.051054,-0.540633,-0.010560,-0.802637,2.155369,2.608051,-0.714068,3.255609,0.300629,1.269769,-0.743777,-0.596588,0.485881
0.190000,-0.140545,0.076200,0.286170,-0.111764,-0.001758,0.002519,-0.993730,0.091470,0.048242,0.033157,0.232762,-0.387483,0.876763,-0.091168,-0.831774,-0.033296,-0.009855,1.022619,-0.502696,0.000758,-1.023241,0.520591,-0.054949,0.708612,-0.049995,-0.717833,-0.008829,-0.858814,1.720636,2.785750,-2.857370,3.142358,0.218927,2.548075,-0.601490,-0.628207,0.529517
0.192000,-0.140342,0.076308,0.286276,-0.110936,-0.002107,0.002578,-0.993822,0.101693,0.054169,0.052872,-0.017928,-0.355285,0.832532,-0.092030,-0.831504,-0.035245,-0.004481,1.026940,-0.503182,0.007399,-1.020606,0.519059,-0.056560,0.707257,-0.048856,-0.431050,0.135369,-0.974386,2.687005,2.160448,-0.242936,3.320838,1.317460,-0.765957,-0.805340,-0.677637,0.569884
0.194000,-0.140130,0.076428,0.286387,-0.110079,-0.002445,0.002819,-0.993916,0.105874,0.060100,0.055481,-0.200527,-0.364663,0.862271,-0.092547,-0.831172,-0.037368,0.001272,1.031329,-0.506289,0.012368,-1.018494,0.521639,-0.058572,0.705934,-0.047837,-0.258587,0.165714,-1.061267,2.876444,2.194459,-1.553478,2.484515,1.055949,1.289950,-1.006035,-0.661267,0.509576
0.196000,-0.139907,0.076547,0.286528,-0.109267,-0.002763,0.003118,-0.994004,0.111183,0.059376,0.070584,-0.259676,-0.351741,0.815850,-0.092870,-0.830701,-0.039561,0.008494,1.034309,-0.502888,0.017989,-1.014604,0.518485,-0.060600,0.704572,-0.046737,-0.161243,0.235689,-1.096736,3.610895,1.490126,1.700527,2.810227,1.945208,-1.577055,-1.013937,-0.681107,0.549979
0.198000,-0.139694,0.076630,0.286664,-0.108426,-0.003146,0.003142,-0.994095,0.106608,0.041660,0.067887,0.020506,-0.385589,0.845502,-0.093832,-0.830420,-0.041614,0.014391,1.037588,-0.503010,0.023352,-1.011464,0.519390,-0.062044,0.703229,-0.045609,-0.480944,0.140234,-1.026232,2.948378,1.639712,-0.060944,2.681633,1.569806,0.452727,-0.722005,-0.671328,0.563995
0.200000,-0.139484,0.076674,0.286820,-0.107627,-0.003563,0.002856,-0.994181,0.105147,0.021947,0.078335,0.332356,-0.385624,0.801444,-0.095392,-0.830202,-0.043467,0.020265,1.039748,-0.498021,0.030442,-1.006764,0.514490,-0.062721,0.701805,-0.044250,-0.780050,0.109125,-0.926444,2.937042,1.079760,2.494502,3.545252,2.350083,-2.450123,-0.338451,-0.712117,0.679211
0.202000,-0.139279,0.076704,0.286966,-0.106803,-0.004005,0.002487,-0.994269,0.102490,0.015042,0.072913,0.418051,-0.402029,0.825857,-0.097160,-0.830111,-0.045228,0.025230,1.042343,-0.497170,0.036730,-1.002733,0.512962,-0.063232,0.700435,-0.042968,-0.884300,0.045517,-0.880914,2.482608,1.297817,0.425643,3.143650,2.015368,-0.764228,-0.255710,-0.685237,0.641149
0.204000,-0.139065,0.076753,0.287126,-0.106026,-0.004407,0.002323,-0.994351,0.106840,0.024219,0.080172,0.208616,-0.383315,0.779507,-0.098397,-0.829884,-0.047066,0.031631,1.043901,-0.491647,0.042956,-0.997331,0.506174,-0.064105,0.699122,-0.041771,-0.618279,0.113497,-0.918893,3.200511,0.778515,2.761470,3.113316,2.701110,-3.393821,-0.436275,-0.656143,0.598285
0.206000,-0.138853,0.076814,0.287273,-0.105234,-0.004815,0.002284,-0.994433,0.106004,0.030359,0.073366,0.085947,-0.403484,0.795518,-0.099372,-0.829700,-0.048955,0.037884,1.045756,-0.489008,0.047759,-0.992663,0.503117,-0.065263,0.697971,-0.040816,-0.487460,0.092094,-0.944613,3.126620,0.927632,1.319036,2.401330,2.334124,-1.528535,-0.579071,-0.575536,0.477767
0.208000,-0.138640,0.076876,0.287426,-0.104481,-0.005226,0.002267,-0.994511,0.106495,0.031105,0.076533,0.064008,-0.408477,0.755274,-0.100222,-0.829488,-0.050837,0.044790,1.046788,-0.482550,0.052921,-0.987065,0.496417,-0.066405,0.696910,-0.039926,-0.424883,0.106137,-0.940779,3.452849,0.515978,3.229177,2.581221,2.798897,-3.349853,-0.571147,-0.530724,0.445093
0.210000,-0.138438,0.076916,0.287563,-0.103716,-0.005697,0.002044,-0.994588,0.100969,0.019978,0.068409,0.275135,-0.446196,0.766461,-0.101521,-0.829455,-0.052588,0.050475,1.048196,-0.478999,0.057987,-0.982138,0.492810,-0.067119,0.695965,-0.039120,-0.649772,0.016134,-0.875798,2.842572,0.704260,1.775363,2.532924,2.463288,-1.803388,-0.356618,-0.472451,0.402613
0.212000,-0.138244,0.076935,0.287696,-0.102981,-0.006212,0.001612,-0.994663,0.097310,0.009437,0.066514,0.487478,-0.468529,0.735746,-0.103210,-0.829533,-0.054184,0.055832,1.049192,-0.473351,0.064012,-0.976744,0.487213,-0.067343,0.695099,-0.038312,-0.844366,-0.038680,-0.797829,2.678741,0.497815,2.824396,3.012202,2.697181,-2.798689,-0.112210,-0.432728,0.404131
0.214000,-0.138054,0.076955,0.287812,-0.102243,-0.006746,0.001181,-0.994736,0.094935,0.010049,0.058067,0.488857,-0.486772,0.737859,-0.104885,-0.829691,-0.055732,0.060797,1.050527,-0.469932,0.069588,-0.971821,0.483516,-0.067584,0.694354,-0.037656,-0.837508,-0.078908,-0.774012,2.482464,0.667750,1.709488,2.788083,2.461386,-1.848568,-0.120384,-0.372573,0.328181
0.216000,-0.137863,0.076998,0.287912,-0.101524,-0.007262,0.000942,-0.994806,0.095298,0.021493,0.049896,0.294936,-0.490063,0.719919,-0.106100,-0.829833,-0.057303,0.066428,1.051992,-0.466841,0.074636,-0.966976,0.479714,-0.068234,0.693769,-0.037244,-0.607512,-0.071176,-0.785303,2.815133,0.732367,1.545419,2.524096,2.422791,-1.900848,-0.325258,-0.292488,0.205915
0.218000,-0.137675,0.077057,0.287995,-0.100813,-0.007780,0.000818,-0.994875,0.093920,0.029601,0.041300,0.181151,-0.502106,0.713406,-0.107039,-0.829999,-0.058881,0.072333,1.053735,-0.464547,0.079150,-0.962582,0.476921,-0.069145,0.693328,-0.037033,-0.469722,-0.083137,-0.789044,2.952877,0.871356,1.146974,2.256957,2.196969,-1.396764,-0.455268,-0.220785,0.105645
0.220000,-0.137486,0.077118,0.288081,-0.100133,-0.008291,0.000671,-0.994939,0.094687,0.030635,0.043039,0.203277,-0.493865,0.681653,-0.107958,-0.830142,-0.060404,0.078684,1.054850,-0.458793,0.084105,-0.957628,0.470768,-0.069983,0.692860,-0.036753,-0.459496,-0.071446,-0.761519,3.175270,0.557424,2.876732,2.477632,2.476974,-3.076164,-0.418998,-0.233794,0.139673
0.222000,-0.137300,0.077165,0.288161,-0.099452,-0.008823,0.000342,-0.995003,0.093206,0.023289,0.040353,0.386387,-0.496078,0.680517,-0.109247,-0.830371,-0.061783,0.084375,1.055902,-0.453226,0.089337,-0.952866,0.465003,-0.070457,0.692321,-0.036344,-0.644227,-0.114616,-0.689612,2.845736,0.526144,2.783832,2.615804,2.380999,-2.882822,-0.236925,-0.269697,0.204762
0.224000,-0.137106,0.077198,0.288260,-0.098796,-0.009344,-0.000162,-0.995064,0.096964,0.016744,0.049273,0.559023,-0.468748,0.654078,-0.110837,-0.830565,-0.063042,0.090050,1.055775,-0.443403,0.095260,-0.947188,0.455505,-0.070547,0.691544,-0.035585,-0.795230,-0.097051,-0.629256,2.837283,-0.063284,4.911244,2.961532,2.838729,-4.748986,-0.045211,-0.388222,0.379576
0.226000,-0.136902,0.077234,0.288354,-0.098118,-0.009840,-0.000669,-0.995126,0.101704,0.017982,0.047107,0.560236,-0.441846,0.676117,-0.112442,-0.830750,-0.064236,0.095088,1.055671,-0.436718,0.100307,-0.941816,0.448754,-0.070691,0.690585,-0.034676,-0.802258,-0.092472,-0.597010,2.518810,-0.052110,3.342406,2.523495,2.686286,-3.375562,-0.071874,-0.479524,0.454121
0.228000,-0.136677,0.077292,0.288475,-0.097466,-0.010260,-0.000993,-0.995185,0.112875,0.029060,0.060382,0.369366,-0.385373,0.651473,-0.113577,-0.830689,-0.065545,0.100970,1.054136,-0.426390,0.104779,-0.935213,0.437730,-0.071217,0.689372,-0.033520,-0.567337,0.030811,-0.654747,2.941036,-0.767600,5.164329,2.236192,3.301583,-5.511949,-0.262928,-0.606550,0.578130
0.230000,-0.136440,0.077357,0.288596,-0.096796,-0.010661,-0.001277,-0.995246,0.118015,0.032412,0.060785,0.329076,-0.370669,0.670928,-0.114631,-0.830575,-0.066894,0.106183,1.052480,-0.418791,0.108209,-0.928857,0.429375,-0.071874,0.688041,-0.032280,-0.526979,0.056893,-0.674336,2.606909,-0.827742,3.799585,1.714885,3.178032,-4.177606,-0.328514,-0.665475,0.620062
0.232000,-0.136192,0.077420,0.288752,-0.096162,-0.011058,-0.001630,-0.995303,0.124059,0.031403,0.077764,0.396071,-0.359111,0.633216,-0.115737,-0.830303,-0.068344,0.111512,1.049048,-0.405128,0.111997,-0.921218,0.415896,-0.072344,0.686562,-0.030771,-0.553158,0.136098,-0.724986,2.664205,-1.716442,6.831271,1.893923,3.819129,-6.739342,-0.234991,-0.739785,0.754445
0.234000,-0.135944,0.077470,0.288905,-0.095509,-0.011494,-0.002136,-0.995360,0.123962,0.024804,0.076683,0.552731,-0.384067,0.650547,-0.117178,-0.830088,-0.069794,0.115313,1.045662,-0.394405,0.115371,-0.914043,0.405549,-0.072520,0.685090,-0.029234,-0.720703,0.107484,-0.725263,1.900492,-1.692800,5.361462,1.687164,3.587512,-5.173421,-0.087941,-0.735890,0.768336
0.236000,-0.135689,0.077519,0.289087,-0.094894,-0.011942,-0.002693,-0.995412,0.127953,0.024539,0.090691,0.604055,-0.390343,0.611604,-0.118637,-0.829746,-0.071366,0.118991,1.040728,-0.378566,0.119040,-0.905746,0.390423,-0.072538,0.683589,-0.027563,-0.729503,0.170896,-0.785955,1.839146,-2.466950,7.919397,1.834496,4.148545,-7.563142,-0.009306,-0.750293,0.835693
0.238000,-0.135431,0.077579,0.289256,-0.094263,-0.012403,-0.003164,-0.995465,0.128924,0.029967,0.084617,0.520210,-0.411660,0.628345,-0.119921,-0.829411,-0.073025,0.121657,1.036171,-0.367172,0.121582,-0.898028,0.378821,-0.072772,0.682220,-0.026093,-0.641894,0.167597,-0.829563,1.333053,-2.278599,5.697422,1.270788,3.859194,-5.801050,-0.117121,-0.684659,0.734755
0.240000,-0.135161,0.077666,0.289447,-0.093682,-0.012840,-0.003422,-0.995514,0.134829,0.043630,0.095310,0.305086,-0.408571,0.581460,-0.120637,-0.828883,-0.074885,0.125045,1.030114,-0.350789,0.123735,-0.889124,0.361772,-0.073405,0.680927,-0.024696,-0.357813,0.264067,-0.929671,1.693722,-3.028301,8.191449,1.076702,4.451940,-8.524233,-0.316538,-0.646678,0.698910
0.242000,-0.134894,0.077761,0.289619,-0.093091,-0.013308,-0.003656,-0.995562,0.133609,0.047431,0.086373,0.284360,-0.441549,0.591367,-0.121287,-0.828444,-0.076736,0.127496,1.024323,-0.337736,0.125068,-0.880880,0.348226,-0.074119,0.679820,-0.023536,-0.325032,0.219489,-0.925875,1.225567,-2.895649,6.526123,0.666274,4.122151,-6.772925,-0.356548,-0.553153,0.579637
0.244000,-0.134624,0.077854,0.289808,-0.092545,-0.013808,-0.003991,-0.995605,0.134753,0.046737,0.094492,0.387336,-0.463589,0.544865,-0.122011,-0.828021,-0.078491,0.129926,1.016925,-0.318712,0.126940,-0.871698,0.330103,-0.074567,0.678783,-0.022336,-0.362201,0.211552,-0.877074,1.215154,-3.699166,9.512420,0.936177,4.590931,-9.061888,-0.224052,-0.518779,0.600265
0.246000,-0.134360,0.077942,0.289973,-0.091984,-0.014348,-0.004436,-0.995647,0.131988,0.043718,0.082560,0.499921,-0.494318,0.558702,-0.122907,-0.827838,-0.079899,0.131073,1.009935,-0.303659,0.128424,-0.863253,0.315755,-0.074819,0.677879,-0.021294,-0.447779,0.091412,-0.704374,0.573667,-3.494763,7.526056,0.742115,4.222242,-7.173808,-0.126226,-0.451890,0.521123
0.248000,-0.134089,0.078038,0.290149,-0.091463,-0.014883,-0.004861,-0.995685,0.135563,0.047995,0.087697,0.480344,-0.490281,0.518419,-0.123630,-0.827639,-0.081167,0.132479,1.001630,-0.284344,0.130074,-0.853824,0.296723,-0.075072,0.676982,-0.020217,-0.361558,0.099369,-0.634031,0.702845,-4.152573,9.657831,0.824663,4.714750,-9.515922,-0.126293,-0.448499,0.538225
0.250000,-0.133817,0.078145,0.290298,-0.090928,-0.015416,-0.005217,-0.995724,0.135967,0.053564,0.074739,0.410386,-0.495227,0.532813,-0.124241,-0.827482,-0.082459,0.133286,0.993807,-0.269239,0.130851,-0.845005,0.280946,-0.075516,0.676176,-0.019329,-0.305775,0.078625,-0.645861,0.403231,-3.911678,7.552523,0.388737,4.409418,-7.888382,-0.221957,-0.403058,0.443845
0.252000,-0.133537,0.078269,0.290456,-0.090431,-0.015934,-0.005478,-0.995760,0.140362,0.062307,0.078625,0.314869,-0.488441,0.497021,-0.124599,-0.827190,-0.083895,0.134701,0.984709,-0.249586,0.131488,-0.835360,0.261167,-0.076134,0.675381,-0.018443,-0.178945,0.145759,-0.717862,0.707605,-4.548858,9.826442,0.318553,4.822377,-9.889743,-0.309217,-0.397358,0.443393
0.254000,-0.133259,0.078396,0.290587,-0.089918,-0.016469,-0.005777,-0.995796,0.139019,0.063374,0.065898,0.354003,-0.502131,0.512294,-0.125076,-0.826982,-0.085299,0.135412,0.976016,-0.233001,0.131598,-0.826451,0.244907,-0.076720,0.674662,-0.017683,-0.238537,0.103936,-0.702271,0.355821,-4.346438,8.292305,0.054675,4.454515,-8.129990,-0.292971,-0.359612,0.379689
0.256000,-0.132977,0.078521,0.290722,-0.089430,-0.017013,-0.006167,-0.995829,0.140511,0.062665,0.067395,0.444760,-0.503706,0.485794,-0.125712,-0.826746,-0.086711,0.136111,0.966340,-0.212642,0.132040,-0.816996,0.225679,-0.077100,0.673917,-0.016838,-0.317652,0.118358,-0.705553,0.349367,-4.838205,10.179841,0.221048,4.727523,-9.613919,-0.189802,-0.372321,0.422572
0.258000,-0.132700,0.078645,0.290830,-0.088927,-0.017564,-0.006613,-0.995861,0.138972,0.061811,0.054007,0.501846,-0.505254,0.500081,-0.126506,-0.826610,-0.088012,0.136052,0.957289,-0.195897,0.132158,-0.808155,0.209164,-0.077401,0.673202,-0.016076,-0.396968,0.067591,-0.650698,-0.029566,-4.525228,8.372309,0.059050,4.420681,-8.257624,-0.150727,-0.357462,0.381296
0.260000,-0.132416,0.078779,0.290937,-0.088447,-0.018097,-0.007022,-0.995892,0.141636,0.066972,0.053387,0.463282,-0.490649,0.476834,-0.127185,-0.826419,-0.089316,0.136282,0.947581,-0.176549,0.132260,-0.798778,0.189544,-0.077773,0.672456,-0.015280,-0.339553,0.095788,-0.652257,0.114802,-4.853971,9.673891,0.051241,4.688560,-9.809665,-0.185910,-0.373191,0.397580
0.262000,-0.132135,0.078922,0.291018,-0.087957,-0.018625,-0.007401,-0.995923,0.140769,0.071619,0.040506,0.432310,-0.488524,0.487428,-0.127816,-0.826300,-0.090538,0.136222,0.938398,-0.159790,0.131851,-0.790000,0.172342,-0.078255,0.671759,-0.014607,-0.315836,0.059651,-0.610963,-0.030046,-4.591625,8.379387,-0.204510,4.388746,-8.601287,-0.240999,-0.348606,0.336742
0.264000,-0.131852,0.079076,0.291092,-0.087479,-0.019152,-0.007764,-0.995952,0.141478,0.076949,0.036921,0.416645,-0.488249,0.475251,-0.128385,-0.826178,-0.091748,0.136364,0.928774,-0.140909,0.131319,-0.781188,0.154079,-0.078785,0.671080,-0.013953,-0.284232,0.060806,-0.604839,0.071386,-4.811916,9.440794,-0.266178,4.406207,-9.131669,-0.265226,-0.339493,0.326893
0.266000,-0.131573,0.079234,0.291141,-0.086993,-0.019684,-0.008155,-0.995981,0.139518,0.078780,0.024696,0.444682,-0.491153,0.483495,-0.129024,-0.826156,-0.092841,0.136151,0.919657,-0.124097,0.130561,-0.772978,0.137955,-0.079297,0.670450,-0.013394,-0.319446,0.011174,-0.546446,-0.106511,-4.558440,8.405649,-0.378919,4.104760,-8.061652,-0.255998,-0.314635,0.279377
0.268000,-0.131295,0.079395,0.291179,-0.086512,-0.020214,-0.008570,-0.996009,0.139002,0.080839,0.019022,0.469240,-0.487324,0.477626,-0.129701,-0.826170,-0.093860,0.135871,0.910513,-0.106839,0.129833,-0.764862,0.121055,-0.079774,0.669821,-0.012840,-0.338852,-0.007353,-0.509568,-0.140201,-4.572370,8.629206,-0.363999,4.058039,-8.450348,-0.238272,-0.314736,0.277070
0.270000,-0.131020,0.079560,0.291197,-0.086030,-0.020742,-0.009006,-0.996036,0.137544,0.082462,0.008987,0.489447,-0.484147,0.478125,-0.130423,-0.826260,-0.094763,0.135382,0.901809,-0.091058,0.129075,-0.757090,0.104896,-0.080232,0.669220,-0.012350,-0.361037,-0.044697,-0.451233,-0.244325,-4.351709,7.890449,-0.379295,3.885987,-8.079445,-0.229104,-0.300361,0.245026
0.272000,-0.130748,0.079730,0.291200,-0.085543,-0.021280,-0.009470,-0.996062,0.135572,0.084896,0.001411,0.518307,-0.490353,0.482256,-0.131202,-0.826414,-0.095603,0.134768,0.893324,-0.075592,0.128240,-0.749829,0.089614,-0.080666,0.668654,-0.011905,-0.389233,-0.077113,-0.420299,-0.307107,-4.242724,7.733159,-0.417362,3.630675,-7.640892,-0.217133,-0.283263,0.222691
0.274000,-0.130480,0.079908,0.291187,-0.085060,-0.021818,-0.009922,-0.996088,0.134499,0.088990,-0.006423,0.505791,-0.492135,0.479357,-0.131942,-0.826612,-0.096384,0.134212,0.885100,-0.060434,0.127349,-0.742905,0.074914,-0.081152,0.668134,-0.011534,-0.369918,-0.098860,-0.390210,-0.278180,-4.111924,7.578695,-0.445616,3.462145,-7.349948,-0.242791,-0.259920,0.185351
0.276000,-0.130216,0.080095,0.291155,-0.084562,-0.022360,-0.010353,-0.996113,0.131887,0.093411,-0.016008,0.486670,-0.498098,0.493702,-0.132653,-0.826875,-0.097126,0.133522,0.877503,-0.047224,0.126162,-0.736810,0.062323,-0.081729,0.667664,-0.011253,-0.355494,-0.131626,-0.371088,-0.344815,-3.798633,6.605422,-0.593363,3.047408,-6.295269,-0.288482,-0.235105,0.140477
0.278000,-0.129952,0.080290,0.291114,-0.084076,-0.022895,-0.010756,-0.996138,0.131815,0.097634,-0.020627,0.456900,-0.493568,0.483019,-0.133281,-0.827140,-0.097832,0.133033,0.870081,-0.033696,0.125069,-0.730753,0.048850,-0.082375,0.667212,-0.011008,-0.314009,-0.132669,-0.353319,-0.244465,-3.710550,6.763712,-0.546518,3.028377,-6.736517,-0.323281,-0.225762,0.122512
0.280000,-0.129701,0.080486,0.291048,-0.083562,-0.023456,-0.011219,-0.996163,0.125634,0.097871,-0.033111,0.520292,-0.513871,0.510064,-0.134075,-0.827546,-0.098466,0.132066,0.863666,-0.023506,0.124074,-0.726861,0.039737,-0.082957,0.666853,-0.010882,-0.396963,-0.202881,-0.316616,-0.483639,-3.207744,5.094912,-0.497586,1.945794,-4.556807,-0.290853,-0.179547,0.062811
0.282000,-0.129447,0.080693,0.290979,-0.083059,-0.024003,-0.011642,-0.996187,0.126880,0.103462,-0.034270,0.477935,-0.503053,0.498886,-0.134751,-0.827920,-0.099089,0.131514,0.857183,-0.011691,0.123127,-0.724350,0.033462,-0.083635,0.666468,-0.010736,-0.338375,-0.187057,-0.311824,-0.275713,-3.241484,5.907683,-0.473291,1.255665,-3.137186,-0.338941,-0.192635,0.073244
0.284000,-0.129188,0.080913,0.290899,-0.082562,-0.024480,-0.011891,-0.996214,0.129449,0.110051,-0.039977,0.299984,-0.448133,0.496490,-0.135079,-0.828225,-0.099647,0.131063,0.851988,-0.004440,0.121931,-0.722809,0.029322,-0.084673,0.665966,-0.010579,-0.163866,-0.152410,-0.278699,-0.225627,-2.597665,3.625529,-0.597931,0.770516,-2.070407,-0.518758,-0.250695,0.078681
0.286000,-0.128907,0.081148,0.290843,-0.082118,-0.024845,-0.011953,-0.996241,0.140757,0.117410,-0.028258,0.102507,-0.351863,0.447864,-0.134948,-0.828270,-0.100173,0.131529,0.846519,0.005351,0.120496,-0.721517,0.026307,-0.086027,0.665133,-0.010114,0.065594,-0.022418,-0.263276,0.232667,-2.734229,4.895654,-0.717334,0.645854,-1.507271,-0.677031,-0.416654,0.232238
0.288000,-0.128611,0.081377,0.290792,-0.081701,-0.025076,-0.011886,-0.996270,0.147869,0.114794,-0.025124,-0.037681,-0.230175,0.422344,-0.134568,-0.828152,-0.100507,0.131770,0.842655,0.009274,0.118931,-0.720377,0.024187,-0.087563,0.663915,-0.009347,0.189919,0.059086,-0.166684,0.120870,-1.932051,1.961159,-0.782500,0.570151,-1.059980,-0.768436,-0.608915,0.383558
0.290000,-0.128293,0.081589,0.290786,-0.081348,-0.025191,-0.011864,-0.996297,0.158988,0.105668,-0.003312,-0.004352,-0.111297,0.355423,-0.134227,-0.827775,-0.100693,0.132245,0.838347,0.016914,0.117638,-0.719030,0.022432,-0.088852,0.662198,-0.007990,0.170394,0.188146,-0.093450,0.237391,-2.154300,3.820180,-0.646980,0.673254,-0.877403,-0.644468,-0.858514,0.678574
0.292000,-0.127974,0.081758,0.290792,-0.081021,-0.025218,-0.011994,-0.996321,0.159643,0.084895,0.003283,0.140151,-0.012654,0.325206,-0.134262,-0.827343,-0.100610,0.131505,0.835828,0.018570,0.116835,-0.717748,0.021259,-0.089679,0.660138,-0.006256,-0.017269,0.216258,0.041896,-0.370137,-1.259121,0.828102,-0.401393,0.641155,-0.586854,-0.413284,-1.030240,0.867061
0.294000,-0.127645,0.081904,0.290842,-0.080763,-0.025182,-0.012200,-0.996340,0.164397,0.072624,0.024981,0.207727,0.056763,0.252770,-0.134405,-0.826688,-0.100509,0.130803,0.832915,0.024438,0.116375,-0.716275,0.020224,-0.090168,0.657834,-0.004158,-0.071469,0.327381,0.050389,-0.351010,-1.456689,2.934105,-0.230058,0.736579,-0.517413,-0.244593,-1.151634,1.048893
0.296000,-0.127329,0.082031,0.290889,-0.080538,-0.025105,-0.012317,-0.996359,0.157977,0.063770,0.023460,0.115921,0.088980,0.222315,-0.134413,-0.825975,-0.100413,0.129336,0.832233,0.022932,0.115886,-0.714995,0.019647,-0.090708,0.655655,-0.002245,-0.004258,0.356744,0.048190,-0.733426,-0.341005,-0.753186,-0.244213,0.639914,-0.288409,-0.269882,-1.089715,0.956592
0.298000,-0.127018,0.082160,0.290964,-0.080385,-0.025031,-0.012305,-0.996374,0.155383,0.064341,0.037452,-0.014146,0.075473,0.152736,-0.134088,-0.825060,-0.100591,0.128503,0.831110,0.026237,0.115300,-0.713757,0.019224,-0.091365,0.653736,-0.000536,0.162835,0.457431,-0.089165,-0.416570,-0.561201,1.652205,-0.293192,0.618968,-0.211638,-0.328503,-0.959450,0.854315
0.300000,-0.126733,0.082287,0.291022,-0.080252,-0.024981,-0.012125,-0.996388,0.142576,0.063329,0.028967,-0.179851,0.036879,0.137014,-0.133459,-0.824158,-0.100953,0.127256,0.831990,0.022961,0.114468,-0.713002,0.019416,-0.092289,0.652301,0.000605,0.314121,0.450656,-0.180982,-0.623516,0.439781,-1.637650,-0.416038,0.377764,0.096107,-0.462038,-0.717610,0.570594
0.302000,-0.126466,0.082408,0.291096,-0.080163,-0.025000,-0.011954,-0.996396,0.133708,0.060873,0.036735,-0.167256,-0.031712,0.094126,-0.132809,-0.823218,-0.101582,0.126397,0.832158,0.024929,0.113769,-0.712621,0.020056,-0.093103,0.651274,0.001436,0.325163,0.470165,-0.314688,-0.429567,0.083960,0.983888,-0.349400,0.190297,0.320044,-0.407038,-0.513545,0.415349
0.304000,-0.126233,0.082505,0.291143,-0.080055,-0.025101,-0.011917,-0.996403,0.116532,0.048580,0.023698,-0.026248,-0.101745,0.110443,-0.132526,-0.822506,-0.102215,0.124482,0.833919,0.020788,0.113516,-0.713180,0.021794,-0.093617,0.650627,0.001891,0.141450,0.356284,-0.316597,-0.957219,0.880691,-2.070510,-0.126690,-0.279383,0.868778,-0.257041,-0.323370,0.227746
0.306000,-0.126016,0.082595,0.291196,-0.079958,-0.025270,-0.011975,-0.996406,0.108355,0.044770,0.026603,0.073775,-0.162431,0.097607,-0.132429,-0.821857,-0.102971,0.122820,0.834851,0.020788,0.113474,-0.714120,0.023987,-0.093911,0.650204,0.002218,0.048362,0.324335,-0.377998,-0.831133,0.465630,0.000153,-0.020577,-0.470282,1.096783,-0.146815,-0.211351,0.163653
0.308000,-0.125821,0.082683,0.291225,-0.079825,-0.025469,-0.012027,-0.996411,0.097520,0.043873,0.014539,0.071113,-0.192607,0.133712,-0.132393,-0.821377,-0.103711,0.120854,0.836752,0.015796,0.113178,-0.716209,0.027523,-0.094269,0.649944,0.002342,0.018461,0.240096,-0.369841,-0.982937,0.950590,-2.496087,-0.148429,-1.044363,1.768141,-0.178924,-0.130067,0.061929
0.310000,-0.125628,0.082781,0.291259,-0.079699,-0.025681,-0.012035,-0.996415,0.096527,0.049291,0.016978,0.028224,-0.208999,0.127913,-0.132234,-0.820892,-0.104518,0.119721,0.837585,0.014719,0.112788,-0.718258,0.031014,-0.094738,0.649716,0.002467,0.079116,0.242263,-0.403401,-0.566716,0.416450,-0.538747,-0.194724,-1.024522,1.745520,-0.234673,-0.114130,0.062136
0.312000,-0.125436,0.082889,0.291282,-0.079554,-0.025868,-0.011957,-0.996423,0.095735,0.053964,0.011526,-0.059143,-0.189932,0.149711,-0.131924,-0.820449,-0.105263,0.118884,0.838601,0.011130,0.112122,-0.720436,0.034672,-0.095438,0.649404,0.002622,0.154918,0.221324,-0.372820,-0.418452,0.507982,-1.794270,-0.332875,-1.088937,1.829024,-0.349795,-0.155786,0.077554
0.314000,-0.125238,0.083000,0.291314,-0.079407,-0.026023,-0.011883,-0.996432,0.099120,0.055618,0.015779,-0.057850,-0.158636,0.150484,-0.131609,-0.819988,-0.105931,0.118580,0.838756,0.009841,0.111450,-0.722332,0.038029,-0.096149,0.648881,0.003019,0.157765,0.230917,-0.333992,-0.152025,0.077532,-0.644671,-0.336197,-0.947817,1.678298,-0.355701,-0.261752,0.198689
0.316000,-0.125032,0.083098,0.291382,-0.079223,-0.026187,-0.011988,-0.996441,0.103204,0.048618,0.034170,0.122488,-0.153132,0.183629,-0.131694,-0.819500,-0.106655,0.117481,0.836938,0.014933,0.111059,-0.724050,0.041116,-0.096535,0.648041,0.003865,-0.042461,0.243770,-0.362006,-0.549308,-0.908667,2.545900,-0.195369,-0.859081,1.543675,-0.193051,-0.419822,0.422874
0.318000,-0.124811,0.083196,0.291469,-0.079007,-0.026272,-0.011980,-0.996456,0.110428,0.049084,0.043365,0.004516,-0.081804,0.218101,-0.131605,-0.818898,-0.107378,0.115599,0.834907,0.018001,0.110356,-0.725276,0.043569,-0.097182,0.646831,0.005025,0.044392,0.301053,-0.361455,-0.941046,-1.015495,1.534279,-0.351665,-0.612875,1.226376,-0.323258,-0.605343,0.580250
0.320000,-0.124575,0.083306,0.291561,-0.078767,-0.026236,-0.011681,-0.996479,0.117954,0.055229,0.046330,-0.294885,0.015941,0.247951,-0.130979,-0.818140,-0.108089,0.113099,0.833598,0.015123,0.108986,-0.725884,0.045233,-0.098443,0.645294,0.006350,0.312882,0.378815,-0.355154,-1.250070,-0.654864,-1.439229,-0.684874,-0.304248,0.831881,-0.630604,-0.768514,0.662274
0.322000,-0.124333,0.083425,0.291664,-0.078518,-0.026132,-0.011202,-0.996507,0.121147,0.059252,0.051421,-0.479285,0.069206,0.261979,-0.130015,-0.817276,-0.108840,0.110213,0.832250,0.011238,0.107216,-0.726084,0.046333,-0.100069,0.643596,0.007758,0.482260,0.432343,-0.375449,-1.442975,-0.673907,-1.942478,-0.885283,-0.099922,0.550284,-0.812942,-0.848770,0.704218
0.324000,-0.124095,0.083543,0.291780,-0.078267,-0.026028,-0.010716,-0.996535,0.118645,0.059042,0.057995,-0.486551,0.068915,0.263206,-0.129081,-0.816442,-0.109617,0.107116,0.829979,0.011992,0.105431,-0.726166,0.047201,-0.101690,0.641923,0.009176,0.466967,0.416763,-0.388843,-1.548198,-1.135475,0.377036,-0.892389,-0.041083,0.433769,-0.810652,-0.836705,0.708624
0.326000,-0.123870,0.083656,0.291897,-0.078018,-0.025925,-0.010240,-0.996562,0.112537,0.056617,0.058212,-0.475931,0.068276,0.262098,-0.128282,-0.815765,-0.110289,0.103711,0.827329,0.015447,0.103689,-0.726215,0.047951,-0.103207,0.640482,0.010320,0.399229,0.338629,-0.336081,-1.702785,-1.324730,1.727820,-0.870836,-0.024206,0.374939,-0.758714,-0.720522,0.572076
0.328000,-0.123662,0.083761,0.291994,-0.077762,-0.025797,-0.009746,-0.996590,0.104304,0.052400,0.048840,-0.495761,0.093343,0.268196,-0.127661,-0.815379,-0.110648,0.099751,0.825416,0.016469,0.101937,-0.726229,0.048621,-0.104650,0.639324,0.011037,0.310497,0.193054,-0.179247,-1.979731,-0.956662,0.510830,-0.876021,-0.007251,0.335079,-0.721342,-0.578727,0.358417
0.330000,-0.123469,0.083866,0.292067,-0.077503,-0.025632,-0.009151,-0.996621,0.096272,0.052312,0.036521,-0.599451,0.121011,0.274310,-0.127030,-0.815244,-0.110740,0.095548,0.824427,0.014195,0.099997,-0.726203,0.049197,-0.106216,0.638441,0.011313,0.315581,0.067616,-0.045997,-2.101549,-0.494434,-1.137209,-0.969988,0.013208,0.287814,-0.782691,-0.441657,0.138199
0.332000,-0.123291,0.083972,0.292123,-0.077239,-0.025458,-0.008505,-0.996651,0.088864,0.053143,0.027747,-0.650741,0.126490,0.281253,-0.126449,-0.815310,-0.110678,0.091486,0.823572,0.012437,0.097960,-0.726227,0.049777,-0.107917,0.637583,0.011558,0.290489,-0.033212,0.031132,-2.031382,-0.427684,-0.878729,-1.018577,-0.012409,0.290130,-0.850662,-0.428698,0.122517
0.334000,-0.123127,0.084080,0.292167,-0.076970,-0.025293,-0.007843,-0.996682,0.081914,0.054137,0.022176,-0.665998,0.116464,0.285245,-0.125941,-0.815494,-0.110588,0.087837,0.822290,0.013753,0.095896,-0.726351,0.050410,-0.109680,0.636758,0.011799,0.254171,-0.092171,0.044945,-1.824213,-0.641138,0.657914,-1.031863,-0.061587,0.316387,-0.881556,-0.412938,0.120450
0.336000,-0.122975,0.084189,0.292198,-0.076692,-0.025121,-0.007149,-0.996713,0.076151,0.054204,0.015445,-0.698100,0.120935,0.296288,-0.125472,-0.815711,-0.110526,0.084524,0.820945,0.015922,0.093767,-0.726527,0.051055,-0.111536,0.635899,0.012070,0.234684,-0.108249,0.031027,-1.656348,-0.672486,1.084609,-1.064434,-0.088136,0.322693,-0.927877,-0.429226,0.135452
0.338000,-0.122833,0.084293,0.292211,-0.076398,-0.024924,-0.006415,-0.996745,0.071071,0.052345,0.006311,-0.739925,0.142756,0.312558,-0.125034,-0.815924,-0.110469,0.081350,0.820038,0.016033,0.091558,-0.726704,0.051673,-0.113491,0.634970,0.012371,0.219006,-0.106563,0.028116,-1.587329,-0.453170,0.055355,-1.104487,-0.088567,0.308939,-0.977763,-0.464532,0.150769
0.340000,-0.122702,0.084374,0.292204,-0.076079,-0.024707,-0.005801,-0.996779,0.065462,0.040353,-0.003286,-0.620347,0.172651,0.333987,-0.125932,-0.815020,-0.115946,0.077977,0.819434,0.014463,0.089617,-0.726917,0.052356,-0.115193,0.633886,0.012823,-0.449263,0.451932,-2.738335,-1.686239,-0.302310,-0.785193,-0.970532,-0.106343,0.341538,-0.851036,-0.541761,0.225922
0.342000,-0.122580,0.084441,0.292169,-0.075757,-0.024448,-0.005371,-0.996812,0.061267,0.033362,-0.017779,-0.440671,0.227661,0.332435,-0.127354,-0.814632,-0.119023,0.074707,0.818593,0.013750,0.088054,-0.727101,0.053129,-0.116527,0.632607,0.013477,-0.710882,0.193816,-1.538518,-1.635282,-0.420220,-0.356142,-0.781492,-0.092271,0.386668,-0.666990,-0.639781,0.327125
0.344000,-0.122463,0.084510,0.292101,-0.075446,-0.024136,-0.005033,-0.996845,0.058372,0.034860,-0.033718,-0.353722,0.288470,0.319035,-0.128688,-0.815284,-0.117120,0.071965,0.817303,0.015013,0.086663,-0.727200,0.053930,-0.117699,0.631174,0.014263,-0.666920,-0.325656,0.951687,-1.370849,-0.645206,0.631620,-0.695618,-0.049198,0.400123,-0.585755,-0.716222,0.393015
0.346000,-0.122352,0.084603,0.292010,-0.075149,-0.023779,-0.004500,-0.996879,0.055228,0.046356,-0.045504,-0.550690,0.317467,0.310402,-0.129509,-0.816012,-0.114956,0.070106,0.816045,0.016251,0.084861,-0.727198,0.054595,-0.119295,0.629799,0.014894,-0.410411,-0.364038,1.082146,-0.929567,-0.629019,0.618782,-0.900997,0.000935,0.332638,-0.797893,-0.687700,0.315244
0.348000,-0.122252,0.084715,0.291905,-0.074853,-0.023403,-0.003717,-0.996913,0.050357,0.055862,-0.052815,-0.802506,0.317986,0.314029,-0.130087,-0.815832,-0.117344,0.068864,0.815246,0.015695,0.082547,-0.727168,0.055123,-0.121419,0.628573,0.015274,-0.289472,0.089805,-1.194026,-0.621012,-0.399540,-0.277954,-1.156867,0.014716,0.264104,-1.062035,-0.612936,0.190011
0.350000,-0.122165,0.084822,0.291784,-0.074556,-0.023032,-0.002972,-0.996946,0.043192,0.053712,-0.060091,-0.762905,0.316383,0.314705,-0.130463,-0.815850,-0.118946,0.067522,0.814668,0.014553,0.080333,-0.727241,0.055746,-0.123457,0.627414,0.015592,-0.187930,-0.008815,-0.801176,-0.671090,-0.288742,-0.571154,-1.106960,-0.036488,0.311247,-1.019227,-0.579501,0.159012
0.352000,-0.122097,0.084901,0.291655,-0.074248,-0.022693,-0.002534,-0.996978,0.034224,0.039425,-0.064807,-0.455220,0.307281,0.318645,-0.131282,-0.816187,-0.119703,0.065513,0.813865,0.014942,0.078778,-0.727546,0.056666,-0.124848,0.626229,0.016051,-0.409242,-0.168488,-0.378614,-1.004559,-0.401806,0.194372,-0.777610,-0.152476,0.459953,-0.695687,-0.592763,0.229280
0.354000,-0.122044,0.084958,0.291516,-0.073933,-0.022373,-0.002319,-0.997010,0.026587,0.028689,-0.069478,-0.231634,0.304334,0.320348,-0.132353,-0.816727,-0.119827,0.062981,0.812952,0.016180,0.077705,-0.728001,0.057780,-0.125766,0.625029,0.016603,-0.535649,-0.270228,-0.061944,-1.265611,-0.456325,0.619373,-0.536818,-0.227163,0.557026,-0.458949,-0.599680,0.276067
0.356000,-0.122000,0.085014,0.291368,-0.073617,-0.022043,-0.002110,-0.997041,0.022065,0.027812,-0.074026,-0.225448,0.314636,0.320968,-0.133219,-0.817305,-0.119584,0.060393,0.812183,0.016843,0.076650,-0.728446,0.058869,-0.126671,0.623834,0.017150,-0.433006,-0.288632,0.121443,-1.294357,-0.384312,0.331439,-0.527124,-0.222860,0.544470,-0.452257,-0.597432,0.273469
0.358000,-0.121960,0.085085,0.291211,-0.073308,-0.021686,-0.001723,-0.997072,0.019712,0.035516,-0.078189,-0.405224,0.329165,0.318442,-0.133531,-0.817812,-0.119186,0.058198,0.811664,0.016305,0.075227,-0.728780,0.059769,-0.127951,0.622697,0.017572,-0.156101,-0.253533,0.198947,-1.097067,-0.259637,-0.268852,-0.711768,-0.166740,0.450304,-0.640163,-0.568772,0.210989
0.360000,-0.121924,0.085172,0.291054,-0.073004,-0.021311,-0.001151,-0.997103,0.017978,0.043658,-0.078766,-0.591151,0.332743,0.317611,-0.133318,-0.818197,-0.118799,0.056519,0.811114,0.015853,0.073418,-0.729015,0.060472,-0.129624,0.621624,0.017880,0.106793,-0.192695,0.193741,-0.839655,-0.275039,-0.226109,-0.904288,-0.117470,0.351559,-0.836201,-0.536645,0.154323
0.362000,-0.121895,0.085258,0.290900,-0.072695,-0.020945,-0.000564,-0.997134,0.014538,0.042729,-0.076835,-0.605902,0.323743,0.322381,-0.132987,-0.818515,-0.118425,0.054937,0.810334,0.016405,0.071586,-0.729258,0.061120,-0.131323,0.620580,0.018180,0.165487,-0.158821,0.187117,-0.791115,-0.390173,0.275960,-0.915881,-0.121771,0.323928,-0.849876,-0.521814,0.149891
0.364000,-0.121875,0.085324,0.290753,-0.072368,-0.020599,-0.000115,-0.997165,0.009848,0.032849,-0.073611,-0.465461,0.312831,0.336766,-0.132917,-0.818822,-0.118026,0.052969,0.809370,0.017603,0.070054,-0.729586,0.061828,-0.132723,0.619492,0.018599,0.035013,-0.153920,0.199343,-0.984161,-0.481747,0.598773,-0.766029,-0.164090,0.353760,-0.699990,-0.543938,0.209530
0.366000,-0.121865,0.085369,0.290610,-0.072022,-0.020267,0.000212,-0.997197,0.005097,0.022478,-0.071674,-0.343785,0.308186,0.354297,-0.133099,-0.819131,-0.117601,0.050527,0.808511,0.017982,0.068785,-0.729982,0.062577,-0.133858,0.618356,0.019120,-0.091050,-0.154099,0.212329,-1.220695,-0.429438,0.189502,-0.634595,-0.197907,0.374671,-0.567570,-0.568286,0.260198
0.368000,-0.121848,0.085428,0.290488,-0.071641,-0.019903,0.000754,-0.997232,0.008662,0.029794,-0.060592,-0.558031,0.324512,0.393204,-0.132902,-0.819218,-0.117479,0.048710,0.806934,0.022831,0.067015,-0.730154,0.062909,-0.135508,0.617013,0.019792,0.098421,-0.043570,0.061348,-0.908468,-0.788511,2.424470,-0.884885,-0.085704,0.166035,-0.824776,-0.671389,0.336391
0.370000,-0.121825,0.085497,0.290373,-0.071217,-0.019475,0.001540,-0.997270,0.011352,0.034396,-0.057501,-0.806102,0.371160,0.441910,-0.132312,-0.819143,-0.117510,0.047046,0.805830,0.025970,0.064688,-0.730057,0.062813,-0.137720,0.615439,0.020565,0.294790,0.037513,-0.015595,-0.832272,-0.552256,1.569783,-1.163631,0.048413,-0.047935,-1.105811,-0.786720,0.386130
0.372000,-0.121812,0.085551,0.290235,-0.070749,-0.018992,0.002346,-0.997311,0.006545,0.027096,-0.069327,-0.829227,0.424201,0.486341,-0.132076,-0.819528,-0.116993,0.044832,0.805698,0.024882,0.062309,-0.729889,0.062630,-0.139992,0.613746,0.021315,0.118342,-0.192606,0.258147,-1.106867,-0.065836,-0.544222,-1.189675,0.083787,-0.091772,-1.136157,-0.846865,0.375150
0.374000,-0.121814,0.085577,0.290080,-0.070237,-0.018507,0.002997,-0.997354,-0.000949,0.012824,-0.077356,-0.674072,0.437451,0.526993,-0.132542,-0.820387,-0.116022,0.041969,0.805765,0.023378,0.060255,-0.729854,0.062595,-0.141946,0.612003,0.022075,-0.233250,-0.429396,0.485774,-1.431492,0.033480,-0.751852,-1.027058,0.017544,-0.017182,-0.977253,-0.871206,0.380047
0.376000,-0.121851,0.085564,0.289873,-0.069749,-0.018042,0.003282,-0.997396,-0.018495,-0.006194,-0.103336,-0.307917,0.443233,0.496764,-0.134292,-0.822825,-0.110619,0.038625,0.805363,0.025489,0.059063,-0.730122,0.063059,-0.142318,0.612062,0.017457,-0.875070,-1.219015,2.701203,-1.672013,-0.200926,1.055514,-0.595847,-0.133871,0.232023,-0.185865,0.029552,-2.309211
0.378000,-0.121904,0.085561,0.289637,-0.069246,-0.017560,0.003713,-0.997438,-0.026292,-0.001760,-0.118388,-0.453793,0.449467,0.513376,-0.136627,-0.825123,-0.108320,0.035891,0.804723,0.029090,0.057573,-0.730469,0.063572,-0.143129,0.612461,0.013024,-1.167247,-1.149030,1.149783,-1.366873,-0.319936,1.800295,-0.745081,-0.173682,0.256413,-0.405325,0.199320,-2.216117
0.380000,-0.121980,0.085604,0.289316,-0.068799,-0.016987,0.004507,-0.997476,-0.038330,0.021583,-0.160371,-0.823908,0.515865,0.464516,-0.137516,-0.830540,-0.094989,0.034523,0.805092,0.029801,0.055375,-0.730714,0.064062,-0.144394,0.614821,0.003579,-0.444639,-2.708565,6.665325,-0.684371,0.184582,0.355547,-1.099002,-0.122567,0.245056,-0.632580,1.180082,-4.722662
0.382000,-0.122065,0.085673,0.288975,-0.068310,-0.016351,0.005617,-0.997514,-0.042228,0.034322,-0.170688,-1.142354,0.556159,0.511820,-0.138758,-0.835274,-0.087880,0.034144,0.806078,0.028430,0.052463,-0.730859,0.064341,-0.147024,0.616591,0.000592,-0.620684,-2.367002,3.554471,-0.189340,0.492744,-0.685186,-1.456051,-0.072511,0.139542,-1.315237,0.884804,-1.493453
0.384000,-0.122183,0.085739,0.288569,-0.067873,-0.015712,0.006680,-0.997548,-0.059133,0.033193,-0.202888,-1.096741,0.563188,0.459825,-0.139793,-0.842489,-0.073404,0.034130,0.807679,0.025656,0.049765,-0.731199,0.064948,-0.148777,0.620851,-0.009630,-0.517585,-3.607467,7.238071,-0.007031,0.800278,-1.387323,-1.348768,-0.169812,0.303346,-0.876390,2.130339,-5.110777
0.386000,-0.122317,0.085764,0.288166,-0.067392,-0.015109,0.007440,-0.997584,-0.066917,0.012467,-0.201530,-0.790812,0.547117,0.498583,-0.142750,-0.848759,-0.066557,0.033704,0.809355,0.022319,0.047710,-0.731767,0.065802,-0.149957,0.625001,-0.016239,-1.478762,-3.135006,3.423717,-0.213099,0.838163,-1.668219,-1.027617,-0.283779,0.427142,-0.589638,2.074575,-3.304710
0.388000,-0.122481,0.085751,0.287719,-0.066974,-0.014559,0.007699,-0.997619,-0.082217,-0.006383,-0.223505,-0.288814,0.528030,0.427059,-0.145852,-0.858352,-0.047777,0.032636,0.811193,0.018631,0.046825,-0.732675,0.067261,-0.148981,0.631637,-0.030978,-1.551069,-4.796448,9.389734,-0.533898,0.919272,-1.844085,-0.442271,-0.453980,0.729099,0.487734,3.318095,-7.369685
0.390000,-0.122644,0.085735,0.287310,-0.066514,-0.014074,0.007907,-0.997655,-0.081534,-0.008180,-0.204481,-0.233396,0.467679,0.467376,-0.149587,-0.867036,-0.035655,0.031610,0.812903,0.014964,0.045993,-0.733729,0.068734,-0.148565,0.637449,-0.039551,-1.867275,-4.342249,6.061272,-0.512812,0.854773,-1.833542,-0.416086,-0.527152,0.736891,0.208033,2.906365,-4.286206
0.392000,-0.122816,0.085767,0.286898,-0.066130,-0.013667,0.008429,-0.997682,-0.085754,0.016258,-0.205762,-0.542707,0.367802,0.395567,-0.151049,-0.878059,-0.015086,0.031545,0.814832,0.011163,0.044587,-0.734925,0.070236,-0.148549,0.645342,-0.055229,-0.731084,-5.511511,10.284128,-0.032704,0.964647,-1.900461,-0.703280,-0.597969,0.750831,0.008201,3.946366,-7.838936
0.394000,-0.122972,0.085827,0.286553,-0.065711,-0.013348,0.009212,-0.997707,-0.077966,0.029988,-0.172370,-0.795620,0.264167,0.433345,-0.152229,-0.887551,-0.002826,0.032089,0.816557,0.007700,0.042577,-0.736159,0.071476,-0.150061,0.652221,-0.065212,-0.589781,-4.745564,6.130274,0.272150,0.862310,-1.731635,-1.004720,-0.617094,0.620042,-0.756119,3.439624,-4.991505
0.396000,-0.123126,0.085895,0.286221,-0.065365,-0.013109,0.009939,-0.997726,-0.077306,0.033891,-0.166020,-0.736925,0.186896,0.358745,-0.152100,-0.899119,0.018618,0.032770,0.818211,0.004551,0.040781,-0.737475,0.072802,-0.150870,0.660824,-0.082730,0.064159,-5.784034,10.721956,0.340496,0.827322,-1.574322,-0.898168,-0.657930,0.663146,-0.404614,4.301115,-8.759331
0.398000,-0.123261,0.085924,0.285956,-0.064978,-0.012936,0.010308,-0.997750,-0.067201,0.014596,-0.132836,-0.373609,0.145044,0.393890,-0.153373,-0.909377,0.034536,0.032736,0.819362,0.002081,0.039691,-0.738789,0.074081,-0.151374,0.668110,-0.095064,-0.636204,-5.129231,7.959012,-0.016808,0.575297,-1.235029,-0.545077,-0.657017,0.639231,-0.252005,3.643288,-6.166963
0.400000,-0.123389,0.085921,0.285708,-0.064651,-0.012828,0.010270,-0.997773,-0.064117,-0.001606,-0.124091,0.035223,0.107720,0.328197,-0.154555,-0.921305,0.059091,0.032052,0.820256,0.000127,0.039541,-0.740145,0.075540,-0.150228,0.676668,-0.113609,-0.591251,-5.964136,12.277703,-0.342054,0.447014,-0.977310,-0.075082,-0.677991,0.729448,0.572846,4.278799,-9.272371
0.402000,-0.123495,0.085909,0.285529,-0.064288,-0.012785,0.010185,-0.997797,-0.053218,-0.006249,-0.089292,0.087348,0.044674,0.362963,-0.156491,-0.931523,0.076469,0.031254,0.820786,-0.001261,0.039436,-0.741464,0.076800,-0.149669,0.684109,-0.127342,-0.967955,-5.108658,8.688832,-0.399133,0.264883,-0.693789,-0.052209,-0.659333,0.629934,0.279711,3.720495,-6.866317
0.404000,-0.123592,0.085934,0.285378,-0.063991,-0.012815,0.010405,-0.997814,-0.048138,0.012858,-0.075569,-0.213952,-0.046637,0.300483,-0.156564,-0.942695,0.099061,0.031229,0.821348,-0.002404,0.038761,-0.742752,0.077885,-0.149531,0.692998,-0.147062,-0.036446,-5.586340,11.296016,-0.012436,0.281001,-0.571742,-0.337754,-0.644298,0.542792,0.069204,4.444768,-9.860333
0.406000,-0.123666,0.085977,0.285289,-0.063671,-0.012892,0.010793,-0.997829,-0.037432,0.021292,-0.044266,-0.377891,-0.104929,0.324466,-0.156499,-0.952696,0.116913,0.031539,0.821691,-0.003170,0.037675,-0.743939,0.078662,-0.150538,0.701010,-0.162213,0.032355,-5.000114,8.925889,0.155099,0.171383,-0.382944,-0.542898,-0.593169,0.388513,-0.503637,4.005608,-7.575443
0.408000,-0.123733,0.086025,0.285223,-0.063407,-0.013011,0.011178,-0.997840,-0.033176,0.024125,-0.033276,-0.373232,-0.146061,0.267561,-0.155453,-0.963790,0.140909,0.031958,0.821974,-0.003674,0.036658,-0.745061,0.079361,-0.151077,0.710180,-0.181648,0.522995,-5.547222,11.998121,0.209414,0.141435,-0.251984,-0.508218,-0.561041,0.349643,-0.269452,4.585087,-9.717510
0.410000,-0.123785,0.086043,0.285206,-0.063118,-0.013157,0.011316,-0.997855,-0.026023,0.009062,-0.008240,-0.124216,-0.156975,0.289144,-0.155580,-0.973906,0.160951,0.031830,0.821944,-0.003746,0.036126,-0.746111,0.079958,-0.151336,0.718641,-0.197082,-0.063189,-5.057845,10.020990,-0.064147,-0.014937,-0.035820,-0.266213,-0.525273,0.298173,-0.129393,4.230700,-7.716973
0.412000,-0.123834,0.086039,0.285210,-0.062869,-0.013337,0.011255,-0.997869,-0.024518,-0.001965,0.001991,0.074929,-0.179009,0.246879,-0.155779,-0.984504,0.184002,0.031348,0.821804,-0.003521,0.036073,-0.747147,0.080580,-0.150470,0.728172,-0.215851,-0.099714,-5.299294,11.525667,-0.240864,-0.069588,0.112465,-0.026644,-0.517813,0.311217,0.432561,4.765564,-9.384557
0.414000,-0.123872,0.086029,0.285254,-0.062602,-0.013534,0.011197,-0.997884,-0.019223,-0.005259,0.021676,0.074593,-0.196002,0.264319,-0.156457,-0.994205,0.202964,0.030822,0.821540,-0.003111,0.035987,-0.748103,0.081028,-0.149821,0.737376,-0.231851,-0.338805,-4.850243,9.480838,-0.263266,-0.132384,0.205062,-0.042862,-0.478240,0.224030,0.324466,4.602081,-7.999960
0.416000,-0.123905,0.086044,0.285315,-0.062374,-0.013746,0.011418,-0.997893,-0.016179,0.007763,0.030648,-0.203763,-0.227671,0.228791,-0.155834,-1.004203,0.223943,0.030906,0.821399,-0.002762,0.035358,-0.748943,0.081243,-0.149402,0.747571,-0.250539,0.311611,-4.999217,10.489313,0.041941,-0.070434,0.174240,-0.314540,-0.420091,0.107409,0.209490,5.097081,-9.343929
0.418000,-0.123925,0.086069,0.285404,-0.062133,-0.013948,0.011760,-0.997901,-0.009980,0.012165,0.044653,-0.326157,-0.225364,0.243606,-0.154997,-1.013748,0.243226,0.031204,0.821231,-0.002444,0.034433,-0.749640,0.081224,-0.149472,0.757382,-0.266505,0.418307,-4.772231,9.641793,0.149075,-0.083718,0.159146,-0.462429,-0.348103,-0.009433,-0.034924,4.905655,-7.983038
0.420000,-0.123938,0.086091,0.285510,-0.061910,-0.014149,0.012132,-0.997908,-0.006653,0.011248,0.052899,-0.355507,-0.226011,0.225591,-0.153733,-1.023271,0.263688,0.031562,0.821067,-0.002117,0.033470,-0.750236,0.081083,-0.149114,0.767679,-0.283415,0.631893,-4.761825,10.230672,0.179222,-0.081949,0.163320,-0.481312,-0.298051,-0.070643,0.179122,5.148517,-8.454813
0.422000,-0.123942,0.086090,0.285636,-0.061666,-0.014340,0.012341,-0.997917,-0.002053,-0.000760,0.063024,-0.192424,-0.206917,0.244479,-0.153166,-1.032205,0.282395,0.031526,0.820776,-0.001704,0.032824,-0.750772,0.080910,-0.148234,0.777580,-0.298502,0.283554,-4.466674,9.353869,-0.017989,-0.145964,0.206503,-0.323280,-0.268031,-0.086543,0.440268,4.950595,-7.543854
0.424000,-0.123941,0.086072,0.285779,-0.061427,-0.014538,0.012479,-0.997928,0.000547,-0.008785,0.071680,-0.121890,-0.208808,0.239103,-0.152687,-1.040593,0.300418,0.031313,0.820428,-0.001198,0.032343,-0.751275,0.080704,-0.146586,0.787786,-0.314161,0.239489,-4.194031,9.011403,-0.106806,-0.173848,0.253486,-0.240325,-0.251351,-0.103126,0.823798,5.103135,-7.829257
0.426000,-0.123930,0.086051,0.285937,-0.061173,-0.014734,0.012645,-0.997938,0.005280,-0.010400,0.078927,-0.150241,-0.208132,0.253858,-0.152064,-1.048489,0.317674,0.031109,0.820051,-0.000700,0.031780,-0.751738,0.080439,-0.144843,0.797743,-0.329030,0.311265,-3.948113,8.627910,-0.101929,-0.188249,0.248587,-0.281665,-0.231962,-0.132104,0.871494,4.978358,-7.434395
0.428000,-0.123912,0.086045,0.286115,-0.060920,-0.014937,0.013037,-0.997946,0.009286,-0.002921,0.088841,-0.374565,-0.229648,0.256560,-0.150541,-1.055618,0.333685,0.031326,0.819724,-0.000241,0.030745,-0.752143,0.080005,-0.143281,0.807810,-0.343519,0.761625,-3.564614,8.005488,0.108453,-0.163477,0.229913,-0.517373,-0.202162,-0.217082,0.780791,5.033636,-7.244485
0.430000,-0.123884,0.086042,0.286304,-0.060652,-0.015138,0.013496,-0.997953,0.014048,-0.001762,0.094378,-0.442437,-0.232055,0.271560,-0.148481,-1.062358,0.349999,0.031637,0.819388,0.000188,0.029543,-0.752521,0.079519,-0.141718,0.817576,-0.357185,1.030336,-3.369719,8.156982,0.155938,-0.168296,0.214258,-0.600888,-0.189137,-0.242926,0.781883,4.882593,-6.833345
0.432000,-0.123850,0.086031,0.286514,-0.060371,-0.015350,0.013988,-0.997960,0.017134,-0.005333,0.105072,-0.473587,-0.245765,0.285377,-0.146218,-1.067973,0.363938,0.031948,0.818997,0.000712,0.028272,-0.752892,0.078966,-0.139816,0.827209,-0.369460,1.131314,-2.807512,6.969501,0.155301,-0.195625,0.262027,-0.635545,-0.185377,-0.276757,0.950876,4.816915,-6.137553
0.434000,-0.123809,0.086001,0.286730,-0.060075,-0.015570,0.014349,-0.997969,0.020085,-0.015333,0.108033,-0.342574,-0.244924,0.298874,-0.143948,-1.073155,0.378428,0.031940,0.818525,0.001323,0.027269,-0.753311,0.078507,-0.137171,0.836646,-0.381798,1.134760,-2.591391,7.245253,-0.004213,-0.235717,0.305625,-0.501759,-0.209357,-0.229428,1.322537,4.718361,-6.168705
0.436000,-0.123765,0.085953,0.286967,-0.059760,-0.015805,0.014664,-0.997980,0.022223,-0.023722,0.118470,-0.295147,-0.257742,0.316629,-0.141751,-1.077024,0.389918,0.031759,0.817961,0.002090,0.026365,-0.753750,0.078027,-0.133953,0.845892,-0.392361,1.098807,-1.934472,5.744961,-0.090334,-0.281821,0.383153,-0.452071,-0.219805,-0.239980,1.608773,4.623032,-5.281574
0.438000,-0.123715,0.085902,0.287205,-0.059436,-0.016050,0.014999,-0.997990,0.024808,-0.025595,0.119229,-0.314383,-0.269222,0.325476,-0.138852,-1.080627,0.402755,0.031580,0.817402,0.002855,0.025420,-0.754233,0.077592,-0.130383,0.855075,-0.403527,1.449437,-1.801347,6.418287,-0.089534,-0.279625,0.382895,-0.472452,-0.241663,-0.217366,1.785353,4.591586,-5.583059
0.440000,-0.123661,0.085855,0.287464,-0.059092,-0.016310,0.015498,-0.997999,0.027096,-0.023250,0.129427,-0.476445,-0.294115,0.347907,-0.135385,-1.082855,0.412054,0.031647,0.816851,0.003640,0.024128,-0.754711,0.077029,-0.126973,0.863998,-0.412340,1.733500,-1.114187,4.649665,0.033583,-0.275632,0.392261,-0.646098,-0.238857,-0.281520,1.704697,4.461493,-4.406312
0.442000,-0.123603,0.085806,0.287720,-0.058739,-0.016579,0.016027,-0.998007,0.029210,-0.024595,0.127745,-0.506371,-0.304616,0.356991,-0.131125,-1.084900,0.423016,0.031727,0.816336,0.004366,0.022777,-0.755236,0.076520,-0.123267,0.872856,-0.421876,2.129999,-1.022347,5.480821,0.040167,-0.257420,0.363132,-0.675434,-0.262544,-0.254890,1.853001,4.428931,-4.768297
0.444000,-0.123541,0.085744,0.287993,-0.058358,-0.016858,0.016560,-0.998016,0.030827,-0.031271,0.136518,-0.508914,-0.316473,0.385608,-0.126975,-1.085421,0.429722,0.031699,0.815775,0.005145,0.021415,-0.755776,0.075958,-0.119345,0.881302,-0.428544,2.074744,-0.260559,3.352914,-0.014291,-0.280514,0.389325,-0.681055,-0.269781,-0.280874,1.961304,4.223029,-3.333726
0.446000,-0.123476,0.085664,0.288256,-0.057967,-0.017144,0.016987,-0.998027,0.032324,-0.039993,0.131611,-0.402368,-0.316005,0.392992,-0.122462,-1.085826,0.438512,0.031397,0.815217,0.005886,0.020290,-0.756382,0.075532,-0.114686,0.889705,-0.436462,2.256928,-0.202473,4.394923,-0.150988,-0.279120,0.370588,-0.562085,-0.303125,-0.212864,2.329304,4.201561,-3.959057
0.448000,-0.123408,0.085568,0.288533,-0.057549,-0.017433,0.017381,-0.998039,0.034306,-0.047967,0.138475,-0.369973,-0.318683,0.420005,-0.118180,-1.084810,0.443498,0.030934,0.814592,0.006679,0.019230,-0.756979,0.075057,-0.109779,0.897639,-0.441407,2.140850,0.508043,2.493242,-0.231485,-0.312254,0.396622,-0.530349,-0.298589,-0.237647,2.453347,3.966693,-2.472756
0.450000,-0.123335,0.085469,0.288797,-0.057127,-0.017727,0.017801,-0.998051,0.036157,-0.049388,0.131939,-0.393807,-0.324401,0.423996,-0.113100,-1.083821,0.450904,0.030492,0.814023,0.007372,0.018135,-0.757616,0.074655,-0.104565,0.905592,-0.447923,2.540057,0.494641,3.702779,-0.220911,-0.284763,0.346282,-0.547290,-0.318490,-0.201060,2.607015,3.976365,-3.257641
0.452000,-0.123259,0.085372,0.289071,-0.056679,-0.018028,0.018356,-0.998061,0.038152,-0.048555,0.137311,-0.529375,-0.339573,0.451522,-0.107852,-1.081490,0.454039,0.030250,0.813457,0.008044,0.016751,-0.758235,0.074138,-0.099719,0.913112,-0.451767,2.624083,1.165224,1.567639,-0.121118,-0.282794,0.335844,-0.692096,-0.309415,-0.258387,2.422992,3.760155,-1.922034
0.454000,-0.123180,0.085270,0.289330,-0.056227,-0.018331,0.018914,-0.998071,0.039634,-0.050947,0.129186,-0.530609,-0.342800,0.456585,-0.101992,-1.079252,0.459356,0.029990,0.812936,0.008626,0.015381,-0.758901,0.073714,-0.094601,0.920626,-0.457113,2.929680,1.119013,2.658571,-0.129878,-0.260650,0.291364,-0.685107,-0.332896,-0.211739,2.559355,3.757261,-2.672942
0.456000,-0.123098,0.085152,0.289592,-0.055747,-0.018636,0.019418,-0.998082,0.040983,-0.059054,0.131091,-0.477251,-0.341305,0.483501,-0.096582,-1.075925,0.461170,0.029552,0.812349,0.009254,0.014118,-0.759575,0.073289,-0.089408,0.927655,-0.459734,2.705270,1.663870,0.907155,-0.219009,-0.293344,0.314046,-0.631159,-0.337024,-0.212678,2.596477,3.514411,-1.310657
0.458000,-0.123014,0.085020,0.289833,-0.055260,-0.018940,0.019824,-0.998095,0.041866,-0.066111,0.120700,-0.379437,-0.335505,0.487904,-0.090929,-1.072845,0.465472,0.028904,0.811770,0.009832,0.013079,-0.760311,0.073018,-0.083729,0.934681,-0.463813,2.826236,1.540037,2.150679,-0.324262,-0.289571,0.288632,-0.519885,-0.368060,-0.135453,2.839199,3.512855,-2.039556
0.460000,-0.122929,0.084874,0.290070,-0.054752,-0.019246,0.020187,-0.998110,0.042375,-0.072654,0.118388,-0.334547,-0.335214,0.509063,-0.085627,-1.069085,0.467468,0.028121,0.811153,0.010432,0.012133,-0.761079,0.072790,-0.078045,0.941404,-0.465963,2.651295,1.879680,0.998098,-0.391141,-0.308597,0.299982,-0.472815,-0.384105,-0.114263,2.842272,3.361740,-1.074947
0.462000,-0.122844,0.084729,0.290284,-0.054239,-0.019556,0.020588,-0.998124,0.042558,-0.072495,0.107183,-0.373994,-0.341719,0.514604,-0.079841,-1.065638,0.471219,0.027422,0.810603,0.010929,0.011119,-0.761915,0.072670,-0.072401,0.948233,-0.469579,2.892593,1.723515,1.875611,-0.349469,-0.274870,0.248475,-0.507195,-0.417917,-0.059927,2.821680,3.414349,-1.808244
0.464000,-0.122760,0.084586,0.290487,-0.053711,-0.019875,0.021077,-0.998136,0.042005,-0.071724,0.101058,-0.460135,-0.354753,0.530092,-0.074012,-1.061897,0.473258,0.026878,0.810104,0.011362,0.009932,-0.762804,0.072583,-0.067143,0.955070,-0.472600,2.914963,1.870718,1.019239,-0.272390,-0.249415,0.216568,-0.593523,-0.444649,-0.043210,2.629041,3.418410,-1.510405
0.466000,-0.122677,0.084437,0.290665,-0.053174,-0.020191,0.021552,-0.998148,0.041657,-0.074312,0.089393,-0.445852,-0.352722,0.539911,-0.068105,-1.058509,0.476437,0.026298,0.809652,0.011694,0.008783,-0.763757,0.072617,-0.061950,0.961947,-0.476334,2.953504,1.693709,1.589597,-0.289856,-0.226022,0.166199,-0.574114,-0.476113,0.017046,2.596667,3.438664,-1.866822
0.468000,-0.122597,0.084273,0.290820,-0.052629,-0.020507,0.021915,-0.998163,0.039942,-0.082126,0.077319,-0.334261,-0.345626,0.545306,-0.062529,-1.055496,0.480703,0.025486,0.809213,0.011982,0.007889,-0.764786,0.072817,-0.056511,0.969075,-0.480416,2.787897,1.506762,2.133044,-0.405994,-0.219419,0.144169,-0.447364,-0.514668,0.099589,2.719370,3.563770,-2.041001
0.470000,-0.122519,0.084098,0.290951,-0.052069,-0.020816,0.022211,-0.998179,0.038974,-0.087589,0.065684,-0.267286,-0.335720,0.558915,-0.057292,-1.052880,0.485460,0.024522,0.808799,0.012178,0.007138,-0.765872,0.073143,-0.051147,0.976220,-0.484484,2.618616,1.307707,2.378529,-0.482086,-0.207020,0.097727,-0.375108,-0.543022,0.163257,2.682045,3.572814,-2.033830
0.472000,-0.122438,0.083920,0.291082,-0.051492,-0.021105,0.022560,-0.998195,0.040789,-0.088812,0.065147,-0.320707,-0.319935,0.577796,-0.052449,-1.049795,0.487092,0.023635,0.808366,0.012309,0.006275,-0.766860,0.073345,-0.046292,0.982959,-0.485911,2.421037,1.542744,0.815752,-0.443141,-0.216559,0.065586,-0.431721,-0.493780,0.100826,2.427485,3.369113,-0.713469
0.474000,-0.122350,0.083747,0.291204,-0.050912,-0.021375,0.023007,-0.998209,0.043789,-0.086901,0.061002,-0.419658,-0.304558,0.582214,-0.047499,-1.046649,0.488160,0.022946,0.807962,0.012309,0.005222,-0.767730,0.073424,-0.041784,0.989536,-0.487333,2.475104,1.572684,0.534481,-0.344898,-0.202201,0.000148,-0.526629,-0.435114,0.039448,2.254192,3.288469,-0.711332
0.476000,-0.122248,0.083571,0.291340,-0.050319,-0.021599,0.023525,-0.998222,0.051018,-0.087870,0.068308,-0.493104,-0.264128,0.599146,-0.042997,-1.042431,0.485268,0.022375,0.807461,0.012258,0.004011,-0.768316,0.073176,-0.037807,0.995105,-0.485114,2.251034,2.108986,-1.446007,-0.285066,-0.250699,-0.025778,-0.605354,-0.293313,-0.123600,1.988192,2.784758,1.109790
0.478000,-0.122132,0.083389,0.291470,-0.049745,-0.021788,0.024029,-0.998235,0.057787,-0.091009,0.064949,-0.480563,-0.227094,0.579487,-0.038172,-1.038220,0.485084,0.021811,0.806918,0.012131,0.002874,-0.768688,0.072784,-0.033296,1.000553,-0.485069,2.412433,2.105810,-0.092042,-0.282181,-0.271328,-0.063495,-0.568734,-0.185842,-0.196051,2.255564,2.724005,0.022099
0.480000,-0.121998,0.083186,0.291622,-0.049153,-0.021923,0.024405,-0.998252,0.067435,-0.101621,0.075725,-0.355293,-0.167232,0.597217,-0.034280,-1.032680,0.481376,0.020959,0.806145,0.012092,0.001985,-0.768757,0.072118,-0.028768,1.004481,-0.480527,1.946098,2.769914,-1.854120,-0.425846,-0.386343,-0.019622,-0.444483,-0.034586,-0.333074,2.264073,1.964073,2.271363
0.482000,-0.121850,0.082980,0.291770,-0.048582,-0.022043,0.024793,-0.998268,0.073675,-0.102779,0.074195,-0.369164,-0.152307,0.576709,-0.029842,-1.027053,0.480029,0.020168,0.805335,0.012048,0.001107,-0.768697,0.071371,-0.023716,1.008284,-0.478559,2.219239,2.813470,-0.673368,-0.395648,-0.404937,-0.021841,-0.438958,0.030050,-0.373498,2.525964,1.901150,0.983962
0.484000,-0.121688,0.082770,0.291945,-0.047976,-0.022147,0.025202,-0.998285,0.081151,-0.105194,0.087593,-0.389435,-0.138259,0.612143,-0.026069,-1.019864,0.472445,0.019361,0.804353,0.012134,0.000135,-0.768508,0.070433,-0.019461,1.010309,-0.471097,1.886546,3.594548,-3.792118,-0.403645,-0.491379,0.042959,-0.485729,0.094570,-0.468984,2.127704,1.012653,3.730994
0.486000,-0.121520,0.082568,0.292112,-0.047389,-0.022273,0.025692,-0.998298,0.084116,-0.101018,0.083438,-0.469610,-0.163464,0.594281,-0.021308,-1.012848,0.467481,0.018750,0.803405,0.012246,-0.000980,-0.768385,0.069581,-0.014938,1.012412,-0.466853,2.380286,3.507938,-2.482171,-0.305302,-0.473734,0.055959,-0.557377,0.061484,-0.426058,2.261439,1.051443,2.121999
0.488000,-0.121341,0.082354,0.292298,-0.046758,-0.022397,0.026100,-0.998314,0.089178,-0.106612,0.092803,-0.386797,-0.158983,0.636556,-0.017344,-1.004583,0.457228,0.017909,0.802286,0.012527,-0.001994,-0.768277,0.068729,-0.011155,1.012599,-0.456641,1.981818,4.132780,-5.126422,-0.420576,-0.559411,0.140478,-0.506996,0.053873,-0.426151,1.891396,0.093807,5.105779
0.490000,-0.121162,0.082138,0.292463,-0.046144,-0.022554,0.026449,-0.998330,0.089394,-0.108161,0.082669,-0.327198,-0.188772,0.616719,-0.012620,-0.996861,0.451255,0.016984,0.801208,0.012865,-0.002860,-0.768365,0.068163,-0.006665,1.013059,-0.450313,2.362158,3.860657,-2.986351,-0.462485,-0.538927,0.169304,-0.432971,-0.044077,-0.282664,2.245229,0.229613,3.164033
0.492000,-0.120976,0.081906,0.292641,-0.045479,-0.022712,0.026670,-0.998351,0.093038,-0.116238,0.089095,-0.197373,-0.185700,0.666127,-0.009035,-0.987920,0.439468,0.015719,0.799975,0.013351,-0.003534,-0.768524,0.067673,-0.002948,1.011518,-0.437780,1.792426,4.470427,-5.893802,-0.632540,-0.616604,0.243077,-0.337339,-0.079241,-0.245130,1.858090,-0.770366,6.266613
0.494000,-0.120792,0.081678,0.292795,-0.044831,-0.022908,0.026921,-0.998369,0.092115,-0.113844,0.076775,-0.226815,-0.223609,0.648145,-0.004705,-0.979461,0.431019,0.014545,0.798858,0.013803,-0.004244,-0.768888,0.067449,0.001194,1.010401,-0.429461,2.165261,4.229658,-4.224496,-0.586786,-0.558785,0.225900,-0.354908,-0.182073,-0.111918,2.070992,-0.558487,4.159360
0.496000,-0.120601,0.081447,0.292957,-0.044133,-0.023099,0.027173,-0.998389,0.095815,-0.115491,0.081277,-0.226618,-0.220345,0.698630,-0.001353,-0.969782,0.416286,0.013296,0.797667,0.014263,-0.005032,-0.769274,0.067215,0.004107,1.007297,-0.415056,1.676037,4.839458,-7.366198,-0.624565,-0.595114,0.229750,-0.393978,-0.193113,-0.117203,1.456588,-1.552047,7.202608
0.498000,-0.120410,0.081223,0.293090,-0.043458,-0.023310,0.027476,-0.998405,0.095130,-0.111884,0.066350,-0.276471,-0.242309,0.675424,0.002731,-0.960717,0.405730,0.012191,0.796628,0.014585,-0.005887,-0.769792,0.067185,0.007431,1.004699,-0.404988,2.041786,4.532599,-5.278275,-0.552809,-0.519678,0.161069,-0.427456,-0.259060,-0.014786,1.661893,-1.298953,5.033896
0.500000,-0.120212,0.080988,0.293227,-0.042737,-0.023496,0.027692,-0.998426,0.099302,-0.117740,0.068254,-0.190847,-0.213806,0.720767,0.005587,-0.950648,0.390206,0.010844,0.795496,0.014872,-0.006630,-0.770261,0.067126,0.009816,1.000097,-0.388797,1.428240,5.034489,-7.761820,-0.673138,-0.565848,0.143399,-0.371452,-0.234152,-0.029942,1.192486,-2.301130,8.095405
0.502000,-0.120015,0.080754,0.293332,-0.042043,-0.023691,0.027920,-0.998445,0.098458,-0.116772,0.052649,-0.202616,-0.223199,0.693612,0.008909,-0.941229,0.378824,0.009566,0.794505,0.015006,-0.007346,-0.770813,0.067239,0.012797,0.996100,-0.376997,1.660665,4.709325,-5.691176,-0.639069,-0.495833,0.067022,-0.358274,-0.276057,0.056806,1.490557,-1.998180,5.900037
0.504000,-0.119810,0.080513,0.293441,-0.041309,-0.023862,0.028119,-0.998466,0.102170,-0.120433,0.054383,-0.173267,-0.199647,0.734129,0.011068,-0.930869,0.362093,0.008166,0.793448,0.015084,-0.008054,-0.771298,0.067282,0.014806,0.990335,-0.359826,1.079543,5.180315,-8.365242,-0.699954,-0.528116,0.038963,-0.353906,-0.242358,0.021388,1.004729,-2.882424,8.585753
0.506000,-0.119609,0.080281,0.293521,-0.040605,-0.024046,0.028400,-0.998482,0.100899,-0.116167,0.040073,-0.255636,-0.214170,0.705176,0.013765,-0.921157,0.348780,0.006981,0.792553,0.014996,-0.008877,-0.771844,0.067439,0.017210,0.985298,-0.347002,1.348418,4.855950,-6.656524,-0.592800,-0.447806,-0.043974,-0.411591,-0.273091,0.078768,1.201946,-2.518732,6.412050
0.508000,-0.119400,0.080044,0.293603,-0.039867,-0.024206,0.028668,-0.998500,0.104124,-0.118191,0.041173,-0.243057,-0.191870,0.739633,0.015499,-0.910788,0.331159,0.005721,0.791602,0.014852,-0.009720,-0.772317,0.067519,0.018666,0.978669,-0.329204,0.867207,5.184324,-8.810438,-0.629723,-0.475499,-0.071671,-0.421191,-0.236808,0.039766,0.727897,-3.314615,8.898649
0.510000,-0.119196,0.079814,0.293659,-0.039159,-0.024378,0.028978,-0.998515,0.102417,-0.115411,0.027816,-0.284912,-0.203263,0.709850,0.017680,-0.901209,0.317327,0.004601,0.790784,0.014583,-0.010594,-0.772851,0.067719,0.020555,0.972747,-0.315235,1.090630,4.789715,-6.916030,-0.560157,-0.408894,-0.134546,-0.436988,-0.266919,0.100070,0.944592,-2.961056,6.984640
0.512000,-0.118986,0.079577,0.293716,-0.038422,-0.024536,0.029252,-0.998532,0.104676,-0.118283,0.028499,-0.248499,-0.189763,0.739032,0.018951,-0.891197,0.299944,0.003370,0.789905,0.014311,-0.011429,-0.773355,0.067890,0.021666,0.965475,-0.297082,0.635468,5.005621,-8.691721,-0.615303,-0.439351,-0.136334,-0.417438,-0.251902,0.085279,0.555465,-3.635557,9.076463
0.514000,-0.118781,0.079345,0.293750,-0.037712,-0.024715,0.029569,-0.998545,0.102562,-0.115815,0.017328,-0.292641,-0.211147,0.711676,0.020543,-0.881893,0.285437,0.002276,0.789138,0.013977,-0.012301,-0.773946,0.068188,0.023128,0.958940,-0.282580,0.795862,4.652106,-7.253599,-0.547402,-0.383559,-0.166666,-0.436153,-0.295716,0.149164,0.730913,-3.267934,7.251130
0.516000,-0.118573,0.079110,0.293785,-0.036980,-0.024893,0.029864,-0.998559,0.103912,-0.117939,0.017083,-0.268762,-0.210082,0.733422,0.021398,-0.872375,0.268245,0.001104,0.788326,0.013670,-0.013147,-0.774549,0.068495,0.023945,0.951429,-0.265213,0.427694,4.759382,-8.595600,-0.585941,-0.405938,-0.153844,-0.423182,-0.301192,0.153470,0.408854,-3.755058,8.683244
0.518000,-0.118369,0.078878,0.293801,-0.036273,-0.025091,0.030198,-0.998570,0.101933,-0.115649,0.008034,-0.308658,-0.231770,0.709035,0.022502,-0.863532,0.253597,0.000053,0.787604,0.013333,-0.014028,-0.775231,0.068910,0.024982,0.944560,-0.250764,0.551627,4.421428,-7.324050,-0.525334,-0.361392,-0.168100,-0.440315,-0.340999,0.207592,0.518395,-3.434561,7.224805
0.520000,-0.118164,0.078645,0.293814,-0.035550,-0.025288,0.030520,-0.998582,0.102791,-0.116773,0.006522,-0.295797,-0.229761,0.724686,0.023046,-0.854719,0.237520,-0.001044,0.786860,0.012994,-0.014897,-0.775918,0.069334,0.025426,0.936932,-0.234004,0.271888,4.406453,-8.038815,-0.548579,-0.371902,-0.169843,-0.434731,-0.343625,0.211697,0.221882,-3.814339,8.379966
0.522000,-0.117962,0.078416,0.293813,-0.034848,-0.025503,0.030890,-0.998590,0.101030,-0.114610,-0.000514,-0.343900,-0.248793,0.703616,0.023729,-0.846469,0.223270,-0.002013,0.786196,0.012626,-0.015821,-0.776660,0.069825,0.025946,0.929842,-0.219415,0.341560,4.124744,-7.124961,-0.484675,-0.331992,-0.183815,-0.461748,-0.371003,0.245917,0.259787,-3.544718,7.294249
0.524000,-0.117760,0.078186,0.293805,-0.034141,-0.025724,0.031273,-0.998596,0.100761,-0.114871,-0.003878,-0.356743,-0.255654,0.708916,0.024035,-0.838460,0.208495,-0.002968,0.785551,0.012240,-0.016765,-0.777431,0.070348,0.026052,0.922486,-0.204251,0.153233,4.004388,-7.387319,-0.477416,-0.322514,-0.193209,-0.472231,-0.385493,0.261146,0.053448,-3.677897,7.582380
0.526000,-0.117564,0.077962,0.293783,-0.033459,-0.025976,0.031749,-0.998598,0.098303,-0.111936,-0.010930,-0.449098,-0.289747,0.685538,0.024473,-0.830906,0.194704,-0.003714,0.785015,0.011830,-0.017842,-0.778292,0.070950,0.026020,0.916883,-0.193360,0.218822,3.777123,-6.895619,-0.372718,-0.268121,-0.204676,-0.538280,-0.430261,0.301153,-0.016209,-2.801506,5.445405
0.528000,-0.117367,0.077724,0.293752,-0.032772,-0.026221,0.032099,-0.998603,0.098280,-0.119152,-0.015651,-0.323436,-0.277572,0.687645,0.024305,-0.823910,0.181987,-0.004724,0.784444,0.011433,-0.018646,-0.779166,0.071631,0.026009,0.912379,-0.185095,-0.083725,3.497912,-6.358314,-0.505281,-0.285192,-0.198673,-0.401886,-0.437394,0.340742,-0.005485,-2.252148,4.132527
0.530000,-0.117162,0.077465,0.293727,-0.032072,-0.026413,0.032248,-0.998616,0.102666,-0.129422,-0.012204,-0.123630,-0.218899,0.696746,0.023350,-0.817243,0.169828,-0.006151,0.783717,0.011066,-0.019046,-0.779841,0.072188,0.026193,0.908451,-0.178614,-0.477501,3.333548,-6.079732,-0.713521,-0.363610,-0.183198,-0.200003,-0.337198,0.278264,0.091925,-1.964072,3.240414
0.532000,-0.116943,0.077189,0.293716,-0.031346,-0.026502,0.032162,-0.998639,0.109579,-0.138097,-0.005532,0.109381,-0.108886,0.721555,0.021661,-0.811293,0.159590,-0.008060,0.782775,0.010628,-0.019026,-0.780143,0.072468,0.026609,0.904628,-0.173219,-0.844426,2.975022,-5.118898,-0.954568,-0.471109,-0.219371,0.009868,-0.151339,0.139849,0.207808,-1.911475,2.697684
0.534000,-0.116702,0.076917,0.293743,-0.030591,-0.026463,0.032038,-0.998668,0.120372,-0.135608,0.013217,0.143146,0.019776,0.752626,0.019665,-0.805451,0.148464,-0.010041,0.781598,0.010060,-0.019031,-0.779850,0.072136,0.026835,0.900645,-0.168455,-0.998289,2.921253,-5.562899,-0.990113,-0.588237,-0.284000,-0.002723,0.146559,-0.165675,0.113411,-1.991742,2.381817
0.536000,-0.116445,0.076673,0.293799,-0.029810,-0.026283,0.031981,-0.998698,0.128423,-0.122321,0.028012,0.072944,0.156580,0.785279,0.018141,-0.800636,0.140046,-0.011851,0.780284,0.009203,-0.019317,-0.778978,0.071199,0.026644,0.896450,-0.164148,-0.762050,2.407345,-4.209285,-0.905093,-0.657273,-0.428482,-0.143068,0.436291,-0.468620,-0.095483,-2.097427,2.153391
0.538000,-0.116174,0.076464,0.293897,-0.028999,-0.026000,0.032108,-0.998725,0.135711,-0.104334,0.049236,-0.113283,0.253775,0.822771,0.017103,-0.796055,0.130295,-0.013270,0.778838,0.008175,-0.020130,-0.777615,0.069654,0.025820,0.892107,-0.160218,-0.519083,2.290713,-4.875559,-0.709667,-0.722721,-0.513835,-0.406470,0.681424,-0.772753,-0.412114,-2.171509,1.964934
0.540000,-0.115901,0.076276,0.294015,-0.028148,-0.025630,0.032173,-0.998757,0.136268,-0.093766,0.058752,-0.051787,0.341726,0.864091,0.016478,-0.793009,0.124743,-0.014788,0.777269,0.007050,-0.020983,-0.776054,0.067915,0.024870,0.887600,-0.156490,-0.312301,1.522713,-2.776008,-0.758972,-0.784822,-0.562667,-0.426379,0.780412,-0.869126,-0.475309,-2.253458,1.864047
0.542000,-0.115631,0.076102,0.294163,-0.027246,-0.025235,0.032179,-0.998792,0.135010,-0.087459,0.074124,0.007185,0.366005,0.914686,0.015608,-0.790214,0.117001,-0.016442,0.775538,0.006095,-0.021869,-0.774525,0.066140,0.023820,0.883070,-0.152968,-0.434984,1.397749,-3.870614,-0.827103,-0.865178,-0.477497,-0.442731,0.764473,-0.887505,-0.524671,-2.264768,1.761239
0.544000,-0.115378,0.075926,0.294315,-0.026285,-0.024824,0.031882,-0.998838,0.126366,-0.087748,0.076232,0.310281,0.388309,0.967398,0.014522,-0.789127,0.113858,-0.018706,0.773674,0.005336,-0.022456,-0.773732,0.065229,0.023164,0.878524,-0.149530,-0.542785,0.543489,-1.571839,-1.132055,-0.932205,-0.379413,-0.293614,0.396578,-0.455647,-0.328232,-2.273212,1.718627
0.546000,-0.115141,0.075767,0.294493,-0.025270,-0.024441,0.031558,-0.998883,0.118854,-0.079684,0.088642,0.340831,0.360054,1.019232,0.013134,-0.788046,0.107566,-0.021053,0.771726,0.004843,-0.023321,-0.773755,0.065110,0.022376,0.874148,-0.146328,-0.694039,0.540606,-3.145561,-1.173075,-0.974065,-0.246319,-0.432420,-0.011622,-0.059662,-0.393867,-2.187756,1.601241
0.548000,-0.114927,0.075639,0.294665,-0.024238,-0.024080,0.031264,-0.998927,0.106909,-0.063922,0.086028,0.310805,0.337115,1.036141,0.012425,-0.788501,0.106197,-0.023283,0.769880,0.004373,-0.024448,-0.774339,0.065536,0.021392,0.870153,-0.143587,-0.354530,-0.227718,-0.684783,-1.115169,-0.922949,-0.235183,-0.563726,-0.291691,0.213347,-0.492117,-1.997640,1.370570
